nhaTahn/data_stock_market/data/processed/assets/data_info_vn/history/training_runs/reports/multimarket_portable_ensemble_academic_20260525/alpha_overall_metrics.csv
n,rel_score,absE_robust,base_robust,absE_q90,DA,pred_actual_q90_ratio,market,model
60655,0.0032538164621969123,0.02987154288566671,0.02996905669569969,0.03605675424914807,0.5201879482318028,0.07473812840380323,VN,ensemble_mean_raw
60655,0.0028532653743387204,0.029883547023928255,0.02996905669569969,0.03608544783492106,0.5201879482318028,0.09342266147109936,VN,ensemble_mean_train_cal
60655,0.002884776239492237,0.02988260267302394,0.02996905669569969,0.03600592827424407,0.5134284065617014,0.07999294037062803,VN,ensemble_median_raw
60655,0.0005734413911598901,0.02995187119813636,0.02996905669569969,0.036162747419439256,0.5134284065617014,0.11598976263548832,VN,ensemble_median_train_cal
60655,0.0018515926984323805,0.029913566209143025,0.02996905669569969,0.036170137848239386,0.5102959360316545,0.09562949013002195,VN,seed43_raw
60655,0.0007692055294298283,0.029946004331577562,0.02996905669569969,0.03623960085678844,0.5102959360316545,0.1099739202206735,VN,seed43_train_cal
60655,0.002165631845218896,0.02990415475214831,0.02996905669569969,0.03611561314901336,0.5251669277058775,0.1155652535739625,VN,seed52_raw
60655,0.004150951968110328,0.029844656580826266,0.02996905669569969,0.03604296407429501,0.5251669277058775,0.08667394018047188,VN,seed52_train_cal
60655,-0.0017078358385300696,0.030020238924771545,0.02996905669569969,0.036283187754452224,0.5115654109306735,0.09732375118703285,VN,seed62_raw
60655,0.0003192576074450004,0.029959488846361636,0.02996905669569969,0.03615180836059153,0.5115654109306735,0.029197124325341498,VN,seed62_train_cal
60655,0.0016175213919439324,0.029920581105398015,0.02996905669569969,0.03613766204798594,0.5158024894897371,0.07021344702667033,VN,seed71_raw
60655,0.0016600606447437771,0.029919306244119065,0.02996905669569969,0.036083049880107854,0.5158024894897371,0.03159605148411676,VN,seed71_train_cal
60655,0.0012739247581287083,0.029930878372397274,0.02996905669569969,0.03601767809595913,0.5024647597065369,0.09944698066715617,VN,seed82_raw
60655,0.001274805378220445,0.029930851981043817,0.02996905669569969,0.03601081594824791,0.5024647597065369,0.1044193221630204,VN,seed82_train_cal
60655,0.0028532653743387204,0.029883547023928255,0.02996905669569969,0.03608544783492106,0.5201879482318028,0.09342266147109936,VN,selected_train_only_portable_ensemble
58998,-0.0022227310097384656,0.020158699099556553,0.020113991107791662,0.02420196780585686,0.506593443845554,0.0604260735240131,US,ensemble_mean_raw
58998,-0.005607444901450043,0.02022677920467686,0.020113991107791662,0.02428535360377282,0.506593443845554,0.09063910980384336,US,ensemble_mean_train_cal
58998,-0.0021965423256640193,0.020158172340597958,0.020113991107791662,0.02419177597621456,0.5055256110376622,0.05727203891787455,US,ensemble_median_raw
58998,-0.003149326394049634,0.020177336630877108,0.020113991107791662,0.0242355655413121,0.5055256110376622,0.07731725673406425,US,ensemble_median_train_cal
58998,-0.00891282397928439,0.0202932635700563,0.020113991107791662,0.02443200529669412,0.5052374656768026,0.11860875923738849,US,seed43_raw
58998,-0.005687207866229782,0.02022838355624117,0.020113991107791662,0.024344799434766175,0.5052374656768026,0.0948870075827813,US,seed43_train_cal
58998,-0.0008246507590892183,0.02013057812582702,0.020113991107791662,0.024120053718797867,0.5033221465134411,0.07827075887486906,US,seed52_raw
58998,-0.003622522417049412,0.020186854491475968,0.020113991107791662,0.024190229002851994,0.5033221465134411,0.10566553267806995,US,seed52_train_cal
58998,-0.005558636422114072,0.020225797471357512,0.020113991107791662,0.024279550439678135,0.5031187497881284,0.08470801757698398,US,seed62_raw
58998,-0.006202029590965719,0.02023873867583461,0.020113991107791662,0.024304255889728666,0.5031187497881284,0.08894341252506499,US,seed62_train_cal
58998,-0.0018900746882695163,0.02015200805326458,0.020113991107791662,0.02418420267640613,0.5060680023051629,0.05778751139527196,US,seed71_raw
58998,-0.0019464240639894825,0.02015314146410674,0.020113991107791662,0.02418432972626761,0.5060680023051629,0.04911938169648825,US,seed71_train_cal
58998,-0.0015113488812121822,0.020144390365749134,0.020113991107791662,0.024186362719046887,0.504779823044849,0.06518254769523793,US,seed82_raw
58998,-0.0013206741053783944,0.020140555135003534,0.020113991107791662,0.02417784052668141,0.504779823044849,0.07495992874051818,US,seed82_train_cal
58998,-0.005607444901450043,0.02022677920467686,0.020113991107791662,0.02428535360377282,0.506593443845554,0.09063910980384336,US,selected_train_only_portable_ensemble
16660,-0.0024660497923483238,0.02035350761434529,0.020303438324481247,0.024079350871033967,0.4991596638655462,0.045235558441473644,JP,ensemble_mean_raw
16660,-0.0011012515227240005,0.020325797516852616,0.020303438324481247,0.024067108478629962,0.4991596638655462,0.020356000547440592,JP,ensemble_mean_train_cal
16660,-0.000885250231221324,0.020321411947952582,0.020303438324481247,0.02400051801232621,0.4989795918367347,0.04179862561207578,JP,ensemble_median_raw
16660,-1.2805308602148457e-05,0.020303698316274675,0.020303438324481247,0.02399905231432058,0.4989795918367347,0.02089931280603789,JP,ensemble_median_train_cal
16660,-0.0010808402915623017,0.020325383098679598,0.020303438324481247,0.023986706015421085,0.5009003601440576,0.05664796809440929,JP,seed43_raw
16660,0.0005487938923189883,0.020292295921535697,0.020303438324481247,0.023978186800377443,0.5009003601440576,0.025491582298332184,JP,seed43_train_cal
16660,-0.009592039864277924,0.02049818971427158,0.020303438324481247,0.02413328897673637,0.5016206482593037,0.12811221809370557,JP,seed52_raw
16660,-0.0008140262791134223,0.020319965856833735,0.020303438324481247,0.024038066450157207,0.5016206482593037,0.006405611074316177,JP,seed52_train_cal
16660,-0.002701453744209159,0.020358287123963238,0.020303438324481247,0.02408869944047183,0.50078031212485,0.06340040274756614,JP,seed62_raw
16660,-0.0014278327264303226,0.020332428238180003,0.020303438324481247,0.024052244008635173,0.50078031212485,0.057060357771610344,JP,seed62_train_cal
16660,-0.0024291119617443346,0.020352757649379785,0.020303438324481247,0.02408496639109217,0.49891956782713087,0.05717328203002224,JP,seed71_raw
16660,-0.000825714164800706,0.020320203161099927,0.020303438324481247,0.02404246982478071,0.49891956782713087,0.011434656745266246,JP,seed71_train_cal
16660,0.001020283040035208,0.02028272307070438,0.020303438324481247,0.023918749886797742,0.5037214885954382,0.04890242256109095,JP,seed82_raw
16660,0.0011022395952865471,0.020281059070839547,0.020303438324481247,0.023890950600616634,0.5037214885954382,0.06601827084520055,JP,seed82_train_cal
16660,-1.2805308602148457e-05,0.020303698316274675,0.020303438324481247,0.02399905231432058,0.4989795918367347,0.02089931280603789,JP,selected_train_only_portable_ensemble
