nhaTahn/data_stock_market/data/processed/assets/data_info_vn/history/training_runs/reports/multimarket_portable_ensemble_academic_20260525/fold_metrics.csv
n,rel_score,absE_robust,base_robust,absE_q90,DA,pred_actual_q90_ratio,market,model,fold_id,test_start,test_end,alpha_rel_score,alpha_absE_robust,selected_from_train
1908,0.011632023075841547,0.04542687086504884,0.045961496047675604,0.06026537010911852,0.47379454926624737,0.06693398377051413,VN,ensemble_mean_raw,0,2020-04-01,2020-05-04,0.027934757135296362,0.03487407856155186,
1922,0.006754866330011544,0.03261482388770674,0.03283663094043732,0.041101448918925615,0.5338189386056191,0.051968917378219445,VN,ensemble_mean_raw,1,2020-05-05,2020-06-02,-0.005217182137434495,0.02885869580204599,
1916,-0.0007721405830871664,0.03687894529866753,0.03685049153864384,0.048301053102477454,0.4744258872651357,0.06321139624977734,VN,ensemble_mean_raw,2,2020-06-03,2020-07-01,0.009914622857587596,0.027159290650160983,
1905,0.014533621613336711,0.03336499947763516,0.03385706525295973,0.045572218904271766,0.420997375328084,0.05931304727908042,VN,ensemble_mean_raw,3,2020-07-02,2020-07-30,0.01284726883688525,0.021590657409979033,
1910,-0.006553833980737389,0.024802110192104012,0.024640619661659004,0.030751785426400606,0.42984293193717277,0.07431219753744923,VN,ensemble_mean_raw,4,2020-07-31,2020-08-28,-0.0012761053688450374,0.021060225839028137,
1925,0.001592534638739207,0.021450503499363553,0.021484718658030033,0.027227998018497606,0.4820779220779221,0.07238854839506215,VN,ensemble_mean_raw,5,2020-08-31,2020-09-29,-0.0024196889771206376,0.020441795198712497,
1927,-0.013908848066825463,0.024976641996181572,0.024634011276066303,0.031549625232582916,0.45303580695381424,0.06293861934751496,VN,ensemble_mean_raw,6,2020-09-30,2020-10-28,0.001677732856626979,0.022801282402360817,
1906,0.0024415482158242074,0.025077469821553677,0.025138847529888153,0.032310467096976936,0.4769150052465897,0.05120340943102928,VN,ensemble_mean_raw,7,2020-10-29,2020-11-26,-0.0013498250245851384,0.023706442152615637,
1914,0.016326275842308613,0.031152388501504903,0.03166943239048124,0.04004005250753835,0.5292580982236155,0.048676781157425686,VN,ensemble_mean_raw,8,2020-11-27,2020-12-25,-0.005348596356663737,0.029017383871541826,
1920,-0.012998718686004107,0.0432797272806056,0.0427243652753532,0.05915098375407982,0.5151041666666667,0.046155372504236236,VN,ensemble_mean_raw,9,2020-12-28,2021-01-26,0.003255067246615284,0.031819712719880044,
1921,0.034699325619525045,0.0488078310736455,0.050562309101223946,0.06485810794401914,0.4737116085372202,0.06603258808024369,VN,ensemble_mean_raw,10,2021-01-27,2021-03-03,-0.004696344438548605,0.028944489546120167,
1930,-0.012975655510597539,0.025849316775111222,0.025518201384693386,0.03223759185548261,0.42487046632124353,0.07122699025982154,VN,ensemble_mean_raw,11,2021-03-04,2021-04-01,0.01398400433013225,0.021584922930924223,
1929,0.0035848532664977117,0.031178832467412577,0.03129100613296032,0.03857403959846124,0.45619491964748576,0.059593282440558705,VN,ensemble_mean_raw,12,2021-04-02,2021-05-05,-0.0017970640268014648,0.025580955321493095,
1926,0.005634097450664233,0.03372415808553342,0.0339152398519218,0.04142199194757268,0.5103842159916926,0.0468169798415316,VN,ensemble_mean_raw,13,2021-05-06,2021-06-03,0.0059994658553917946,0.03206743180635385,
1928,-0.001275899383552881,0.03178767962381243,0.03174717342481017,0.040324701415374864,0.4828838174273859,0.058497486340914714,VN,ensemble_mean_raw,14,2021-06-04,2021-07-02,0.004813162570216578,0.028972867055563255,
1929,-0.006821039937803253,0.04274980453337776,0.04246018193662167,0.05487078316509724,0.4494556765163297,0.06417693883990723,VN,ensemble_mean_raw,15,2021-07-05,2021-08-02,0.008923200708603307,0.03188985964516178,
1939,-4.686712860868525e-05,0.033221016367315316,0.03321945946663618,0.043188242428004744,0.4363073749355338,0.05031022259689309,VN,ensemble_mean_raw,16,2021-08-03,2021-08-31,-0.0028118954950737685,0.02957872071565362,
1945,0.008497051568284952,0.02944546222643113,0.029697806015610697,0.03597116110759091,0.4961439588688946,0.050678217728425866,VN,ensemble_mean_raw,17,2021-09-01,2021-10-01,0.011633727524003712,0.02649478609964718,
1946,0.01024588416689487,0.02571933193030418,0.025985577143728733,0.033028150646714494,0.45580678314491263,0.053540715445581324,VN,ensemble_mean_raw,18,2021-10-04,2021-11-01,0.0050948004267794555,0.02497147349640727,
1949,0.01964618271463192,0.04050209993147291,0.04131375756114722,0.0520454496727325,0.48589020010261674,0.04300024342027699,VN,ensemble_mean_raw,19,2021-11-02,2021-11-30,0.008002508554331489,0.039253758348058915,
1951,0.010070750224458691,0.035438709950540215,0.035799235105514526,0.04520853399299085,0.48744233726294206,0.057975018325429464,VN,ensemble_mean_raw,20,2021-12-01,2021-12-29,0.016457828394805696,0.031291236518882215,
1931,0.03367117934262054,0.04827094858046621,0.04995292238891125,0.06420623138546944,0.4940445365095805,0.0520366304951976,VN,ensemble_mean_raw,21,2021-12-30,2022-01-28,0.00863452993915792,0.03839433744724374,
1945,-0.011150103093362063,0.031615529500413686,0.03126690033823252,0.039474686025641866,0.4488431876606684,0.06810908792048921,VN,ensemble_mean_raw,22,2022-02-07,2022-03-07,-0.015185525051216509,0.028338714444544166,
1951,0.003141112431428006,0.02955938468221575,0.02965252660214901,0.03754262998700142,0.4613018964633521,0.05589893322971414,VN,ensemble_mean_raw,23,2022-03-08,2022-04-05,-0.0025548750332085035,0.027898509317310527,
1950,0.012351979463403717,0.05516008466947824,0.05584994200617075,0.06811936744488777,0.5051282051282051,0.0805164225907046,VN,ensemble_mean_raw,24,2022-04-06,2022-05-09,-0.02362147011795024,0.03967268409905955,
1947,0.020335240630523943,0.05086481992620975,0.051920638605952266,0.06667479784227909,0.4761171032357473,0.08329488784206958,VN,ensemble_mean_raw,25,2022-05-10,2022-06-07,0.011076782970507848,0.03572737901704386,
1951,0.006336183598816492,0.05485850604600273,0.05520831607282162,0.06829550181282684,0.48744233726294206,0.08616316610591371,VN,ensemble_mean_raw,26,2022-06-08,2022-07-06,-0.009981416962558942,0.04166719445493072,
1949,-0.0017614262921132884,0.03258539526723325,0.03252809941768647,0.04150053160265088,0.46998460749102106,0.06614577623677585,VN,ensemble_mean_raw,27,2022-07-07,2022-08-04,-0.004300107130701392,0.028240930338506588,
1950,-0.006375846781393912,0.02614711929054466,0.025981465447694082,0.0324059011123609,0.4512820512820513,0.06445282061336374,VN,ensemble_mean_raw,28,2022-08-05,2022-09-06,0.010560167619807381,0.023517632111907015,
1952,0.022522004897912118,0.04664723754103761,0.047722033411264436,0.06198591613792814,0.4984631147540984,0.07006235276364851,VN,ensemble_mean_raw,29,2022-09-07,2022-10-05,0.003331628753079907,0.03150024136120919,
1949,0.022990955631477683,0.053831553133204584,0.05509831607341766,0.06761952033266426,0.5115443817342227,0.08329415028886909,VN,ensemble_mean_raw,30,2022-10-06,2022-11-03,0.01496517833078792,0.03953316372353584,
734,-0.032831483915497506,0.08052161114756018,0.07796200290322304,0.07663041888736188,0.48637602179836514,0.148768665320367,VN,ensemble_mean_raw,31,2022-11-04,2022-11-15,-0.05180232813209007,0.05147020812146366,
1908,0.020318487373632288,0.045027627970557656,0.045961496047675604,0.05944493892602622,0.47379454926624737,0.08366748232614692,VN,ensemble_mean_train_cal,0,2020-04-01,2020-05-04,0.031673784266891936,0.03473993620136752,
1922,0.008134738162310806,0.032569513545604424,0.03283663094043732,0.041034418519120666,0.5338189386056191,0.06496114406850505,VN,ensemble_mean_train_cal,1,2020-05-05,2020-06-02,-0.008526483348582303,0.02895370225305669,
1916,0.005465477185630729,0.0366490860178601,0.03685049153864384,0.04807509685633704,0.4744258872651357,0.07901424591779517,VN,ensemble_mean_train_cal,2,2020-06-03,2020-07-01,0.011834335924625794,0.027106630499474704,
1905,0.006814670988384397,0.03362634049262855,0.03385706525295973,0.04598700858186937,0.420997375328084,0.07414130711782149,VN,ensemble_mean_train_cal,3,2020-07-02,2020-07-30,0.016409356849254486,0.021512748673558235,
1910,-0.006997191133341074,0.024813034787075597,0.024640619661659004,0.03065819796174765,0.42984293193717277,0.09289024369914765,VN,ensemble_mean_train_cal,4,2020-07-31,2020-08-28,-0.0016943576562666873,0.021069023100426423,
1925,0.0022053474177795573,0.021437337389215827,0.021484718658030033,0.02709080930799246,0.4820779220779221,0.09048568762250539,VN,ensemble_mean_train_cal,5,2020-08-31,2020-09-29,0.0005044407556509256,0.02038216502405703,
1927,-0.013387496908289664,0.02496379902586341,0.024634011276066303,0.03142516659572721,0.45303580695381424,0.07867327790968352,VN,ensemble_mean_train_cal,6,2020-09-30,2020-10-28,0.0003714617075593063,0.022831117114401424,
1906,0.006052402863237827,0.02498669709711976,0.025138847529888153,0.0321894217049703,0.4769150052465897,0.06400426223528771,VN,ensemble_mean_train_cal,7,2020-10-29,2020-11-26,-0.0014946816539491703,0.02370987155882176,
1914,0.0206365017734369,0.031015886092791337,0.03166943239048124,0.03995396496029571,0.5292580982236155,0.06084597759087176,VN,ensemble_mean_train_cal,8,2020-11-27,2020-12-25,-0.007051051174712164,0.02906652183737606,
1920,-0.012658840977962438,0.043265206221258276,0.0427243652753532,0.0594398090732284,0.5151041666666667,0.05769421732915104,VN,ensemble_mean_train_cal,9,2020-12-28,2021-01-26,0.004030376785247314,0.031794962027925075,
1921,0.03861655568360245,0.04860976687632501,0.050562309101223946,0.0645640913862735,0.4737116085372202,0.0825407351003046,VN,ensemble_mean_train_cal,10,2021-01-27,2021-03-03,-0.009925359480880802,0.029095133242662996,
1930,-0.01643503784700795,0.02593759399023839,0.025518201384693386,0.032386018277611596,0.42487046632124353,0.08903373800617696,VN,ensemble_mean_train_cal,11,2021-03-04,2021-04-01,0.01082701068666403,0.021654032828519125,
1929,0.0008750043379961436,0.03126362636685372,0.03129100613296032,0.03867723108269274,0.45619491964748576,0.07449160125813822,VN,ensemble_mean_train_cal,12,2021-04-02,2021-05-05,0.0003882621991739832,0.02552515286952257,
1926,0.005863832444514494,0.03371636656811461,0.0339152398519218,0.04153735772706568,0.5103842159916926,0.05852122620105261,VN,ensemble_mean_train_cal,13,2021-05-06,2021-06-03,0.004888743713763688,0.03210326479165815,
1928,0.0011270570728382223,0.031711392548459116,0.03174717342481017,0.040122337712091394,0.4828838174273859,0.07312185734856584,VN,ensemble_mean_train_cal,14,2021-06-04,2021-07-02,0.005885803892430985,0.02894163925666362,
1929,-0.004415769419661597,0.04264767630957067,0.04246018193662167,0.054569076746702194,0.4494556765163297,0.08022117225999194,VN,ensemble_mean_train_cal,15,2021-07-05,2021-08-02,0.004650818144650626,0.032027332019060856,
1939,0.003872338864344904,0.033090822462690996,0.03321945946663618,0.04284020852064714,0.4363073749355338,0.06288777556451557,VN,ensemble_mean_train_cal,16,2021-08-03,2021-08-31,-0.0003405614676519342,0.029505826786771654,
1945,0.007605081178535866,0.029471951790037566,0.029697806015610697,0.035998254735022786,0.4961439588688946,0.06334777216053233,VN,ensemble_mean_train_cal,17,2021-09-01,2021-10-01,0.012587060802340289,0.02646923043066636,
1946,0.006111730811749427,0.025826760291238315,0.025985577143728733,0.03333262645173818,0.45580678314491263,0.06692589300003512,VN,ensemble_mean_train_cal,18,2021-10-04,2021-11-01,0.00559713106161297,0.024958865324151702,
1949,0.01913512775228765,0.040523213532287626,0.04131375756114722,0.05231839830521494,0.48589020010261674,0.05375030601485771,VN,ensemble_mean_train_cal,19,2021-11-02,2021-11-30,0.009029470526743077,0.03921312103047967,
1951,0.014159800574081616,0.03529232507571578,0.035799235105514526,0.04500087536871433,0.48744233726294206,0.07246877546792133,VN,ensemble_mean_train_cal,20,2021-12-01,2021-12-29,0.018832567475341122,0.03121568457572721,
1931,0.034303968551887665,0.04823933891020715,0.04995292238891125,0.06400683289393783,0.4940445365095805,0.06504578725519605,VN,ensemble_mean_train_cal,21,2021-12-30,2022-01-28,0.0068166165560530345,0.03846474294550717,
1945,-0.019013865306729993,0.03186140496982262,0.03126690033823252,0.03980900107417256,0.4488431876606684,0.08513636110020498,VN,ensemble_mean_train_cal,22,2022-02-07,2022-03-07,-0.0180095290033202,0.028417545987758787,
1951,0.0009210283018477039,0.02962521578592714,0.02965252660214901,0.037687727686716244,0.4613018964633521,0.06987366653714268,VN,ensemble_mean_train_cal,23,2022-03-08,2022-04-05,1.4679817819995833e-05,0.027827005251310766,
1950,0.017795333984344963,0.05485607363516465,0.05584994200617075,0.0678767008939758,0.5051282051282051,0.10064553009769339,VN,ensemble_mean_train_cal,24,2022-04-06,2022-05-09,-0.029721170826401355,0.03990909131243825,
1947,0.02634587586987458,0.05055274390615523,0.051920638605952266,0.06620165929198266,0.4761171032357473,0.1041186091255867,VN,ensemble_mean_train_cal,25,2022-05-10,2022-06-07,0.0066859908550463976,0.035886007605586204,
1951,0.00559365797721767,0.05489949963521212,0.05520831607282162,0.06829677219502628,0.48744233726294206,0.10770396101901777,VN,ensemble_mean_train_cal,26,2022-06-08,2022-07-06,-0.017886753420993662,0.041993332328274846,
1949,-0.004194443966619277,0.032664536708034576,0.03252809941768647,0.04178686528466642,0.46998460749102106,0.08268221860672254,VN,ensemble_mean_train_cal,27,2022-07-07,2022-08-04,-0.0048733678023671345,0.028257050435058773,
1950,-0.005663726860775098,0.02612861737143249,0.025981465447694082,0.03235114335548134,0.4512820512820513,0.0805660237834362,VN,ensemble_mean_train_cal,28,2022-08-05,2022-09-06,0.010687933560100449,0.023514595290180306,
1952,0.022684274099099344,0.046639493724796935,0.047722033411264436,0.06214648098102774,0.4984631147540984,0.08757794442620251,VN,ensemble_mean_train_cal,29,2022-09-07,2022-10-05,0.0026204337927228094,0.0315227190614678,
1949,0.028582325390645424,0.05352347807493061,0.05509831607341766,0.06756179775111378,0.5115443817342227,0.10411768921521426,VN,ensemble_mean_train_cal,30,2022-10-06,2022-11-03,0.01909449587098755,0.03936743863159792,
734,-0.04787523532492899,0.08169445213861765,0.07796200290322304,0.07878602072596551,0.48637602179836514,0.18596082495641134,VN,ensemble_mean_train_cal,31,2022-11-04,2022-11-15,-0.05684708859820509,0.05171707472763956,
1908,0.018176534172186898,0.045126075344160195,0.045961496047675604,0.05980104571208357,0.4790356394129979,0.07937005042494975,VN,ensemble_median_raw,0,2020-04-01,2020-05-04,0.025669121764965608,0.034955361115862615,
1922,0.007571080051360757,0.03258802217897028,0.03283663094043732,0.041163612739183016,0.5192507804370448,0.05873077001479954,VN,ensemble_median_raw,1,2020-05-05,2020-06-02,-0.005298335976208213,0.0288610256407992,
1916,-0.004602120609643379,0.03702008194522932,0.03685049153864384,0.048351427423767745,0.4681628392484342,0.06237621351114495,VN,ensemble_median_raw,2,2020-06-03,2020-07-01,0.005723036408268212,0.0272742711531464,
1905,0.015628529123832946,0.033327929122606334,0.03385706525295973,0.04547319037374117,0.4188976377952756,0.06437202092854162,VN,ensemble_median_raw,3,2020-07-02,2020-07-30,0.008307153711777593,0.02168995721149259,
1910,-0.0027657559205813698,0.02470876960137503,0.024640619661659004,0.030323414096983484,0.437696335078534,0.07311109857296864,VN,ensemble_median_raw,4,2020-07-31,2020-08-28,0.0006075672118499575,0.021020605828380216,
1925,-0.004978809045421695,0.02159168696962297,0.021484718658030033,0.027361315861344344,0.48675324675324677,0.0769404515180878,VN,ensemble_median_raw,5,2020-08-31,2020-09-29,-0.0010728754089905923,0.020414330367930236,
1927,-0.014334508700648785,0.024987127725034954,0.024634011276066303,0.031494549778290096,0.45407368967306694,0.06653991512132806,VN,ensemble_median_raw,6,2020-09-30,2020-10-28,0.002171939309247639,0.02278999492409639,
1906,0.004774293592414436,0.025018827291205525,0.025138847529888153,0.032166189164854586,0.472193074501574,0.05549118458215812,VN,ensemble_median_raw,7,2020-10-29,2020-11-26,-0.001384289994500687,0.023707258093054406,
1914,0.01573720343450069,0.031171044090297074,0.03166943239048124,0.040022465959191324,0.5235109717868338,0.05263787920816877,VN,ensemble_median_raw,8,2020-11-27,2020-12-25,-0.00881972901314243,0.029117571198730728,
1920,-0.011707491082340704,0.043224560400813065,0.0427243652753532,0.059012458752840766,0.5166666666666667,0.05018326632118931,VN,ensemble_median_raw,9,2020-12-28,2021-01-26,0.010415118855170102,0.03159113790825359,
1921,0.03552290913908063,0.04876618878915906,0.050562309101223946,0.0647452196571976,0.4747527329515877,0.06968650592979692,VN,ensemble_median_raw,10,2021-01-27,2021-03-03,-0.0062028316815283535,0.028987890225835145,
1930,-0.009404032042162891,0.02575817536817341,0.025518201384693386,0.0322064958738338,0.4191709844559586,0.08219962969893467,VN,ensemble_median_raw,11,2021-03-04,2021-04-01,0.013484111461670056,0.021595866109419156,
1929,0.0010270743568558949,0.031258867942960934,0.03129100613296032,0.03872889572521672,0.4525660964230171,0.062304119781259874,VN,ensemble_median_raw,12,2021-04-02,2021-05-05,-0.004222067160045473,0.02564287793939002,
1926,0.004182727837092504,0.03377338163409149,0.0339152398519218,0.04152503143996,0.5010384215991692,0.05317077378247114,VN,ensemble_median_raw,13,2021-05-06,2021-06-03,0.001678534058955683,0.032206829302595,
1928,0.002748512386647417,0.031659915925411036,0.03174717342481017,0.040139517118223,0.48132780082987553,0.0631176545015558,VN,ensemble_median_raw,14,2021-06-04,2021-07-02,0.009547237238064166,0.02883504397468641,
1929,-0.012934134426629607,0.04300936763756909,0.04246018193662167,0.0551331996335648,0.4406428201140487,0.06548517062307416,VN,ensemble_median_raw,15,2021-07-05,2021-08-02,0.007982396705117356,0.03192013187799603,
1939,0.006035937789159451,0.03301894887590606,0.03321945946663618,0.04283451036098996,0.45074780814853016,0.05698689156301456,VN,ensemble_median_raw,16,2021-08-03,2021-08-31,-0.004701813870231497,0.029634465335402642,
1945,0.005474030951872821,0.029535239306278528,0.029697806015610697,0.03606122529599816,0.4832904884318766,0.05270803675808085,VN,ensemble_median_raw,17,2021-09-01,2021-10-01,0.0065424942716324486,0.026631264993920923,
1946,0.008235380128329362,0.0257715760380961,0.025985577143728733,0.033220722631085664,0.4630010277492292,0.059243122629730846,VN,ensemble_median_raw,18,2021-10-04,2021-11-01,0.0011558891547515104,0.02507033760775812,
1949,0.015161499583679627,0.040687379043083644,0.04131375756114722,0.05233453044202179,0.4817855310415598,0.04871644423231991,VN,ensemble_median_raw,19,2021-11-02,2021-11-30,0.005232639173933795,0.03936336324550212,
1951,0.008890015113763194,0.03548097936436534,0.035799235105514526,0.0452469801530242,0.48026652998462327,0.06464857157539029,VN,ensemble_median_raw,20,2021-12-01,2021-12-29,0.020898336027151965,0.031149962480412796,
1931,0.034293732992704884,0.048239850206300616,0.04995292238891125,0.06427795393392444,0.49145520455722425,0.05668397981762937,VN,ensemble_median_raw,21,2021-12-30,2022-01-28,0.009706829764430047,0.038352808624040335,
1945,-0.013500687730908956,0.03168902499601245,0.03126690033823252,0.03950920794159174,0.4647814910025707,0.07548773335067917,VN,ensemble_median_raw,22,2022-02-07,2022-03-07,-0.016502946191855106,0.0283754900097847,
1951,-0.0025550239896419136,0.029728289518970996,0.02965252660214901,0.03764444449916482,0.45720143516145567,0.05918567130816562,VN,ensemble_median_raw,23,2022-03-08,2022-04-05,0.0005369753109309983,0.027812471118522808,
1950,0.012874879174319176,0.05513088075094857,0.05584994200617075,0.06806598973926158,0.4917948717948718,0.07994706116310553,VN,ensemble_median_raw,24,2022-04-06,2022-05-09,-0.023452789895716863,0.039666146528907126,
1947,0.0217255493862053,0.05079263420775533,0.051920638605952266,0.06652209199965001,0.48484848484848486,0.0858944957581763,VN,ensemble_median_raw,25,2022-05-10,2022-06-07,0.014825862218659891,0.03559193394612521,
1951,0.008797764822591758,0.05472260629176162,0.05520831607282162,0.0680950342793949,0.4925679138903127,0.08508346244053357,VN,ensemble_median_raw,26,2022-06-08,2022-07-06,-0.0127630511646033,0.04178195190615952,
1949,-0.005154514913094932,0.032695765991229565,0.03252809941768647,0.041727310582064095,0.4710107747562853,0.07518717602940295,VN,ensemble_median_raw,27,2022-07-07,2022-08-04,-0.011008419682611015,0.028429568163119256,
1950,-0.006766596259621949,0.026157271534611944,0.025981465447694082,0.0322820134664653,0.44769230769230767,0.0720063286486387,VN,ensemble_median_raw,28,2022-08-05,2022-09-06,0.005206719326786402,0.023644876258913428,
1952,0.017072366712926668,0.04690730535658079,0.047722033411264436,0.0621346910251305,0.49334016393442626,0.07080601353390126,VN,ensemble_median_raw,29,2022-09-07,2022-10-05,0.0015696510404318298,0.03155592961702496,
1949,0.022717576212032853,0.05384661587886512,0.05509831607341766,0.06771355597302317,0.5151359671626475,0.08432602011111735,VN,ensemble_median_raw,30,2022-10-06,2022-11-03,0.013509212789556191,0.03959159711375833,
734,-0.0350867724375048,0.08069743795786052,0.07796200290322304,0.07609784784726799,0.47547683923705725,0.13473309676177012,VN,ensemble_median_raw,31,2022-11-04,2022-11-15,-0.044272739896648705,0.05110174585133792,
1908,0.03466567266921805,0.044368209870299324,0.045961496047675604,0.05829483308480121,0.4790356394129979,0.11508657617712499,VN,ensemble_median_train_cal,0,2020-04-01,2020-05-04,0.03895341837558519,0.03447877005673945,
1922,0.011475004696797741,0.032459830446168784,0.03283663094043732,0.040775864594616004,0.5192507804370448,0.08515961959482372,VN,ensemble_median_train_cal,1,2020-05-05,2020-06-02,-0.009122090837126784,0.028970801498508083,
1916,-0.0030708072581233647,0.03696365229552612,0.03685049153864384,0.04824801697395742,0.4681628392484342,0.0904455162524686,VN,ensemble_median_train_cal,2,2020-06-03,2020-07-01,0.005798620132329679,0.027272197796264663,
1905,0.005594780917630771,0.03366764239035549,0.03385706525295973,0.04592421464622025,0.4188976377952756,0.09333943371413471,VN,ensemble_median_train_cal,3,2020-07-02,2020-07-30,0.01585420247077307,0.02152489081490785,
1910,-0.005394752794104507,0.024773549713427205,0.024640619661659004,0.03049037323798985,0.437696335078534,0.10601109452317962,VN,ensemble_median_train_cal,4,2020-07-31,2020-08-28,-0.003916814595307905,0.02111576889292337,
1925,0.0014962412178296525,0.021452572336420415,0.021484718658030033,0.027069735154509545,0.48675324675324677,0.11156365853284722,VN,ensemble_median_train_cal,5,2020-08-31,2020-09-29,-0.00476213291600458,0.020489563373848795,
1927,-0.019871614941338267,0.025123528862604876,0.024634011276066303,0.03149762019747869,0.45407368967306694,0.09648288117275608,VN,ensemble_median_train_cal,6,2020-09-30,2020-10-28,0.0065030637540988145,0.02269107376923785,
1906,-0.0021916189017803234,0.02519394230330363,0.025138847529888153,0.03228967130417004,0.472193074501574,0.08046222166263925,VN,ensemble_median_train_cal,7,2020-10-29,2020-11-26,0.00022505463697486405,0.023669157686526887,
1914,0.021660006583086755,0.030983472276420797,0.03166943239048124,0.03963058905501384,0.5235109717868338,0.07632492525227609,VN,ensemble_median_train_cal,8,2020-11-27,2020-12-25,-0.009210403193844252,0.029128847230458634,
1920,-0.014684342084962498,0.043351744470419375,0.0427243652753532,0.059653053223155464,0.5166666666666667,0.07276573752480908,VN,ensemble_median_train_cal,9,2020-12-28,2021-01-26,0.003867182921932333,0.03180017176782712,
1921,0.047916987546302914,0.04813951556570828,0.050562309101223946,0.06380362901836634,0.4747527329515877,0.10104543738868399,VN,ensemble_median_train_cal,10,2021-01-27,2021-03-03,-0.01902211541812382,0.02935720342793502,
1930,-0.019060369538412614,0.026004587733041276,0.025518201384693386,0.03225786121765853,0.4191709844559586,0.11918946542165591,VN,ensemble_median_train_cal,11,2021-03-04,2021-04-01,0.008260728795475791,0.021710211427125623,
1929,-6.342031370376588e-05,0.03129299061838538,0.03129100613296032,0.03856156757101417,0.4525660964230171,0.09034097840323524,VN,ensemble_median_train_cal,12,2021-04-02,2021-05-05,-0.005520343051430565,0.025676029501482844,
1926,0.006731368888413858,0.033686943861539476,0.0339152398519218,0.041382354305824265,0.5010384215991692,0.07709762478285936,VN,ensemble_median_train_cal,13,2021-05-06,2021-06-03,0.004374741122710191,0.03211984701920301,
1928,-0.002093978130816021,0.031813651311676946,0.03174717342481017,0.04027629233896732,0.48132780082987553,0.09152060234832682,VN,ensemble_median_train_cal,14,2021-06-04,2021-07-02,0.0118636028239405,0.028767607640475035,
1929,-0.008138085404467477,0.04280572652351112,0.04246018193662167,0.054923257557675256,0.4406428201140487,0.09495350458385687,VN,ensemble_median_train_cal,15,2021-07-05,2021-08-02,-0.005400843385049869,0.03235076414421201,
1939,-3.872291729734023e-05,0.03322074582101777,0.03321945946663618,0.0430975234368816,0.45074780814853016,0.08263099598429208,VN,ensemble_median_train_cal,16,2021-08-03,2021-08-31,-0.001222279939501858,0.029531833762303,
1945,0.006764553673927476,0.02949691361282021,0.029697806015610697,0.03612459837459028,0.4832904884318766,0.076426657251526,VN,ensemble_median_train_cal,17,2021-09-01,2021-10-01,0.0035216265348104736,0.026712244329974065,
1946,0.002194044638014536,0.02592856362753082,0.025985577143728733,0.03353658225387335,0.4630010277492292,0.08590253060125165,VN,ensemble_median_train_cal,18,2021-10-04,2021-11-01,-0.005990653453441963,0.025249711179640144,
1949,0.017548666770570542,0.040588756196666506,0.04131375756114722,0.05207139728590846,0.4817855310415598,0.07063884713752115,VN,ensemble_median_train_cal,19,2021-11-02,2021-11-30,0.003562990263040189,0.039429431955795735,
1951,0.00988727185491367,0.035445278335828334,0.035799235105514526,0.04521087504690513,0.48026652998462327,0.09374043160156385,VN,ensemble_median_train_cal,20,2021-12-01,2021-12-29,0.015719872653327527,0.03131471446249634,
1931,0.043801967369559325,0.047764886112418026,0.04995292238891125,0.06333934178110212,0.49145520455722425,0.08219177315420524,VN,ensemble_median_train_cal,21,2021-12-30,2022-01-28,0.008445216259982291,0.03840166932786815,
1945,-0.022942486312326427,0.031984240771271294,0.03126690033823252,0.039766700519248854,0.4647814910025707,0.1094572225353748,VN,ensemble_median_train_cal,22,2022-02-07,2022-03-07,-0.025621647087031185,0.02863003684324213,
1951,-0.012137413047127454,0.030012431565410225,0.02965252660214901,0.03820730491861468,0.45720143516145567,0.08581922590052557,VN,ensemble_median_train_cal,23,2022-03-08,2022-04-05,0.002410569683861108,0.0277603338327026,
1950,0.015038635060821814,0.055010035110171884,0.05584994200617075,0.06803239730652422,0.4917948717948718,0.11592324125573504,VN,ensemble_median_train_cal,24,2022-04-06,2022-05-09,-0.02964901436224454,0.03990629473119043,
1947,0.026043234733961418,0.05056845722720027,0.051920638605952266,0.06611848715692759,0.48484848484848486,0.12454701912015574,VN,ensemble_median_train_cal,25,2022-05-10,2022-06-07,0.00787661154452024,0.035842993389815093,
1951,0.007170192186915059,0.05481246183626354,0.05520831607282162,0.068098807008937,0.4925679138903127,0.12337101952278598,VN,ensemble_median_train_cal,26,2022-06-08,2022-07-06,-0.02603882133176527,0.04232964920811355,
1949,-0.013321714615336155,0.03296142947510817,0.03252809941768647,0.04211534955538811,0.4710107747562853,0.10902140563679195,VN,ensemble_median_train_cal,27,2022-07-07,2022-08-04,-0.01580485652865571,0.028564444021321835,
1950,-0.017956574679768522,0.026448003572295424,0.025981465447694082,0.03258330369717442,0.44769230769230767,0.10440917881227,VN,ensemble_median_train_cal,28,2022-08-05,2022-09-06,0.005820088997398276,0.023630297300405813,
1952,0.0175605177803686,0.04688400979503058,0.047722033411264436,0.06231964840553701,0.49334016393442626,0.10266872580002499,VN,ensemble_median_train_cal,29,2022-09-07,2022-10-05,0.005172073400203425,0.03144207311561331,
1949,0.030795031287459862,0.05340156170605041,0.05509831607341766,0.06727150528822676,0.5151359671626475,0.12227273769212584,VN,ensemble_median_train_cal,30,2022-10-06,2022-11-03,0.019594776826428073,0.03934736046940089,
734,-0.05006050263616757,0.08186481995508074,0.07796200290322304,0.07938420325517655,0.47547683923705725,0.19536300014481642,VN,ensemble_median_train_cal,31,2022-11-04,2022-11-15,-0.058594381050630195,0.051802578917704525,
1908,0.021077788338215164,0.04499272936227498,0.045961496047675604,0.0599921758606797,0.4470649895178197,0.09935333415579758,VN,seed43_raw,0,2020-04-01,2020-05-04,0.027043387492181825,0.03490605758270249,
1922,-0.004158668629324236,0.03297318760742201,0.03283663094043732,0.041924969837418766,0.46514047866805414,0.05743151638860953,VN,seed43_raw,1,2020-05-05,2020-06-02,2.7552463566227203e-05,0.028708125156117602,
1916,0.005919017805689708,0.036632372823078185,0.03685049153864384,0.04795419366564602,0.48643006263048016,0.07387705455099042,VN,seed43_raw,2,2020-06-03,2020-07-01,0.016885593339024063,0.026968068137648515,
1905,0.02672142788764642,0.03295235612531543,0.03385706525295973,0.04525335124781124,0.47506561679790027,0.07800806579932465,VN,seed43_raw,3,2020-07-02,2020-07-30,0.021401854327463665,0.021403554524295036,
1910,-0.01841024915185341,0.025094259608886206,0.024640619661659004,0.0314148971636314,0.3910994764397906,0.0992494088224035,VN,seed43_raw,4,2020-07-31,2020-08-28,0.00536573001313323,0.020920525558176452,
1925,-0.0069147648465326395,0.021633280435344224,0.021484718658030033,0.0274470333126374,0.46805194805194805,0.055644012710760395,VN,seed43_raw,5,2020-08-31,2020-09-29,-0.012184399186300432,0.02064092158107088,
1927,0.00887562407827569,0.024415369052439934,0.024634011276066303,0.031055109156295665,0.4820965230928905,0.06015308381099795,VN,seed43_raw,6,2020-09-30,2020-10-28,-0.0007995471548394306,0.022857862489763653,
1906,-0.005626166684115974,0.02528028287633788,0.025138847529888153,0.03263835373218171,0.40975865687303253,0.07178996279224105,VN,seed43_raw,7,2020-10-29,2020-11-26,-0.00311371834808849,0.0237482014199486,
1914,-0.004014745857555235,0.031796577112982054,0.03166943239048124,0.04117870417248924,0.4754440961337513,0.049453742158421035,VN,seed43_raw,8,2020-11-27,2020-12-25,-0.00893709668613063,0.029120958782732485,
1920,-0.004518062859873773,0.04291739664331545,0.0427243652753532,0.05906743123196067,0.5145833333333333,0.0506529187873343,VN,seed43_raw,9,2020-12-28,2021-01-26,0.0019198733716130345,0.0318623369501438,
1921,0.03734581476375787,0.04867401847150177,0.050562309101223946,0.06487339292652905,0.48308172826652784,0.09537271760819763,VN,seed43_raw,10,2021-01-27,2021-03-03,-0.00790554546549549,0.029036944033578038,
1930,-0.004553707189978828,0.02563440380181419,0.025518201384693386,0.03213416053622496,0.44766839378238343,0.08246749444608191,VN,seed43_raw,11,2021-03-04,2021-04-01,0.00972870488813149,0.02167807589285076,
1929,0.009077858236487102,0.031006950815208257,0.03129100613296032,0.03850476476363838,0.5101088646967341,0.07672977992141418,VN,seed43_raw,12,2021-04-02,2021-05-05,0.012806881401490222,0.025208042594022116,
1926,0.0028903643942684853,0.03381721245023073,0.0339152398519218,0.04203781107935356,0.4745586708203531,0.0668237396933331,VN,seed43_raw,13,2021-05-06,2021-06-03,0.002213387747025397,0.03218957439821679,
1928,-0.0071941107403332705,0.03197556610612082,0.03174717342481017,0.04102241059154038,0.5051867219917012,0.06751502385483074,VN,seed43_raw,14,2021-06-04,2021-07-02,0.012713708402543378,0.028742858523037283,
1929,-0.0017918425066048016,0.04253626389545388,0.04246018193662167,0.05471458062529564,0.49144634525660963,0.07352354169339897,VN,seed43_raw,15,2021-07-05,2021-08-02,0.011685750527096084,0.031800969131290914,
1939,-0.0027867010582933727,0.03331203216948779,0.03321945946663618,0.04393899509741459,0.443011861784425,0.07206425638952528,VN,seed43_raw,16,2021-08-03,2021-08-31,-0.004881740733840179,0.029639772418886424,
1945,0.010769785910816898,0.0293779670028016,0.029697806015610697,0.036079700337722904,0.4915167095115681,0.06537660729023007,VN,seed43_raw,17,2021-09-01,2021-10-01,0.004775654531012696,0.02667862804373727,
1946,-0.004181485229215243,0.026094235450727865,0.025985577143728733,0.03368376463185996,0.41778006166495374,0.06489314934013045,VN,seed43_raw,18,2021-10-04,2021-11-01,-0.0019400646438101354,0.02514804403472226,
1949,0.018765577241442788,0.04053848105249927,0.04131375756114722,0.052833978133276116,0.4843509492047204,0.05748325414056611,VN,seed43_raw,19,2021-11-02,2021-11-30,0.01245285891571013,0.03907765611074865,
1951,0.01600060027363781,0.03522642585448921,0.035799235105514526,0.04492851300165057,0.4833418759610456,0.07711093416745181,VN,seed43_raw,20,2021-12-01,2021-12-29,0.02183230428720251,0.031120248429942876,
1931,0.036066398655043796,0.04815130037604831,0.04995292238891125,0.06362181453732774,0.5080269290523045,0.07170690191610676,VN,seed43_raw,21,2021-12-30,2022-01-28,0.009247139631022638,0.038370611844584346,
1945,-0.007482268858997054,0.03150084769295064,0.03126690033823252,0.03931207938003356,0.4699228791773779,0.088859493757354,VN,seed43_raw,22,2022-02-07,2022-03-07,-0.025630906368655948,0.028630295314360413,
1951,-0.006785952065692102,0.029853747226297855,0.02965252660214901,0.03820064524188638,0.47360328036904153,0.07192158732654468,VN,seed43_raw,23,2022-03-08,2022-04-05,0.002779292382077303,0.027750073233619332,
1950,0.01140935768314566,0.05521273004123941,0.05584994200617075,0.06863849166547879,0.5317948717948718,0.1155918968649897,VN,seed43_raw,24,2022-04-06,2022-05-09,-0.030798538989873725,0.03995084706693888,
1947,0.014145024185496902,0.05118621991714463,0.051920638605952266,0.06735667891334743,0.47406266050333845,0.11400950452050952,VN,seed43_raw,25,2022-05-10,2022-06-07,-2.211299601762029e-05,0.03612835500389338,
1951,0.018559761946621678,0.0541836628690362,0.05520831607282162,0.0674147978425026,0.5197334700153767,0.11306163664075347,VN,seed43_raw,26,2022-06-08,2022-07-06,-0.019226169664598114,0.042048590490594506,
1949,-0.017150893205136075,0.033085985376965256,0.03252809941768647,0.04216943676583469,0.4335556695741406,0.09704280689505504,VN,seed43_raw,27,2022-07-07,2022-08-04,-0.005210513394277916,0.02826653097290546,
1950,0.0020284500664209393,0.025928763342380992,0.025981465447694082,0.03209184787701816,0.48205128205128206,0.062285411072503315,VN,seed43_raw,28,2022-08-05,2022-09-06,0.007987960764355373,0.023578769952291637,
1952,0.031060650692118275,0.04623975600115955,0.047722033411264436,0.06167015924584121,0.5092213114754098,0.08890784199081204,VN,seed43_raw,29,2022-09-07,2022-10-05,0.002812538817337007,0.03151664747856558,
1949,0.02862538474094456,0.05352110557723791,0.05509831607341766,0.0677745528984815,0.517188301693176,0.12184040528245939,VN,seed43_raw,30,2022-10-06,2022-11-03,0.020035683427096274,0.03932966522406787,
734,-0.06978277334793193,0.08340240768156947,0.07796200290322304,0.08412960981950166,0.48501362397820164,0.29200885342931177,VN,seed43_raw,31,2022-11-04,2022-11-15,-0.08274523375562226,0.05298440689221025,
1908,0.03032759222454917,0.04456759453751147,0.045961496047675604,0.059086114168167114,0.4470649895178197,0.11425633065828988,VN,seed43_train_cal,0,2020-04-01,2020-05-04,0.03021794382468912,0.03479216633131728,
1922,-0.0018449436533511943,0.032897212674288315,0.03283663094043732,0.04183391670958372,0.46514047866805414,0.06604624007504464,VN,seed43_train_cal,1,2020-05-05,2020-06-02,-0.0021025871242827954,0.0287692791549489,
1916,-0.0014373143666355226,0.03690345727954991,0.03685049153864384,0.048387713788542897,0.48643006263048016,0.08495861346032717,VN,seed43_train_cal,2,2020-06-03,2020-07-01,0.018439468556024963,0.02692544338060543,
1905,0.02355840289998168,0.03305944686871953,0.03385706525295973,0.045511189877288416,0.47506561679790027,0.08970927527301753,VN,seed43_train_cal,3,2020-07-02,2020-07-30,0.024606970774974868,0.02133345334441402,
1910,-0.022952558133827017,0.025206184916896753,0.024640619661659004,0.03158895613159986,0.3910994764397906,0.11413681934957647,VN,seed43_train_cal,4,2020-07-31,2020-08-28,0.00214168141635962,0.020988338213646783,
1925,-0.006621565889973979,0.021626981138251733,0.021484718658030033,0.027469856524840016,0.46805194805194805,0.0639906116797992,VN,seed43_train_cal,5,2020-08-31,2020-09-29,-0.01240605208520762,0.020645441627129914,
1927,0.009563090524648876,0.02439843399624806,0.024634011276066303,0.03119407729245723,0.4820965230928905,0.0691760434396687,VN,seed43_train_cal,6,2020-09-30,2020-10-28,0.0036512483671498064,0.02275620809523389,
1906,-0.007947588947606166,0.025338640756672248,0.025138847529888153,0.03273211338091642,0.40975865687303253,0.08255845863988075,VN,seed43_train_cal,7,2020-10-29,2020-11-26,-0.003842882562235639,0.023765464007738046,
1914,-0.002352989636981606,0.031743950236705135,0.03166943239048124,0.0412313545763027,0.4754440961337513,0.05687180202346989,VN,seed43_train_cal,8,2020-11-27,2020-12-25,-0.010925269562769513,0.029178343430976382,
1920,-0.002713654933635068,0.042840304459969086,0.0427243652753532,0.059030122449621636,0.5145833333333333,0.058250856005838306,VN,seed43_train_cal,9,2020-12-28,2021-01-26,0.0008220896345924045,0.03189738218788989,
1921,0.040167438110123355,0.048531350679695606,0.050562309101223946,0.0645828852429986,0.48308172826652784,0.10967862421566041,VN,seed43_train_cal,10,2021-01-27,2021-03-03,-0.009422944172999603,0.02908065906376578,
1930,-0.0070433684340476255,0.025697935478820003,0.025518201384693386,0.032035656864172785,0.44766839378238343,0.09483761665387366,VN,seed43_train_cal,11,2021-03-04,2021-04-01,0.010072059279508494,0.02167055950558279,
1929,0.004486935852896945,0.03115060539566912,0.03129100613296032,0.03848752818303183,0.5101088646967341,0.08823924702913032,VN,seed43_train_cal,12,2021-04-02,2021-05-05,0.011988937580054704,0.02522892884444446,
1926,0.0030659113180951936,0.033811258734203875,0.0339152398519218,0.042107995599508286,0.4745586708203531,0.07684729938810878,VN,seed43_train_cal,13,2021-05-06,2021-06-03,0.00030670860396964095,0.03225108573678881,
1928,-0.007191679758243197,0.03197548892931081,0.03174717342481017,0.04105995466234162,0.5051867219917012,0.07764227728866097,VN,seed43_train_cal,14,2021-06-04,2021-07-02,0.007669753687909453,0.02888970313942991,
1929,-0.0009603822601733647,0.04250095994211733,0.04246018193662167,0.05432784301228822,0.49144634525660963,0.08455206924971813,VN,seed43_train_cal,15,2021-07-05,2021-08-02,0.012755975433307198,0.03176653252448887,
1939,-0.003803657437835062,0.03334581491071731,0.03321945946663618,0.04401725786738098,0.443011861784425,0.08287389431163393,VN,seed43_train_cal,16,2021-08-03,2021-08-31,-0.007451466165687259,0.02971556847915054,
1945,0.012531459659687827,0.029325649157544837,0.029697806015610697,0.03592496577912244,0.4915167095115681,0.07518309896215122,VN,seed43_train_cal,17,2021-09-01,2021-10-01,0.007099367842980042,0.02661633708048612,
1946,-0.004718798739853369,0.02610819785240892,0.025985577143728733,0.03369573870259046,0.41778006166495374,0.07462711738467827,VN,seed43_train_cal,18,2021-10-04,2021-11-01,-0.005657065633950298,0.025241338342311792,
1949,0.022461358779431895,0.040385794430039826,0.04131375756114722,0.05265925372950733,0.4843509492047204,0.0661057393914571,VN,seed43_train_cal,19,2021-11-02,2021-11-30,0.015506247779394688,0.03895683222799562,
1951,0.014989232750965087,0.03526263203821145,0.035799235105514526,0.045045637991279364,0.4833418759610456,0.0886775707069813,VN,seed43_train_cal,20,2021-12-01,2021-12-29,0.017988652765949742,0.031242533586919308,
1931,0.03872971993608387,0.04801825969479978,0.04995292238891125,0.063108931761235,0.5080269290523045,0.08246293754904316,VN,seed43_train_cal,21,2021-12-30,2022-01-28,0.011790558876624502,0.03827210841700435,
1945,-0.01260393665162951,0.03166098636938842,0.03126690033823252,0.03945025382563473,0.4699228791773779,0.10218841548174985,VN,seed43_train_cal,22,2022-02-07,2022-03-07,-0.02711208907622975,0.028671642253175377,
1951,-0.00507849681514827,0.02980311686405912,0.02965252660214901,0.03817197831813246,0.47360328036904153,0.08270982386072298,VN,seed43_train_cal,23,2022-03-08,2022-04-05,0.0040794163669234385,0.027713894145563245,
1950,0.010478000842680246,0.05526474626676645,0.05584994200617075,0.06853761516395025,0.5317948717948718,0.13293068247652007,VN,seed43_train_cal,24,2022-04-06,2022-05-09,-0.03453185996406338,0.04009554006916006,
1947,0.013064468979063326,0.051242323033511644,0.051920638605952266,0.06757067218422891,0.47406266050333845,0.13111092938618563,VN,seed43_train_cal,25,2022-05-10,2022-06-07,-0.004333967412796014,0.036284131766296926,
1951,0.017935695849076172,0.05421811650739983,0.05520831607282162,0.06743943446781486,0.5197334700153767,0.13002087570227777,VN,seed43_train_cal,26,2022-06-08,2022-07-06,-0.0261613560320213,0.042334704427048564,
1949,-0.02316774854326087,0.03328170224558562,0.03252809941768647,0.042524281051009895,0.4335556695741406,0.11159922624006605,VN,seed43_train_cal,27,2022-07-07,2022-08-04,-0.005527323572551035,0.02827543967869133,
1950,0.0017849568798853355,0.025935089652193717,0.025981465447694082,0.032071387904579765,0.48205128205128206,0.0716282239233399,VN,seed43_train_cal,28,2022-08-05,2022-09-06,0.01076205647609385,0.02351283348980362,
1952,0.028433852106172663,0.046365112171042715,0.047722033411264436,0.06195195075124503,0.5092213114754098,0.10224401902030582,VN,seed43_train_cal,29,2022-09-07,2022-10-05,0.001498267804929232,0.031558185722678905,
1949,0.03004905241674738,0.05344266388565302,0.05509831607341766,0.06786061897873878,0.517188301693176,0.14011646810602013,VN,seed43_train_cal,30,2022-10-06,2022-11-03,0.016351961440400187,0.03947750688530505,
734,-0.06939097940521699,0.08337186264107005,0.07796200290322304,0.08707811646163466,0.48501362397820164,0.3358101665829233,VN,seed43_train_cal,31,2022-11-04,2022-11-15,-0.09775569981463139,0.05371894777636044,
1908,0.05171136644594432,0.04358476428315043,0.045961496047675604,0.05690311219077556,0.4910901467505241,0.11738485899793064,VN,seed52_raw,0,2020-04-01,2020-05-04,0.03295090376150456,0.03469411791302264,
1922,0.02566737002349284,0.03199380098376424,0.03283663094043732,0.040130172489443804,0.5530697190426639,0.11157925466956932,VN,seed52_raw,1,2020-05-05,2020-06-02,0.003645100523052447,0.028604269272182143,
1916,0.0016354551032182751,0.03679022421420086,0.03685049153864384,0.04748146183555946,0.4723382045929019,0.11243326967673964,VN,seed52_raw,2,2020-06-03,2020-07-01,0.011289237650082051,0.02712158323265612,
1905,-0.005536244998350037,0.034044506261125235,0.03385706525295973,0.0462714084424079,0.4204724409448819,0.08883548100652762,VN,seed52_raw,3,2020-07-02,2020-07-30,0.01657354703464964,0.021509157563559714,
1910,0.018756820917657735,0.02417843997136515,0.024640619661659004,0.02983715868685977,0.46335078534031415,0.10903589215899577,VN,seed52_raw,4,2020-07-31,2020-08-28,0.007808474687236999,0.020869146368931984,
1925,-0.007333592670801359,0.021642278833314793,0.021484718658030033,0.027330049453303248,0.49454545454545457,0.11851925601862337,VN,seed52_raw,5,2020-08-31,2020-09-29,0.0011363018573553596,0.020369279826991264,
1927,-0.02255785945649369,0.02518970184028149,0.024634011276066303,0.03186482288874686,0.4494032174364297,0.10805706305947672,VN,seed52_raw,6,2020-09-30,2020-10-28,-0.001094639663820951,0.022864602284971627,
1906,0.007855478742310074,0.02494136984751094,0.025138847529888153,0.03166339619201608,0.4648478488982162,0.08468886902597948,VN,seed52_raw,7,2020-10-29,2020-11-26,0.008372357531153618,0.023476274480344728,
1914,0.0300819987908707,0.030716752563603223,0.03166943239048124,0.039691040036268534,0.5256008359456635,0.07914417378802212,VN,seed52_raw,8,2020-11-27,2020-12-25,0.000953041053322834,0.028835499665001416,
1920,-0.01538755659274682,0.04338178886391689,0.0427243652753532,0.05957617301028223,0.4984375,0.08061775600718267,VN,seed52_raw,9,2020-12-28,2021-01-26,-0.0018433856697297468,0.03198247382533737,
1921,0.05706128587081294,0.0476771587273106,0.050562309101223946,0.06320154294371605,0.5351379489849037,0.11126725508491996,VN,seed52_raw,10,2021-01-27,2021-03-03,-0.013388184120236346,0.029194894421380013,
1930,-0.027538576787043967,0.026220936332993015,0.025518201384693386,0.03261471204459669,0.43212435233160623,0.1414999744356537,VN,seed52_raw,11,2021-03-04,2021-04-01,0.007529936865562248,0.021726209227927028,
1929,0.007425905806714983,0.031058642068819614,0.03129100613296032,0.03815708167094273,0.4572317262830482,0.08352994292488455,VN,seed52_raw,12,2021-04-02,2021-05-05,-0.0027051667415709524,0.025604143785312772,
1926,-0.00587882233438819,0.0341146215214394,0.0339152398519218,0.04195914731826633,0.4984423676012461,0.07584949565436659,VN,seed52_raw,13,2021-05-06,2021-06-03,-0.00101052627393039,0.03229358102544211,
1928,0.004031339327745687,0.03161918979603797,0.03174717342481017,0.039842985849827525,0.5062240663900415,0.10971024117171096,VN,seed52_raw,14,2021-06-04,2021-07-02,0.0013169439134134153,0.02907465244352352,
1929,0.0010154073706314382,0.04241706755492487,0.04246018193662167,0.05404851681087166,0.4499740798341109,0.09194175960379357,VN,seed52_raw,15,2021-07-05,2021-08-02,0.0004930676732192163,0.03216111587826163,
1939,0.008029755832166141,0.03295271531824255,0.03321945946663618,0.04294258314475883,0.4708612686952037,0.08254680980894388,VN,seed52_raw,16,2021-08-03,2021-08-31,-0.004759578336478221,0.029636169143486768,
1945,0.0033465664448149024,0.029598420334514233,0.029697806015610697,0.035916311247274284,0.4987146529562982,0.10783775657051863,VN,seed52_raw,17,2021-09-01,2021-10-01,0.008818637660494177,0.026570249220822007,
1946,0.007869105608989235,0.025781093892874196,0.025985577143728733,0.033237262978218496,0.4645426515930113,0.09275021761447692,VN,seed52_raw,18,2021-10-04,2021-11-01,-0.006317380823753105,0.0252579118241556,
1949,0.009244816606260975,0.04093181944917888,0.04131375756114722,0.0530163102783263,0.49153412006157005,0.07796479795170716,VN,seed52_raw,19,2021-11-02,2021-11-30,0.005397934815927319,0.0393568224273622,
1951,0.0036258164075280153,0.035669433651492,0.035799235105514526,0.04534341674298048,0.48641722193746795,0.10891028726995686,VN,seed52_raw,20,2021-12-01,2021-12-29,0.02091127570202722,0.031149550806730986,
1931,0.03518685078542161,0.04819523636251688,0.04995292238891125,0.06365389283746481,0.4857586742620404,0.07754751623918148,VN,seed52_raw,21,2021-12-30,2022-01-28,0.010499197706149932,0.038322121210512705,
1945,-0.016281556843984024,0.03177597415342463,0.03126690033823252,0.03986751962220301,0.47146529562982004,0.11506750285176956,VN,seed52_raw,22,2022-02-07,2022-03-07,-0.016315168252429846,0.02837024822365493,
1951,0.003962877645822149,0.029535017267335206,0.02965252660214901,0.038045129214879125,0.48282931829830855,0.10323078070920395,VN,seed52_raw,23,2022-03-08,2022-04-05,-0.0010060109691414354,0.027855408436153084,
1950,0.012317377708872979,0.0551620171754621,0.05584994200617075,0.0678110578446649,0.518974358974359,0.09845330784244072,VN,seed52_raw,24,2022-04-06,2022-05-09,-0.022066197223518103,0.039612406103697144,
1947,0.024339124176368188,0.05065693573560566,0.051920638605952266,0.06553714736364782,0.5007704160246533,0.10983435449887483,VN,seed52_raw,25,2022-05-10,2022-06-07,0.022554846056116795,0.03531270464882255,
1951,0.012448718973200101,0.05452104326104745,0.05520831607282162,0.06769755750428885,0.48641722193746795,0.11636411817578679,VN,seed52_raw,26,2022-06-08,2022-07-06,-0.0217824335897141,0.04215405019931495,
1949,-0.011405267326412227,0.032899091087165294,0.03252809941768647,0.04180931947776117,0.4710107747562853,0.10699701622174684,VN,seed52_raw,27,2022-07-07,2022-08-04,-0.006441790398440395,0.028301154496148232,
1950,-0.005532375060937511,0.026125204659183512,0.025981465447694082,0.03216313843731769,0.45487179487179485,0.10467716093297924,VN,seed52_raw,28,2022-08-05,2022-09-06,0.0037153091969748253,0.0236803250387311,
1952,0.02400312811522165,0.04657655532937497,0.047722033411264436,0.06204574853181839,0.4994877049180328,0.09760415869894404,VN,seed52_raw,29,2022-09-07,2022-10-05,-0.021579145499170282,0.032287559815449646,
1949,0.019126027995188366,0.05404450413770974,0.05509831607341766,0.0675037784036249,0.5284761416110826,0.1163845969534766,VN,seed52_raw,30,2022-10-06,2022-11-03,0.012792065517435725,0.03962037893943489,
734,-0.008938262490614246,0.07865884774946608,0.07796200290322304,0.07226395991165191,0.5054495912806539,0.09733958687316796,VN,seed52_raw,31,2022-11-04,2022-11-15,-0.025154575115916344,0.05016619371017442,
1908,0.034019221205084604,0.04439792174671311,0.045961496047675604,0.05842027212493121,0.4910901467505241,0.08803864499502062,VN,seed52_train_cal,0,2020-04-01,2020-05-04,0.02895343462285571,0.03483753220934886,
1922,0.017992476132552282,0.03224581864196807,0.03283663094043732,0.04060573293827474,0.5530697190426639,0.08368444100217699,VN,seed52_train_cal,1,2020-05-05,2020-06-02,0.002080606566756571,0.028649184198002334,
1916,-0.00025841842774432244,0.036860014384728856,0.03685049153864384,0.047472305595874786,0.4723382045929019,0.08432495104640775,VN,seed52_train_cal,2,2020-06-03,2020-07-01,0.01260218072836572,0.027085567548056133,
1905,0.005035275748191181,0.033686585593386574,0.03385706525295973,0.045995951630175155,0.4204724409448819,0.06662661224066747,VN,seed52_train_cal,3,2020-07-02,2020-07-30,0.00901055425118702,0.021674572682240982,
1910,0.013658624165227118,0.024304062698502098,0.024640619661659004,0.030038142437115323,0.46335078534031415,0.0817769176026991,VN,seed52_train_cal,4,2020-07-31,2020-08-28,0.005137891997357258,0.02092531776288525,
1925,-0.004518943808717424,0.021581806894391774,0.021484718658030033,0.027253379370085894,0.49454545454545457,0.08888944158823198,VN,seed52_train_cal,5,2020-08-31,2020-09-29,-0.0023021059416790113,0.02043939739232883,
1927,-0.010959937526030306,0.024903998500667514,0.024634011276066303,0.03163995877839625,0.4494032174364297,0.08104279766713653,VN,seed52_train_cal,6,2020-09-30,2020-10-28,-0.0007795400882446568,0.022857405536342416,
1906,0.0032942500203619884,0.02505603388090094,0.025138847529888153,0.032064961193100316,0.4648478488982162,0.0635166508764824,VN,seed52_train_cal,7,2020-10-29,2020-11-26,-0.0004981202659977146,0.023686278480454348,
1914,0.020742419283609426,0.031012531745363957,0.03166943239048124,0.039976214023772626,0.5256008359456635,0.059358130770050206,VN,seed52_train_cal,8,2020-11-27,2020-12-25,-0.001223174101865343,0.028898311778903008,
1920,-0.014451145992722791,0.04334178131539375,0.0427243652753532,0.05958652335684747,0.4984375,0.06046331900404081,VN,seed52_train_cal,9,2020-12-28,2021-01-26,0.0016039363070240453,0.03187242280691863,
1921,0.05567791550792356,0.047747105127200484,0.050562309101223946,0.0635918565094471,0.5351379489849037,0.08345044303663471,VN,seed52_train_cal,10,2021-01-27,2021-03-03,-0.004595196445396521,0.028941575554199517,
1930,-0.02361917353667997,0.026120920211542404,0.025518201384693386,0.03251808977220209,0.43212435233160623,0.1061249808267403,VN,seed52_train_cal,11,2021-03-04,2021-04-01,0.010704146016955685,0.02165672246483155,
1929,7.152354920281212e-05,0.03128876808914356,0.03129100613296032,0.03864745780592785,0.4572317262830482,0.06264745599862331,VN,seed52_train_cal,12,2021-04-02,2021-05-05,-0.004135524552027592,0.025640668068081143,
1926,0.001320181260480613,0.03387046558782458,0.0339152398519218,0.041648499318398535,0.4984423676012461,0.05688711964206779,VN,seed52_train_cal,13,2021-05-06,2021-06-03,0.004254843480784198,0.03212371503468603,
1928,0.005797641213533211,0.031563114703749305,0.03174717342481017,0.03981840699561871,0.5062240663900415,0.08228268087878322,VN,seed52_train_cal,14,2021-06-04,2021-07-02,0.004714696368322335,0.028975733701372516,
1929,5.8576999775517e-05,0.0424576947465539,0.04246018193662167,0.05406542792916298,0.4499740798341109,0.06895631927288115,VN,seed52_train_cal,15,2021-07-05,2021-08-02,0.005844356460068756,0.03198892755899578,
1939,0.009082600657156603,0.032917740382254125,0.03321945946663618,0.042695930879563096,0.4708612686952037,0.06191010682038775,VN,seed52_train_cal,16,2021-08-03,2021-08-31,-0.003032923781810082,0.02958524011773989,
1945,0.006702054362671128,0.02949876970524201,0.029697806015610697,0.0358277174673276,0.4987146529562982,0.08087831935584446,VN,seed52_train_cal,17,2021-09-01,2021-10-01,0.012294136508817277,0.026477082748897374,
1946,0.013856004929126309,0.025625520858739037,0.025985577143728733,0.03299179198802449,0.4645426515930113,0.06956266321085769,VN,seed52_train_cal,18,2021-10-04,2021-11-01,0.0006648617665350187,0.025082662075874396,
1949,0.00364036685461,0.041163360327482225,0.04131375756114722,0.0533233764115721,0.49153412006157005,0.0584735980289025,VN,seed52_train_cal,19,2021-11-02,2021-11-30,0.005501328879852663,0.039352731080725796,
1951,0.007908658508869681,0.03551611118018627,0.035799235105514526,0.04479332687333226,0.48641722193746795,0.08168271289133315,VN,seed52_train_cal,20,2021-12-01,2021-12-29,0.019417815842744823,0.031197064992738888,
1931,0.02434870218702767,0.04873663355829194,0.04995292238891125,0.06455542566254735,0.4857586742620404,0.05816063717938611,VN,seed52_train_cal,21,2021-12-30,2022-01-28,0.01099896608533868,0.03830276580993086,
1945,-0.009530826223160593,0.031564899731893095,0.03126690033823252,0.0395248448709026,0.47146529562982004,0.08630062533943697,VN,seed52_train_cal,22,2022-02-07,2022-03-07,-0.011885049372236889,0.028246582282008607,
1951,-0.00373954342833116,0.029763413513137493,0.02965252660214901,0.03804087622847874,0.48282931829830855,0.07742308553190295,VN,seed52_train_cal,23,2022-03-08,2022-04-05,0.006368365600875392,0.027650198608171195,
1950,0.00945399067622743,0.05532193717517657,0.05584994200617075,0.06797992191277444,0.518974358974359,0.07383998105085895,VN,seed52_train_cal,24,2022-04-06,2022-05-09,-0.019162579712475925,0.03949987006999437,
1947,0.019566516127183853,0.050904732593335215,0.051920638605952266,0.06622781776823104,0.5007704160246533,0.08237576519715585,VN,seed52_train_cal,25,2022-05-10,2022-06-07,0.026222995231862556,0.03518018338363618,
1951,0.010437121416200679,0.05463210017478559,0.05520831607282162,0.06786864428431727,0.48641722193746795,0.08727308524521446,VN,seed52_train_cal,26,2022-06-08,2022-07-06,-0.016809467300030523,0.04194888845086098,
1949,-0.003565563362770474,0.03264408041723073,0.03252809941768647,0.041366598475724464,0.4710107747562853,0.08024776216631015,VN,seed52_train_cal,27,2022-07-07,2022-08-04,-0.002467319499904308,0.028189392329659314,
1950,0.00031573007300567113,0.025973262317711486,0.025981465447694082,0.03201335388002917,0.45487179487179485,0.07850787069973442,VN,seed52_train_cal,28,2022-08-05,2022-09-06,0.004110893777385716,0.023670922534074636,
1952,0.017606826880864568,0.04688179983058947,0.047722033411264436,0.06254717803094541,0.4994877049180328,0.07320311865877205,VN,seed52_train_cal,29,2022-09-07,2022-10-05,-0.00648144855135091,0.03181038896145765,
1949,0.016804894781808133,0.05417239466914907,0.05509831607341766,0.06784278082195669,0.5284761416110826,0.08728844568391561,VN,seed52_train_cal,30,2022-10-06,2022-11-03,0.01491297069161801,0.039535259013064206,
734,-1.67733205902465e-05,0.07796331058489159,0.07796200290322304,0.07144897512625903,0.5054495912806539,0.0730046908242807,VN,seed52_train_cal,31,2022-11-04,2022-11-15,-0.023214865182972444,0.05007127352291719,
1908,-0.03836344035711181,0.04772473716002423,0.045961496047675604,0.0645144657464698,0.39308176100628933,0.1021778909642958,VN,seed62_raw,0,2020-04-01,2020-05-04,-0.003851206145433883,0.03601444047526456,
1922,0.008674346633156138,0.032551794621394944,0.03283663094043732,0.04089596160920337,0.5010405827263268,0.0869992729425647,VN,seed62_raw,1,2020-05-05,2020-06-02,-0.010150579303456642,0.029000328287656887,
1916,-0.005802690122860721,0.037064323521917686,0.03685049153864384,0.048587725090328604,0.48173277661795405,0.09357321129674194,VN,seed62_raw,2,2020-06-03,2020-07-01,-0.005042947342546622,0.027569595666136593,
1905,0.005249318935403813,0.033679338719230165,0.03385706525295973,0.046369453123770686,0.410498687664042,0.0790150476191835,VN,seed62_raw,3,2020-07-02,2020-07-30,0.01122582169460895,0.021626121131703258,
1910,-0.025720985895508752,0.02527440069243313,0.024640619661659004,0.03137199738994243,0.42041884816753927,0.1490673998936257,VN,seed62_raw,4,2020-07-31,2020-08-28,-0.009568330606660957,0.02123463940515649,
1925,-0.006865056180705986,0.021632212458644072,0.021484718658030033,0.027159575629048072,0.49142857142857144,0.10396648098920508,VN,seed62_raw,5,2020-08-31,2020-09-29,0.009200066162992848,0.020204839901998638,
1927,-0.020638291051910507,0.025142415170557802,0.024634011276066303,0.031585872592404494,0.44473274519979245,0.10306442220558353,VN,seed62_raw,6,2020-09-30,2020-10-28,0.007273137541497832,0.02267348559107632,
1906,0.0071771009122044704,0.024958423484349623,0.025138847529888153,0.032222862413618714,0.4664218258132214,0.08468784385943386,VN,seed62_raw,7,2020-10-29,2020-11-26,-0.0026220723651981803,0.02373656195413787,
1914,0.022523657553921383,0.030956120940390977,0.03166943239048124,0.03955835513770581,0.5266457680250783,0.08024985519715029,VN,seed62_raw,8,2020-11-27,2020-12-25,-0.0022568066189909697,0.028928145521786065,
1920,-0.011316061912314712,0.04320783683797345,0.0427243652753532,0.058884604438208046,0.5057291666666667,0.08470589924321184,VN,seed62_raw,9,2020-12-28,2021-01-26,-0.005504406327026645,0.0320993468805682,
1921,0.009311619287855843,0.05009149212855846,0.050562309101223946,0.06615490769036114,0.43206663196251954,0.11386805396891488,VN,seed62_raw,10,2021-01-27,2021-03-03,-0.004576434504914628,0.028941035037860274,
1930,-0.020292747616081908,0.02603603580500932,0.025518201384693386,0.03224778934381905,0.41968911917098445,0.10755614305436682,VN,seed62_raw,11,2021-03-04,2021-04-01,-0.00092668331117296,0.02191133350133896,
1929,-0.009487125110072103,0.031587867822963744,0.03129100613296032,0.03913252579513937,0.45049248315189216,0.08984007375787532,VN,seed62_raw,12,2021-04-02,2021-05-05,-0.006508756911172364,0.02570126871578396,
1926,0.0033276847558676437,0.033802380625274964,0.0339152398519218,0.041804095410043374,0.5155763239875389,0.08115801870224545,VN,seed62_raw,13,2021-05-06,2021-06-03,0.0015723186808161982,0.0322102559148334,
1928,-0.0013841817123025901,0.03179111728168209,0.03174717342481017,0.040300422208383674,0.4642116182572614,0.10583746009412738,VN,seed62_raw,14,2021-06-04,2021-07-02,-0.013269161240657468,0.02949929761525709,
1929,-0.01285300582480775,0.04300592290237546,0.04246018193662167,0.05472701108083129,0.4297563504406428,0.10576219325024436,VN,seed62_raw,15,2021-07-05,2021-08-02,-0.006111410331621547,0.03237362804356962,
1939,0.0038272187824747173,0.03309232132742181,0.03321945946663618,0.04301111672539264,0.44765342960288806,0.08444647833734228,VN,seed62_raw,16,2021-08-03,2021-08-31,0.004680520238822483,0.029357726057060066,
1945,-0.004371124792508452,0.02982761883176864,0.029697806015610697,0.03642546590417625,0.480719794344473,0.08443342945485376,VN,seed62_raw,17,2021-09-01,2021-10-01,-0.0093208447749904,0.02705650792922825,
1946,0.004553185988082631,0.025867259977985668,0.025985577143728733,0.03347717651286075,0.4784172661870504,0.0894187156256953,VN,seed62_raw,18,2021-10-04,2021-11-01,-0.0031869775170494385,0.025179340736940503,
1949,0.018231335870709797,0.04056055257096887,0.04131375756114722,0.05219491561874748,0.4833247819394561,0.08680976324052116,VN,seed62_raw,19,2021-11-02,2021-11-30,0.00482191163586787,0.03937961590709165,
1951,0.0062994424484462685,0.03557371988426894,0.035799235105514526,0.045450032921507955,0.4787288569964121,0.09661232390049063,VN,seed62_raw,20,2021-12-01,2021-12-29,0.000462487490092478,0.03180012572556734,
1931,0.03997338698680464,0.04795613489113748,0.04995292238891125,0.06322827329859138,0.46504401864319006,0.08478456500200292,VN,seed62_raw,21,2021-12-30,2022-01-28,-0.005033711942405761,0.03892369125969708,
1945,-0.025415256418523047,0.0320615566277411,0.03126690033823252,0.03987590307369831,0.45809768637532133,0.1260275165820285,VN,seed62_raw,22,2022-02-07,2022-03-07,-0.027255721062916516,0.02867565171327442,
1951,-0.009477221843362749,0.02993355017497379,0.02965252660214901,0.038005304955731845,0.4582265504869298,0.09661986193677093,VN,seed62_raw,23,2022-03-08,2022-04-05,-0.001150045961342494,0.027859416557475924,
1950,0.02728839762271973,0.054325886581500525,0.05584994200617075,0.06713297897949815,0.48307692307692307,0.09859372178239496,VN,seed62_raw,24,2022-04-06,2022-05-09,-0.020400116673963797,0.03954783351582592,
1947,0.013372499414396999,0.05122632989659905,0.051920638605952266,0.06704527772963047,0.45454545454545453,0.10657380340635772,VN,seed62_raw,25,2022-05-10,2022-06-07,0.002003151166379058,0.036055187159217905,
1951,0.000716415721474517,0.055168763967230916,0.05520831607282162,0.06857473473064601,0.4705279343926192,0.11809259771417399,VN,seed62_raw,26,2022-06-08,2022-07-06,-0.02003926785087673,0.04208213518722914,
1949,-0.02453633659818988,0.0333262198138982,0.03252809941768647,0.04289851300418377,0.4746023601847101,0.10538539099686524,VN,seed62_raw,27,2022-07-07,2022-08-04,-0.006639004167242835,0.028306700149551035,
1950,-0.015215856549370299,0.026376795698888615,0.025981465447694082,0.03258315143175426,0.4533333333333333,0.10601757564731161,VN,seed62_raw,28,2022-08-05,2022-09-06,-0.0007035301236428815,0.02378535480820574,
1952,0.028812796984006628,0.04634702815092169,0.047722033411264436,0.06182832855265589,0.5537909836065574,0.0679355591760549,VN,seed62_raw,29,2022-09-07,2022-10-05,0.008376787951920206,0.03134078638395295,
1949,0.022329883171866682,0.05386797711253166,0.05509831607341766,0.06732356920838356,0.5074397126731657,0.10380034122072744,VN,seed62_raw,30,2022-10-06,2022-11-03,0.015464400247143573,0.039513128064572814,
734,-0.026059287943675402,0.07999363718554378,0.07796200290322304,0.07499221507459879,0.4877384196185286,0.12026460273511495,VN,seed62_raw,31,2022-11-04,2022-11-15,-0.05383977874084156,0.05156991127296351,
1908,-0.009674172727903274,0.04640613549927366,0.045961496047675604,0.06307497626694385,0.39308176100628933,0.0306533686331195,VN,seed62_train_cal,0,2020-04-01,2020-05-04,-0.003987809991201852,0.03601934131220332,
1922,0.00491264625572585,0.03267531618839713,0.03283663094043732,0.041269384925544744,0.5010405827263268,0.02609978389442611,VN,seed62_train_cal,1,2020-05-05,2020-06-02,0.00197776816180828,0.028652136577147762,
1916,-0.00961485801349049,0.03720480378251523,0.03685049153864384,0.048756358213722706,0.48173277661795405,0.028071964842398964,VN,seed62_train_cal,2,2020-06-03,2020-07-01,0.0019597242195630304,0.02737750355299795,
1905,0.009355960869040114,0.0335402998753125,0.03385706525295973,0.046219948126236005,0.410498687664042,0.023704514979115212,VN,seed62_train_cal,3,2020-07-02,2020-07-30,0.0016528532244556304,0.021835497731808574,
1910,-0.00713470173115649,0.024816423133415814,0.024640619661659004,0.030938535410314223,0.42041884816753927,0.044720221332980654,VN,seed62_train_cal,4,2020-07-31,2020-08-28,-0.001929582123037843,0.021073970667202964,
1925,-0.006227715805351419,0.021618519379990177,0.021484718658030033,0.027653494372498248,0.49142857142857144,0.031189945744262374,VN,seed62_train_cal,5,2020-08-31,2020-09-29,0.0031963789594920966,0.020327269803965473,
1927,-0.004427241377748858,0.024743071990087635,0.024634011276066303,0.03128054592525588,0.44473274519979245,0.03091932763025041,VN,seed62_train_cal,6,2020-09-30,2020-10-28,-0.003596070159907594,0.022921733959810807,
1906,-0.0034566481419817663,0.025225743680493906,0.025138847529888153,0.03281090734526515,0.4664218258132214,0.025406354229432816,VN,seed62_train_cal,7,2020-10-29,2020-11-26,-0.0001902522151058239,0.023678989862673916,
1914,0.0032529220930085367,0.031566414194185204,0.03166943239048124,0.04045997652738152,0.5266457680250783,0.02407495793205266,VN,seed62_train_cal,8,2020-11-27,2020-12-25,-0.0005498633103853123,0.02887887800461613,
1920,-0.006942099588106432,0.043020962073933335,0.0427243652753532,0.05844973407220096,0.5057291666666667,0.025411770932182758,VN,seed62_train_cal,9,2020-12-28,2021-01-26,0.0016601368772852787,0.03187062868091744,
1921,-0.00437025171048111,0.050783279119059443,0.050562309101223946,0.0674172235885635,0.43206663196251954,0.03416041894738606,VN,seed62_train_cal,10,2021-01-27,2021-03-03,0.0022472090977090353,0.028744451381498948,
1930,-0.010741670231198874,0.025792309488861083,0.025518201384693386,0.03214210637488581,0.41968911917098445,0.03226684560103079,VN,seed62_train_cal,11,2021-03-04,2021-04-01,-0.002720702796982666,0.021950606466998583,
1929,0.0019409283154092627,0.031230272533139213,0.03129100613296032,0.03870854761917144,0.45049248315189216,0.026952023919922755,VN,seed62_train_cal,12,2021-04-02,2021-05-05,0.00041826946876866167,0.02552438663187786,
1926,0.0009498426785828906,0.03388302570965607,0.0339152398519218,0.041670717735541984,0.5155763239875389,0.02434740672998412,VN,seed62_train_cal,13,2021-05-06,2021-06-03,0.006865325183002535,0.03203949833550723,
1928,-0.00134845791127014,0.03178998315197532,0.03174717342481017,0.040596362862561367,0.4642116182572614,0.03175123941442434,VN,seed62_train_cal,14,2021-06-04,2021-07-02,-0.0022317357281680383,0.02917796512774657,
1929,-0.003823061553587026,0.042622509825741874,0.04246018193662167,0.0545884411665611,0.4297563504406428,0.031728660038900666,VN,seed62_train_cal,15,2021-07-05,2021-08-02,0.00905776744867881,0.03188552969368175,
1939,0.0008901721350142999,0.033189888429478745,0.03321945946663618,0.043567259091651066,0.44765342960288806,0.025333945110163163,VN,seed62_train_cal,16,2021-08-03,2021-08-31,-0.0020804500698912154,0.02955714616109617,
1945,-0.0010892348240603145,0.029730153900121088,0.029697806015610697,0.036360976702331994,0.480719794344473,0.02533002915778205,VN,seed62_train_cal,17,2021-09-01,2021-10-01,0.006541013167150389,0.026631304697366433,
1946,0.001960686150857649,0.02593462758250098,0.025985577143728733,0.03336785610918014,0.4784172661870504,0.02682561608177955,VN,seed62_train_cal,18,2021-10-04,2021-11-01,0.0012969084763598815,0.025066798114494304,
1949,-0.0010401590689763651,0.04135673044074793,0.04131375756114722,0.05380802151630635,0.4833247819394561,0.02604292897215635,VN,seed62_train_cal,19,2021-11-02,2021-11-30,-0.0056473633895886,0.03979388952720911,
1951,0.0056752202364798165,0.03559606656199321,0.035799235105514526,0.04542854998726398,0.4787288569964121,0.02898369819460098,VN,seed62_train_cal,20,2021-12-01,2021-12-29,0.0033707450543492,0.031707599977380596,
1931,0.014162964448752091,0.04924544092500582,0.04995292238891125,0.06572427065111697,0.46504401864319006,0.025435370537162015,VN,seed62_train_cal,21,2021-12-30,2022-01-28,-0.0022477333594326243,0.03881579381413758,
1945,-0.010650845568353162,0.031599919265136125,0.03126690033823252,0.03939989397767932,0.45809768637532133,0.03780825725383613,VN,seed62_train_cal,22,2022-02-07,2022-03-07,-0.013470518166639911,0.028290840347472118,
1951,0.005480102323999869,0.029490027722204104,0.02965252660214901,0.037146246584597975,0.4582265504869298,0.028985961084716703,VN,seed62_train_cal,23,2022-03-08,2022-04-05,-0.0033655647301233937,0.027921068714931607,
1950,0.007046374272284939,0.05545640241170986,0.05584994200617075,0.06849184104939923,0.48307692307692307,0.02957811721083218,VN,seed62_train_cal,24,2022-04-06,2022-05-09,-0.0029759008256109443,0.038872520002769306,
1947,0.003973455282389904,0.05171433427021839,0.051920638605952266,0.06812949032755569,0.45454545454545453,0.03197214196970769,VN,seed62_train_cal,25,2022-05-10,2022-06-07,0.006525444136611935,0.03589180776616559,
1951,0.00041092108638340896,0.055185629811603576,0.05520831607282162,0.06862337596248835,0.4705279343926192,0.035427782023552706,VN,seed62_train_cal,26,2022-06-08,2022-07-06,-0.00782515427424646,0.04157823696004925,
1949,0.0007718668707080711,0.032502992055378856,0.03252809941768647,0.04135008617304266,0.4746023601847101,0.031615618425224416,VN,seed62_train_cal,27,2022-07-07,2022-08-04,-0.002437506508408571,0.02818855398800224,
1950,-0.010147600995805695,0.026245114992343593,0.025981465447694082,0.03267205921001733,0.4533333333333333,0.0318052740644517,VN,seed62_train_cal,28,2022-08-05,2022-09-06,0.001568955728236232,0.02373134092631517,
1952,0.006972978499897309,0.047389268698316306,0.047722033411264436,0.0634339879572508,0.5537909836065574,0.020380668447144843,VN,seed62_train_cal,29,2022-09-07,2022-10-05,-0.0019306940117516103,0.03166655991008156,
1949,0.010022393389142459,0.05454609907465056,0.05509831607341766,0.06821276638656855,0.5074397126731657,0.03114010439741006,VN,seed62_train_cal,30,2022-10-06,2022-11-03,-0.0024879957934260677,0.040233625448308885,
734,-0.0011849872640250503,0.07805438688374125,0.07796200290322304,0.07070537585532292,0.4877384196185286,0.03607938302957014,VN,seed62_train_cal,31,2022-11-04,2022-11-15,-0.014129410124970931,0.04962667452346069,
1908,0.012009047887278967,0.04540954224066809,0.045961496047675604,0.06109306046273559,0.500524109014675,0.0673472005299734,VN,seed71_raw,0,2020-04-01,2020-05-04,0.005298808569329738,0.03568617204437032,
1922,0.0166733055734426,0.03228913575876505,0.03283663094043732,0.040746724163182084,0.5296566077003122,0.06559513835325426,VN,seed71_raw,1,2020-05-05,2020-06-02,0.0008594135125828961,0.028684243327006708,
1916,0.00015349992610169672,0.03684483499091584,0.03685049153864384,0.047887486638501287,0.45563674321503134,0.06504459559472704,VN,seed71_raw,2,2020-06-03,2020-07-01,0.0016312259917701244,0.027386514673708007,
1905,0.0226123704318566,0.03309147675172426,0.03385706525295973,0.04505475275218488,0.4440944881889764,0.07182266715606016,VN,seed71_raw,3,2020-07-02,2020-07-30,0.019518789722257623,0.021444740251172333,
1910,0.004388305990991159,0.024532489082776013,0.024640619661659004,0.030196279310621323,0.456020942408377,0.08390730013535978,VN,seed71_raw,4,2020-07-31,2020-08-28,-0.0022712668485360687,0.021081157453591008,
1925,-0.009757764204415986,0.021694361476693305,0.021484718658030033,0.027501867059618237,0.48467532467532465,0.08878939543849908,VN,seed71_raw,5,2020-08-31,2020-09-29,0.001305888140991529,0.02036582154687494,
1927,-0.013632033243051511,0.024969822936691345,0.024634011276066303,0.03149376513902098,0.44836533471717693,0.07263351471461463,VN,seed71_raw,6,2020-09-30,2020-10-28,0.006495132949230764,0.02269125490565785,
1906,0.005703118817757424,0.024995477695483714,0.025138847529888153,0.032006870314944535,0.4842602308499475,0.06699792357695596,VN,seed71_raw,7,2020-10-29,2020-11-26,-0.0013271275390474013,0.023705904801317956,
1914,0.022830725285879705,0.030946396279614423,0.03166943239048124,0.03968513731379063,0.5240334378265413,0.059459193356577136,VN,seed71_raw,8,2020-11-27,2020-12-25,0.001711807356759909,0.028813599387649446,
1920,-0.00841545444359082,0.04308391022495926,0.0427243652753532,0.05871509092394265,0.49166666666666664,0.05358853550621603,VN,seed71_raw,9,2020-12-28,2021-01-26,0.010346074920672743,0.0315933420410147,
1921,0.032226369349127704,0.04893286945298314,0.050562309101223946,0.06432211981154978,0.4502863092139511,0.07222226020358205,VN,seed71_raw,10,2021-01-27,2021-03-03,-0.008491977332828027,0.02905383866163902,
1930,-0.004551802362843693,0.02563435519405175,0.025518201384693386,0.03180891945958138,0.4336787564766839,0.09621778660174701,VN,seed71_raw,11,2021-03-04,2021-04-01,0.0005236444595475565,0.021879584307316693,
1929,0.003622942993640632,0.031177640601526946,0.03129100613296032,0.038606304791755974,0.45412130637636083,0.06858760600005737,VN,seed71_raw,12,2021-04-02,2021-05-05,-0.004597368016383108,0.025652461271965882,
1926,0.004344355071778994,0.0337679000076605,0.0339152398519218,0.04112976577016525,0.5155763239875389,0.0604677547021226,VN,seed71_raw,13,2021-05-06,2021-06-03,0.007502831483889527,0.03201893175719306,
1928,0.005475954932576688,0.03157332733389921,0.03174717342481017,0.040102553821634496,0.45902489626556015,0.06881741329223297,VN,seed71_raw,14,2021-06-04,2021-07-02,-0.009121129980719012,0.029378536011790853,
1929,-0.0005866690184910262,0.042485092009883374,0.04246018193662167,0.05454398656729609,0.48626231207879733,0.06471141164993119,VN,seed71_raw,15,2021-07-05,2021-08-02,0.007198353330021945,0.031945360027020794,
1939,0.008736438077689646,0.032929239716031594,0.03321945946663618,0.0425559341267217,0.4755028365136668,0.06767400178161266,VN,seed71_raw,16,2021-08-03,2021-08-31,0.005389908071125604,0.029336802108446136,
1945,0.0015349551387972005,0.029652221215656034,0.029697806015610697,0.03602247074013577,0.44832904884318764,0.06442982047639276,VN,seed71_raw,17,2021-09-01,2021-10-01,-0.00154306420046324,0.026848011708352715,
1946,0.012181012036754368,0.025669046515758964,0.025985577143728733,0.033073075232096016,0.47944501541623846,0.07127493783837588,VN,seed71_raw,18,2021-10-04,2021-11-01,0.00025681665083898686,0.02509290374291595,
1949,0.016589459501154646,0.040628384653246044,0.04131375756114722,0.05226909584598618,0.4910210364289379,0.05502264297726656,VN,seed71_raw,19,2021-11-02,2021-11-30,0.0053791682302301025,0.03935756502905861,
1951,0.0010120609890919008,0.035763004096224904,0.035799235105514526,0.04583544819615781,0.47719118400820093,0.06808294535219246,VN,seed71_raw,20,2021-12-01,2021-12-29,0.022136121815674592,0.031110582523979247,
1931,0.03516829126027554,0.04819616346503608,0.04995292238891125,0.06394476443529129,0.48213360952874157,0.061508833325280406,VN,seed71_raw,21,2021-12-30,2022-01-28,0.0012586541807353413,0.038679995835991576,
1945,-0.006905070958713955,0.03148280050372705,0.03126690033823252,0.03902788672130556,0.5012853470437018,0.07601557127020873,VN,seed71_raw,22,2022-02-07,2022-03-07,-0.008210010364356757,0.028143994254060098,
1951,-0.005633211988913089,0.0298195655705058,0.02965252660214901,0.037757325131678954,0.4751409533572527,0.06634168621210422,VN,seed71_raw,23,2022-03-08,2022-04-05,-0.002464039215503755,0.0278959815914277,
1950,-0.0017398676138342672,0.05594711351150181,0.05584994200617075,0.06894963695667684,0.4451282051282051,0.0948411386494563,VN,seed71_raw,24,2022-04-06,2022-05-09,-0.023113842891828273,0.039653009898029265,
1947,0.02126208252857975,0.05081669770297594,0.051920638605952266,0.06654410144547,0.480225988700565,0.07820650101585788,VN,seed71_raw,25,2022-05-10,2022-06-07,0.001257359570101535,0.036082130786962804,
1951,-0.01296004369336723,0.05592381826136261,0.05520831607282162,0.06974995275959373,0.41517170681701693,0.11303522773404726,VN,seed71_raw,26,2022-06-08,2022-07-06,-0.02406475384386031,0.04224820825038478,
1949,0.005168256517360081,0.03235998585587367,0.03252809941768647,0.041111568664200605,0.521292970754233,0.061209981552158586,VN,seed71_raw,27,2022-07-07,2022-08-04,-0.0029420118921630323,0.028202740685082973,
1950,-0.004853785835511992,0.026107573916669943,0.025981465447694082,0.03213627480436118,0.4512820512820513,0.08046705868667663,VN,seed71_raw,28,2022-08-05,2022-09-06,0.008247187831790792,0.02357260847929865,
1952,0.018000999298792286,0.046862989121291325,0.047722033411264436,0.06221478044462857,0.48411885245901637,0.07779139988329206,VN,seed71_raw,29,2022-09-07,2022-10-05,0.006750783377029612,0.03139217713542167,
1949,0.015444569540909003,0.05424734629923478,0.05509831607341766,0.06881044316105545,0.465366854797332,0.08312377662670409,VN,seed71_raw,30,2022-10-06,2022-11-03,0.007896928127387515,0.039816839271225035,
734,-0.02405798317467811,0.07983761145733298,0.07796200290322304,0.07689144564792515,0.4250681198910082,0.15094993272375232,VN,seed71_raw,31,2022-11-04,2022-11-15,-0.0540397550309184,0.05157969716237858,
1908,0.0028045308669341074,0.04583259561331943,0.045961496047675604,0.0618733768351376,0.500524109014675,0.030306239603901282,VN,seed71_train_cal,0,2020-04-01,2020-05-04,0.0029895637827973554,0.035769019142026084,
1922,0.011291739706695059,0.03246584825101309,0.03283663094043732,0.041011032694950704,0.5296566077003122,0.02951781158841218,VN,seed71_train_cal,1,2020-05-05,2020-06-02,0.00036231460190516707,0.02869851449795533,
1916,-0.003343777012101201,0.03697371136513539,0.03685049153864384,0.0481581924832426,0.45563674321503134,0.02927006777539777,VN,seed71_train_cal,2,2020-06-03,2020-07-01,0.0016183998878933625,0.027386866509914398,
1905,0.019091335516253527,0.03321068866061978,0.03385706525295973,0.04553911307593808,0.4440944881889764,0.0323201989325582,VN,seed71_train_cal,3,2020-07-02,2020-07-30,0.005793568939860272,0.021744933453737764,
1910,0.009327826499356706,0.02441077623661841,0.024640619661659004,0.030295524752000362,0.456020942408377,0.03775828460594759,VN,seed71_train_cal,4,2020-07-31,2020-08-28,-0.004350751398855657,0.02112489605278825,
1925,-0.009219133231416654,0.021682789141777913,0.021484718658030033,0.027599348104558906,0.48467532467532465,0.0399552279473246,VN,seed71_train_cal,5,2020-08-31,2020-09-29,0.002947184930487623,0.02033235148119275,
1927,-0.0044785166231327,0.024744335105060605,0.024634011276066303,0.031234815734205775,0.44836533471717693,0.032685080354978045,VN,seed71_train_cal,6,2020-09-30,2020-10-28,-0.0040852027221678355,0.022932905552443116,
1906,0.00010985484795911216,0.02513608590561489,0.025138847529888153,0.03246785977171385,0.4842602308499475,0.03014906400222619,VN,seed71_train_cal,7,2020-10-29,2020-11-26,-0.0017828079972292965,0.023716692801826866,
1914,0.0052710406142779664,0.031502501526119886,0.03166943239048124,0.040492279797035735,0.5240334378265413,0.02675663569475662,VN,seed71_train_cal,8,2020-11-27,2020-12-25,-0.0001962810512694535,0.028868672557291575,
1920,-0.006376051069815203,0.042996778010274295,0.0427243652753532,0.05863594759139234,0.49166666666666664,0.02411483987853762,VN,seed71_train_cal,9,2020-12-28,2021-01-26,0.0012421297230373884,0.0318839729850879,
1921,0.013072442689991304,0.04990133621322457,0.050562309101223946,0.06646082110819407,0.4502863092139511,0.032500017091611925,VN,seed71_train_cal,10,2021-01-27,2021-03-03,0.0052994521270924855,0.02865651872707531,
1930,-0.004187748114640399,0.02562506518443115,0.025518201384693386,0.03210121017182246,0.4336787564766839,0.04329800251958575,VN,seed71_train_cal,11,2021-03-04,2021-04-01,0.0037302949187719703,0.0218093873700127,
1929,-0.0005698672308274144,0.031308837851975115,0.03129100613296032,0.03886096457135864,0.45412130637636083,0.030864422700025814,VN,seed71_train_cal,12,2021-04-02,2021-05-05,-0.0005615692123706051,0.025549406878417356,
1926,-0.0005300012253814934,0.03393321497060242,0.0339152398519218,0.04142998647876084,0.5155763239875389,0.02721048961595517,VN,seed71_train_cal,13,2021-05-06,2021-06-03,0.006894851005763147,0.03203854580351617,
1928,0.005936644866165408,0.03155870173068251,0.03174717342481017,0.0401525252353167,0.45902489626556015,0.030967835172896266,VN,seed71_train_cal,14,2021-06-04,2021-07-02,-0.00237548447468261,0.02918215008394327,
1929,0.0005351696821553897,0.04243745853455039,0.04246018193662167,0.054294702946208424,0.48626231207879733,0.029120134468533777,VN,seed71_train_cal,15,2021-07-05,2021-08-02,0.014057784094954173,0.031724644251517026,
1939,0.007811546838423777,0.03295996410306543,0.03321945946663618,0.042862260318361226,0.4755028365136668,0.030453299621821348,VN,seed71_train_cal,16,2021-08-03,2021-08-31,0.0015428009735032333,0.029450275539420548,
1945,0.0018196285336626872,0.029643767040397513,0.029697806015610697,0.03598814907309135,0.44832904884318764,0.028993418700255277,VN,seed71_train_cal,17,2021-09-01,2021-10-01,0.0028253072261911205,0.026730910316109656,
1946,0.003996062820796897,0.025881737145027728,0.025985577143728733,0.03328534348474932,0.47944501541623846,0.0320737216787514,VN,seed71_train_cal,18,2021-10-04,2021-11-01,0.006323792239054549,0.024940626601164695,
1949,0.004278825543989395,0.0411369831999764,0.04131375756114722,0.05325516662560407,0.4910210364289379,0.02476018842652643,VN,seed71_train_cal,19,2021-11-02,2021-11-30,-0.0005423890125721975,0.03959188354201615,
1951,-0.0002315218531445673,0.03580752341076732,0.035799235105514526,0.04579066357109696,0.47719118400820093,0.03063732540848661,VN,seed71_train_cal,20,2021-12-01,2021-12-29,0.00806382745604306,0.03155829031311441,
1931,0.024772847092111694,0.04871544628076663,0.04995292238891125,0.06481217872351408,0.48213360952874157,0.027678974305335422,VN,seed71_train_cal,21,2021-12-30,2022-01-28,0.0022199323993673525,0.03864276673994027,
1945,-0.0012793285820176248,0.03130690097750632,0.03126690033823252,0.038895717629930035,0.5012853470437018,0.034207006291858175,VN,seed71_train_cal,22,2022-02-07,2022-03-07,-0.007249682630902088,0.02811718688462861,
1951,0.001692781888264716,0.029602331342175603,0.02965252660214901,0.037312961532734334,0.4751409533572527,0.029853757230643506,VN,seed71_train_cal,23,2022-03-08,2022-04-05,-0.003742499069092853,0.027931557822739705,
1950,-0.0005628479775352524,0.055881377033074386,0.05584994200617075,0.06900554682943039,0.4451282051282051,0.0426785107019711,VN,seed71_train_cal,24,2022-04-06,2022-05-09,-0.007372561332614103,0.03904292217630427,
1947,0.00791183706872689,0.05150985097279772,0.051920638605952266,0.06774579307530075,0.480225988700565,0.03519292471243575,VN,seed71_train_cal,25,2022-05-10,2022-06-07,0.0064964392772436375,0.035892855640850034,
1951,-0.003730633126948213,0.055414278045645915,0.05520831607282162,0.06909550746786408,0.41517170681701693,0.050865850448345885,VN,seed71_train_cal,26,2022-06-08,2022-07-06,-0.009808635705521374,0.041660066293843556,
1949,0.00753919174985207,0.03228286383891828,0.03252809941768647,0.040827605387312366,0.521292970754233,0.02754449029076531,VN,seed71_train_cal,27,2022-07-07,2022-08-04,0.00021377396588939668,0.02811399995116517,
1950,-0.013622314780236344,0.026335393148474405,0.025981465447694082,0.03261999235255646,0.4512820512820513,0.03621017644506391,VN,seed71_train_cal,28,2022-08-05,2022-09-06,0.010386385717764957,0.0235217626701342,
1952,0.008783300970781505,0.04730287642887561,0.047722033411264436,0.06314636263559806,0.48411885245901637,0.03500612830301949,VN,seed71_train_cal,29,2022-09-07,2022-10-05,0.006553813132301856,0.03139840248622932,
1949,0.0066350026336612355,0.054732738601160236,0.05509831607341766,0.06877218550653197,0.465366854797332,0.03740569812788896,VN,seed71_train_cal,30,2022-10-06,2022-11-03,0.001745099020055596,0.04006373538286426,
734,-0.009305371748044022,0.07868746832245961,0.07796200290322304,0.07262040653731675,0.4250681198910082,0.0679274700603909,VN,seed71_train_cal,31,2022-11-04,2022-11-15,-0.030608262100031203,0.05043307123705745,
1908,0.0505105326034091,0.043639956403058025,0.045961496047675604,0.05691207516938448,0.48742138364779874,0.10495306199244185,VN,seed82_raw,0,2020-04-01,2020-05-04,0.031202486063275137,0.034756844624644144,
1922,0.0020273709583146227,0.03277005890849978,0.03283663094043732,0.041322945873253046,0.49375650364203955,0.05608623493950859,VN,seed82_raw,1,2020-05-05,2020-06-02,-0.017935238983929125,0.02922381742973812,
1916,-0.00038952726317598163,0.03686484580975957,0.03685049153864384,0.04825015913229436,0.4822546972860125,0.06896890561300935,VN,seed82_raw,2,2020-06-03,2020-07-01,0.006389752968963491,0.02725598227698356,
1905,0.01383742506652752,0.033388570649549365,0.03385706525295973,0.045420136768370874,0.3916010498687664,0.07385769804901926,VN,seed82_raw,3,2020-07-02,2020-07-30,0.019593453584856424,0.02144310722942465,
1910,-0.008503096478975625,0.024850141227943833,0.024640619661659004,0.03072231644182468,0.4293193717277487,0.08277714982255117,VN,seed82_raw,4,2020-07-31,2020-08-28,-0.005279351348069561,0.021144427653052845,
1925,-0.006368832150413617,0.021621551224961885,0.021484718658030033,0.02743479278869929,0.48363636363636364,0.07002074439008274,VN,seed82_raw,5,2020-08-31,2020-09-29,-0.0006381395802392831,0.020405465038493276,
1927,-0.011248227174189829,0.02491110023111105,0.024634011276066303,0.03137664720416069,0.44421380384016607,0.06004342319992001,VN,seed82_raw,6,2020-09-30,2020-10-28,0.005765189763346723,0.0227079265168868,
1906,0.0033129272091732,0.02505556435789913,0.025138847529888153,0.0322807970806025,0.4758656873032529,0.05498564352483092,VN,seed82_raw,7,2020-10-29,2020-11-26,-0.009866064323903911,0.023908059738459997,
1914,0.007232875547686368,0.03144037132733502,0.03166943239048124,0.040367036708630635,0.5120167189132706,0.04763442367989879,VN,seed82_raw,8,2020-11-27,2020-12-25,-0.01312160127483808,0.02924173616920598,
1920,-0.0057546570406366016,0.04297022934479174,0.0427243652753532,0.05879913165117616,0.5234375,0.05490020683156885,VN,seed82_raw,9,2020-12-28,2021-01-26,0.008486177255971117,0.03165271671896335,
1921,0.032727347957573594,0.0489075388177298,0.050562309101223946,0.06461098219733685,0.4737116085372202,0.09244703337032473,VN,seed82_raw,10,2021-01-27,2021-03-03,-0.00769367252486397,0.02903084014542401,
1930,-0.009287781031750653,0.025755208851478535,0.025518201384693386,0.032308150883181966,0.41088082901554407,0.06634714097499407,VN,seed82_raw,11,2021-03-04,2021-04-01,0.0014168831666463433,0.021860030376410586,
1929,0.002437191916701331,0.031214743945747615,0.03129100613296032,0.03851094301789999,0.4406428201140487,0.06324229796651976,VN,seed82_raw,12,2021-04-02,2021-05-05,0.009616797110326258,0.025289501610677688,
1926,0.0010633064823341032,0.03387917755753733,0.0339152398519218,0.04195546513074078,0.48234683281412255,0.055837122460491585,VN,seed82_raw,13,2021-05-06,2021-06-03,0.008469123264677747,0.031987758236937225,
1928,-0.005613346043610523,0.03192538129515014,0.03174717342481017,0.04053392939968034,0.4642116182572614,0.06784990851679869,VN,seed82_raw,14,2021-06-04,2021-07-02,-0.0004912671443866312,0.029127294878708198,
1929,-0.015186397009855801,0.04310499911662191,0.04246018193662167,0.05507146590389312,0.4333851736651115,0.08312725615886671,VN,seed82_raw,15,2021-07-05,2021-08-02,-0.0012527333538938645,0.03221729048527777,
1939,-0.0005527415476411779,0.03323782124207357,0.03321945946663618,0.0431521957390942,0.43837029396596183,0.060169864822434686,VN,seed82_raw,16,2021-08-03,2021-08-31,-0.01645737531792002,0.029981204809155317,
1945,0.008725745073039914,0.029438670531089887,0.029697806015610697,0.03583890674635769,0.47917737789203085,0.057627060339207885,VN,seed82_raw,17,2021-09-01,2021-10-01,0.0007351628533461829,0.02678694007918239,
1946,0.0011698287191210799,0.025955178469303064,0.025985577143728733,0.03321875855908729,0.4486125385405961,0.05557992759474246,VN,seed82_raw,18,2021-10-04,2021-11-01,-0.010744636296402987,0.025369033057359047,
1949,0.02112488407824309,0.040441009221831345,0.04131375756114722,0.052392076421529064,0.482811698306824,0.057494879295716624,VN,seed82_raw,19,2021-11-02,2021-11-30,0.006897745964452917,0.039297474268823865,
1951,0.008482476362111746,0.03549556893995032,0.035799235105514526,0.0453650678973645,0.4935930292157868,0.07615796675917894,VN,seed82_raw,20,2021-12-01,2021-12-29,0.02077995195255844,0.031153728850767948,
1931,0.045688679799095744,0.0476706393128552,0.04995292238891125,0.06265011196956038,0.47384774728120144,0.0740684507938621,VN,seed82_raw,21,2021-12-30,2022-01-28,0.005316382214888282,0.03852284513413906,
1945,-0.013798609626309855,0.03169834009022453,0.03126690033823252,0.03914873076137157,0.45089974293059126,0.08599446029656561,VN,seed82_raw,22,2022-02-07,2022-03-07,-0.02289666980174565,0.028553969610948127,
1951,-0.0005124693859681617,0.029667722614249215,0.02965252660214901,0.03752984246239066,0.4490005125576627,0.06753145004446545,VN,seed82_raw,23,2022-03-08,2022-04-05,-0.0013753125558704227,0.02786568514420651,
1950,0.01921386636748823,0.054776848683832216,0.05584994200617075,0.06724831679603085,0.4774358974358974,0.09989284382225833,VN,seed82_raw,24,2022-04-06,2022-05-09,-0.02006912662827043,0.03953500527422875,
1947,0.02048135037644172,0.05085723381489515,0.051920638605952266,0.06577615719288588,0.49922958397534667,0.12736383038649737,VN,seed82_raw,25,2022-05-10,2022-06-07,0.014382576304787897,0.03560794878285378,
1951,0.015300358245394774,0.05436360905878246,0.05520831607282162,0.0670301029458642,0.5053818554587391,0.12055734321223771,VN,seed82_raw,26,2022-06-08,2022-07-06,-0.009681420840867982,0.041654817992821336,
1949,-0.010038210421041471,0.03285462332423776,0.03252809941768647,0.04216096163727343,0.45561826577732173,0.0954984700194738,VN,seed82_raw,27,2022-07-07,2022-08-04,-0.007995314985654645,0.028344839625060562,
1950,-0.011416390159242118,0.026278079994153825,0.025981465447694082,0.03229416933609175,0.4358974358974359,0.05725201091307106,VN,seed82_raw,28,2022-08-05,2022-09-06,0.0018351869122631426,0.02372501297504642,
1952,0.010692862954607474,0.04721174824808259,0.047722033411264436,0.06267872177413665,0.4667008196721312,0.08213851162869343,VN,seed82_raw,29,2022-09-07,2022-10-05,-0.006726875985080261,0.031818145827855915,
1949,0.02875961465284893,0.0535137097351253,0.05509831607341766,0.06611649096012115,0.5238583889173936,0.1308203503884982,VN,seed82_raw,30,2022-10-06,2022-11-03,0.014905838494134294,0.039535545255057515,
734,-0.04149236782122245,0.08119683100376278,0.07796200290322304,0.07550289002247154,0.47956403269754766,0.15952590715776074,VN,seed82_raw,31,2022-11-04,2022-11-15,-0.026517450115943975,0.05023288633674384,
1908,0.0515383487292802,0.04359271643625107,0.045961496047675604,0.05661901552230119,0.48742138364779874,0.1102007084102388,VN,seed82_train_cal,0,2020-04-01,2020-05-04,0.0326268315596242,0.03470574441598728,
1922,0.0013836262039232938,0.03279119731741957,0.03283663094043732,0.04138170855585486,0.49375650364203955,0.058890544171913146,VN,seed82_train_cal,1,2020-05-05,2020-06-02,-0.017790013497225754,0.029219648163416424,
1916,0.002939425553239894,0.036742172262165695,0.03685049153864384,0.048044822411611676,0.4822546972860125,0.07241734629130127,VN,seed82_train_cal,2,2020-06-03,2020-07-01,0.007625712369172422,0.027222078351769596,
1905,0.012366705624594632,0.03343836489366368,0.03385706525295973,0.04551754957064987,0.3916010498687664,0.07755057884083498,VN,seed82_train_cal,3,2020-07-02,2020-07-30,0.018884110296885304,0.021458621736383066,
1910,-0.010105614603695079,0.024889628267555964,0.024640619661659004,0.030774182616733016,0.4293193717277487,0.0869160011337468,VN,seed82_train_cal,4,2020-07-31,2020-08-28,-0.005295287385706837,0.021144762841868215,
1925,-0.005988093523263682,0.021613371162675324,0.021484718658030033,0.02742532235570253,0.48363636363636364,0.0735217763730397,VN,seed82_train_cal,5,2020-08-31,2020-09-29,-0.0009434649941815199,0.020411691372282808,
1927,-0.013898308950127003,0.024976382375461983,0.024634011276066303,0.03149474626407028,0.44421380384016607,0.06304559029935013,VN,seed82_train_cal,6,2020-09-30,2020-10-28,0.00571720812629839,0.022709022398339586,
1906,0.0018904834845301366,0.025091322953812778,0.025138847529888153,0.032207187032327056,0.4758656873032529,0.057734924093668476,VN,seed82_train_cal,7,2020-10-29,2020-11-26,-0.00980895319311026,0.02390670766180847,
1914,0.007047520800897655,0.031446241406956704,0.03166943239048124,0.040379995910916504,0.5120167189132706,0.05001614402012762,VN,seed82_train_cal,8,2020-11-27,2020-12-25,-0.013870710721446411,0.02926335772062885,
1920,-0.006628897256774291,0.04300758070312441,0.0427243652753532,0.05886595875490457,0.5234375,0.05764521273613583,VN,seed82_train_cal,9,2020-12-28,2021-01-26,0.00781493874155803,0.0316741450864356,
1921,0.03562501655435002,0.04876102600246668,0.050562309101223946,0.06453462410718203,0.4737116085372202,0.09706938400507412,VN,seed82_train_cal,10,2021-01-27,2021-03-03,-0.011233941185183838,0.02913283242378384,
1930,-0.011126451364339873,0.025802128411305605,0.025518201384693386,0.0323702550806047,0.41088082901554407,0.06966449221894215,VN,seed82_train_cal,11,2021-03-04,2021-04-01,-0.0006509313969222941,0.021905297003104354,
1929,0.000510141654698204,0.03127504328731448,0.03129100613296032,0.0384998799301684,0.4406428201140487,0.06640440874195738,VN,seed82_train_cal,12,2021-04-02,2021-05-05,0.009263013086085348,0.025298535509500654,
1926,0.0025233297366751284,0.033829660518676974,0.0339152398519218,0.04189598173252307,0.48234683281412255,0.05862897382644661,VN,seed82_train_cal,13,2021-05-06,2021-06-03,0.008609442811848722,0.031983231390768196,
1928,-0.0063386217843000026,0.03194840674987062,0.03174717342481017,0.0405099319294095,0.4642116182572614,0.0712423980513476,VN,seed82_train_cal,14,2021-06-04,2021-07-02,0.0017948297703579419,0.029060739756096153,
1929,-0.013506670943333132,0.043033677642233675,0.04246018193662167,0.05494915791787209,0.4333851736651115,0.0872836169889755,VN,seed82_train_cal,15,2021-07-05,2021-08-02,-0.00024603057711769516,0.032184897828847175,
1939,-0.00016005299597687817,0.03322477634064855,0.03321945946663618,0.0431950947036967,0.43837029396596183,0.06317835704454812,VN,seed82_train_cal,16,2021-08-03,2021-08-31,-0.016072972995006873,0.029969866562169045,
1945,0.009213151740999126,0.02942419562241412,0.029697806015610697,0.035846035885333555,0.47917737789203085,0.06050841039996984,VN,seed82_train_cal,17,2021-09-01,2021-10-01,-0.0008968887795484104,0.0268306899117306,
1946,0.0007378514657754298,0.02596640364754421,0.025985577143728733,0.033283837936323835,0.4486125385405961,0.058358920924949355,VN,seed82_train_cal,18,2021-10-04,2021-11-01,-0.009547628509287032,0.025338988940347917,
1949,0.01999487293927671,0.040487694228068,0.04131375756114722,0.052478581713512544,0.482811698306824,0.060369620303332955,VN,seed82_train_cal,19,2021-11-02,2021-11-30,0.005704932610337776,0.03934467439539731,
1951,0.012709426533416335,0.03534424735698849,0.035799235105514526,0.04523027199320495,0.4935930292157868,0.07996586151154961,VN,seed82_train_cal,20,2021-12-01,2021-12-29,0.02197128298183626,0.031115826845052652,
1931,0.04707430369369259,0.04760142334998818,0.04995292238891125,0.06250644783722237,0.47384774728120144,0.07777186953283101,VN,seed82_train_cal,21,2021-12-30,2022-01-28,0.008364070822252545,0.0384048119885847,
1945,-0.017908996346798656,0.03182685914216564,0.03126690033823252,0.0392954012611881,0.45089974293059126,0.0902941799525322,VN,seed82_train_cal,22,2022-02-07,2022-03-07,-0.023912732759719058,0.02858233281876892,
1951,-0.004586949975247556,0.029788541258312762,0.02965252660214901,0.037592860171571374,0.4490005125576627,0.07090802035596398,VN,seed82_train_cal,23,2022-03-08,2022-04-05,0.0006961440281145759,0.02780804186477326,
1950,0.021314209188601052,0.05465954465907999,0.05584994200617075,0.06712021060520784,0.4774358974358974,0.10488748229474594,VN,seed82_train_cal,24,2022-04-06,2022-05-09,-0.014457357521593384,0.0393175089149736,
1947,0.02345899122158923,0.050702632800675926,0.051920638605952266,0.06565664228983223,0.49922958397534667,0.1337320144588193,VN,seed82_train_cal,25,2022-05-10,2022-06-07,0.014623922590799698,0.03559922953136265,
1951,0.015184101212058598,0.05437002741382457,0.05520831607282162,0.06705378275364637,0.5053818554587391,0.1265851981809973,VN,seed82_train_cal,26,2022-06-08,2022-07-06,-0.014145624319264138,0.0418389905244112,
1949,-0.014864969318901577,0.033011628617532554,0.03252809941768647,0.04231869024224579,0.45561826577732173,0.10027338642560898,VN,seed82_train_cal,27,2022-07-07,2022-08-04,-0.009086802994838106,0.028375532280188055,
1950,-0.011023526949716311,0.02626787283224986,0.025981465447694082,0.0322898851009086,0.4358974358974359,0.06011460870017847,VN,seed82_train_cal,28,2022-08-05,2022-09-06,0.003035694810442635,0.023696478543570272,
1952,0.005358528003747698,0.04746631355883439,0.047722033411264436,0.06310181004228074,0.4667008196721312,0.08624543545603537,VN,seed82_train_cal,29,2022-09-07,2022-10-05,-0.009017653032370232,0.031890547071816405,
1949,0.030303093202390885,0.05342866666615009,0.05509831607341766,0.0660041905939579,0.5238583889173936,0.13736135951233022,VN,seed82_train_cal,30,2022-10-06,2022-11-03,0.012930672297573165,0.03961481612641364,
734,-0.03811089691189107,0.08093320475891233,0.07796200290322304,0.07578958505764603,0.47956403269754766,0.1675021993694465,VN,seed82_train_cal,31,2022-11-04,2022-11-15,-0.02697846577314489,0.0502554462524131,
1908,0.020318487373632288,0.045027627970557656,0.045961496047675604,0.05944493892602622,0.47379454926624737,0.08366748232614692,VN,selected_train_only_portable_ensemble,0,2020-04-01,2020-05-04,0.031673784266891936,0.03473993620136752,ensemble_mean_train_cal
1922,0.008134738162310806,0.032569513545604424,0.03283663094043732,0.041034418519120666,0.5338189386056191,0.06496114406850505,VN,selected_train_only_portable_ensemble,1,2020-05-05,2020-06-02,-0.008526483348582303,0.02895370225305669,ensemble_mean_train_cal
1916,0.005465477185630729,0.0366490860178601,0.03685049153864384,0.04807509685633704,0.4744258872651357,0.07901424591779517,VN,selected_train_only_portable_ensemble,2,2020-06-03,2020-07-01,0.011834335924625794,0.027106630499474704,ensemble_mean_train_cal
1905,0.006814670988384397,0.03362634049262855,0.03385706525295973,0.04598700858186937,0.420997375328084,0.07414130711782149,VN,selected_train_only_portable_ensemble,3,2020-07-02,2020-07-30,0.016409356849254486,0.021512748673558235,ensemble_mean_train_cal
1910,-0.006997191133341074,0.024813034787075597,0.024640619661659004,0.03065819796174765,0.42984293193717277,0.09289024369914765,VN,selected_train_only_portable_ensemble,4,2020-07-31,2020-08-28,-0.0016943576562666873,0.021069023100426423,ensemble_mean_train_cal
1925,0.0022053474177795573,0.021437337389215827,0.021484718658030033,0.02709080930799246,0.4820779220779221,0.09048568762250539,VN,selected_train_only_portable_ensemble,5,2020-08-31,2020-09-29,0.0005044407556509256,0.02038216502405703,ensemble_mean_train_cal
1927,-0.013387496908289664,0.02496379902586341,0.024634011276066303,0.03142516659572721,0.45303580695381424,0.07867327790968352,VN,selected_train_only_portable_ensemble,6,2020-09-30,2020-10-28,0.0003714617075593063,0.022831117114401424,ensemble_mean_train_cal
1906,0.006052402863237827,0.02498669709711976,0.025138847529888153,0.0321894217049703,0.4769150052465897,0.06400426223528771,VN,selected_train_only_portable_ensemble,7,2020-10-29,2020-11-26,-0.0014946816539491703,0.02370987155882176,ensemble_mean_train_cal
1914,0.0206365017734369,0.031015886092791337,0.03166943239048124,0.03995396496029571,0.5292580982236155,0.06084597759087176,VN,selected_train_only_portable_ensemble,8,2020-11-27,2020-12-25,-0.007051051174712164,0.02906652183737606,ensemble_mean_train_cal
1920,-0.012658840977962438,0.043265206221258276,0.0427243652753532,0.0594398090732284,0.5151041666666667,0.05769421732915104,VN,selected_train_only_portable_ensemble,9,2020-12-28,2021-01-26,0.004030376785247314,0.031794962027925075,ensemble_mean_train_cal
1921,0.03861655568360245,0.04860976687632501,0.050562309101223946,0.0645640913862735,0.4737116085372202,0.0825407351003046,VN,selected_train_only_portable_ensemble,10,2021-01-27,2021-03-03,-0.009925359480880802,0.029095133242662996,ensemble_mean_train_cal
1930,-0.01643503784700795,0.02593759399023839,0.025518201384693386,0.032386018277611596,0.42487046632124353,0.08903373800617696,VN,selected_train_only_portable_ensemble,11,2021-03-04,2021-04-01,0.01082701068666403,0.021654032828519125,ensemble_mean_train_cal
1929,0.0008750043379961436,0.03126362636685372,0.03129100613296032,0.03867723108269274,0.45619491964748576,0.07449160125813822,VN,selected_train_only_portable_ensemble,12,2021-04-02,2021-05-05,0.0003882621991739832,0.02552515286952257,ensemble_mean_train_cal
1926,0.005863832444514494,0.03371636656811461,0.0339152398519218,0.04153735772706568,0.5103842159916926,0.05852122620105261,VN,selected_train_only_portable_ensemble,13,2021-05-06,2021-06-03,0.004888743713763688,0.03210326479165815,ensemble_mean_train_cal
1928,0.0011270570728382223,0.031711392548459116,0.03174717342481017,0.040122337712091394,0.4828838174273859,0.07312185734856584,VN,selected_train_only_portable_ensemble,14,2021-06-04,2021-07-02,0.005885803892430985,0.02894163925666362,ensemble_mean_train_cal
1929,-0.004415769419661597,0.04264767630957067,0.04246018193662167,0.054569076746702194,0.4494556765163297,0.08022117225999194,VN,selected_train_only_portable_ensemble,15,2021-07-05,2021-08-02,0.004650818144650626,0.032027332019060856,ensemble_mean_train_cal
