nhaTahn/data_stock_market/gold/vn_transition_pressure_20260512/plots/tail_control_calibration_20260526/tail_control_grid.csv
rel_score,median_abs_e,q90_abs_e,q95_abs_e,share_abs_e_gt_035,share_abs_e_gt_050,share_abs_e_gt_080,daily_q90_median,daily_q90_p90,daily_q90_max,daily_violation_gt_035,daily_violation_share,DA,pred_actual_q90_ratio,variant,rule,shrink,clip_k,conf_q,train_objective,train_rel_score
0.04477516686817884,0.012537384405732155,0.046931590884923935,0.06215594708919525,0.16358673173959798,0.08847712796757383,0.008338158656629993,0.0362396590411663,0.06273880243301391,0.10801902115345001,364,0.5523520485584219,0.5182728099925552,0.19320456683635712,anchor_baseline,baseline,1.0,,,,
0.021270961230697272,0.012445471249520779,0.04888720065355301,0.06408541649580002,0.16793779468938705,0.09560757713623956,0.004433782777731822,0.03613609671592712,0.06393701255321502,0.0880492515861988,353,0.5356600910470409,0.5182728099925552,0.09660228341817856,plain_s0.5_kNone_qNone,plain,0.5,,,-0.038266618147508154,0.029288089460837163
0.02117190557691284,0.012444348074495792,0.0488969124853611,0.06408541649580002,0.1679874265861527,0.09567375299859376,0.004433782777731822,0.03613609671592712,0.06393701255321502,0.0880492515861988,353,0.5356600910470409,0.5182728099925552,0.09660228341817856,plain_s0.5_k0.5_qNone,plain,0.5,0.5,,-0.038268191198843976,0.029289651707398168
0.021270961230697272,0.012445471249520779,0.04888720065355301,0.06408541649580002,0.16793779468938705,0.09560757713623956,0.004433782777731822,0.03613609671592712,0.06393701255321502,0.0880492515861988,353,0.5356600910470409,0.5182728099925552,0.09660228341817856,plain_s0.5_k0.75_qNone,plain,0.5,0.75,,-0.038266618147508154,0.029288089460837163
0.021270961230697272,0.012445471249520779,0.04888720065355301,0.06408541649580002,0.16793779468938705,0.09560757713623956,0.004433782777731822,0.03613609671592712,0.06393701255321502,0.0880492515861988,353,0.5356600910470409,0.5182728099925552,0.09660228341817856,plain_s0.5_k1.0_qNone,plain,0.5,1.0,,-0.038266618147508154,0.029288089460837163
0.021270961230697272,0.012445471249520779,0.04888720065355301,0.06408541649580002,0.16793779468938705,0.09560757713623956,0.004433782777731822,0.03613609671592712,0.06393701255321502,0.0880492515861988,353,0.5356600910470409,0.5182728099925552,0.09660228341817856,plain_s0.5_k1.25_qNone,plain,0.5,1.25,,-0.038266618147508154,0.029288089460837163
0.021270961230697272,0.012445471249520779,0.04888720065355301,0.06408541649580002,0.16793779468938705,0.09560757713623956,0.004433782777731822,0.03613609671592712,0.06393701255321502,0.0880492515861988,353,0.5356600910470409,0.5182728099925552,0.09660228341817856,plain_s0.5_k1.5_qNone,plain,0.5,1.5,,-0.038266618147508154,0.029288089460837163
0.021270961230697272,0.012445471249520779,0.04888720065355301,0.06408541649580002,0.16793779468938705,0.09560757713623956,0.004433782777731822,0.03613609671592712,0.06393701255321502,0.0880492515861988,353,0.5356600910470409,0.5182728099925552,0.09660228341817856,plain_s0.5_k2.0_qNone,plain,0.5,2.0,,-0.038266618147508154,0.029288089460837163
0.030198191415937936,0.012443143874406815,0.04821890592575073,0.06357546895742416,0.16720986020349077,0.09373810902473323,0.005525684506576227,0.03609152771532535,0.06376170173287392,0.09201901853084564,351,0.5326251896813353,0.5182728099925552,0.11592274904251099,plain_s0.6_kNone_qNone,plain,0.6,,,-0.03794530262287709,0.03339554879255435
0.02862562113822742,0.012440555728971958,0.04834262654185295,0.06357546895742416,0.1673422119281992,0.0940193564397386,0.005525684506576227,0.03609152771532535,0.06376170173287392,0.09174294173717498,351,0.5326251896813353,0.5182728099925552,0.11592274904251099,plain_s0.6_k0.5_qNone,plain,0.6,0.5,,-0.037983895856670745,0.03308496811577655
0.030198191415937936,0.012443143874406815,0.04821890592575073,0.06357546895742416,0.16720986020349077,0.09373810902473323,0.005525684506576227,0.03609152771532535,0.06376170173287392,0.09201901853084564,351,0.5326251896813353,0.5182728099925552,0.11592274904251099,plain_s0.6_k0.75_qNone,plain,0.6,0.75,,-0.03794530262287709,0.03339554879255435
0.030198191415937936,0.012443143874406815,0.04821890592575073,0.06357546895742416,0.16720986020349077,0.09373810902473323,0.005525684506576227,0.03609152771532535,0.06376170173287392,0.09201901853084564,351,0.5326251896813353,0.5182728099925552,0.11592274904251099,plain_s0.6_k1.0_qNone,plain,0.6,1.0,,-0.03794530262287709,0.03339554879255435
0.030198191415937936,0.012443143874406815,0.04821890592575073,0.06357546895742416,0.16720986020349077,0.09373810902473323,0.005525684506576227,0.03609152771532535,0.06376170173287392,0.09201901853084564,351,0.5326251896813353,0.5182728099925552,0.11592274904251099,plain_s0.6_k1.25_qNone,plain,0.6,1.25,,-0.03794530262287709,0.03339554879255435
0.030198191415937936,0.012443143874406815,0.04821890592575073,0.06357546895742416,0.16720986020349077,0.09373810902473323,0.005525684506576227,0.03609152771532535,0.06376170173287392,0.09201901853084564,351,0.5326251896813353,0.5182728099925552,0.11592274904251099,plain_s0.6_k1.5_qNone,plain,0.6,1.5,,-0.03794530262287709,0.03339554879255435
0.030198191415937936,0.012443143874406815,0.04821890592575073,0.06357546895742416,0.16720986020349077,0.09373810902473323,0.005525684506576227,0.03609152771532535,0.06376170173287392,0.09201901853084564,351,0.5326251896813353,0.5182728099925552,0.11592274904251099,plain_s0.6_k2.0_qNone,plain,0.6,2.0,,-0.03794530262287709,0.03339554879255435
0.034954118042859084,0.012450532987713814,0.04784562066197395,0.06312616914510727,0.16669699727024567,0.09221606419058648,0.0062536189924724955,0.03628522604703903,0.06321726322174072,0.09601901918649673,350,0.5311077389984825,0.5182728099925552,0.13524319231510162,plain_s0.7_kNone_qNone,plain,0.7,,,-0.03771536435179818,0.03667693995291543
0.03145643147717636,0.012453211471438408,0.048103924840688705,0.06311940401792526,0.16701133261642817,0.09272892712383159,0.006220531061295393,0.03628522604703903,0.06306148022413255,0.09287699162960052,350,0.5311077389984825,0.5182728099925552,0.13524319231510162,plain_s0.7_k0.5_qNone,plain,0.7,0.5,,-0.03778058332306643,0.035987093621244526
0.034954118042859084,0.012450532987713814,0.04784562066197395,0.06312616914510727,0.16669699727024567,0.09221606419058648,0.0062536189924724955,0.03628522604703903,0.06321726322174072,0.09601901918649673,350,0.5311077389984825,0.5182728099925552,0.13524319231510162,plain_s0.7_k0.75_qNone,plain,0.7,0.75,,-0.03771536435179818,0.03667693995291543
0.034954118042859084,0.012450532987713814,0.04784562066197395,0.06312616914510727,0.16669699727024567,0.09221606419058648,0.0062536189924724955,0.03628522604703903,0.06321726322174072,0.09601901918649673,350,0.5311077389984825,0.5182728099925552,0.13524319231510162,plain_s0.7_k1.0_qNone,plain,0.7,1.0,,-0.03771536435179818,0.03667693995291543
0.034954118042859084,0.012450532987713814,0.04784562066197395,0.06312616914510727,0.16669699727024567,0.09221606419058648,0.0062536189924724955,0.03628522604703903,0.06321726322174072,0.09601901918649673,350,0.5311077389984825,0.5182728099925552,0.13524319231510162,plain_s0.7_k1.25_qNone,plain,0.7,1.25,,-0.03771536435179818,0.03667693995291543
0.034954118042859084,0.012450532987713814,0.04784562066197395,0.06312616914510727,0.16669699727024567,0.09221606419058648,0.0062536189924724955,0.03628522604703903,0.06321726322174072,0.09601901918649673,350,0.5311077389984825,0.5182728099925552,0.13524319231510162,plain_s0.7_k1.5_qNone,plain,0.7,1.5,,-0.03771536435179818,0.03667693995291543
0.034954118042859084,0.012450532987713814,0.04784562066197395,0.06312616914510727,0.16669699727024567,0.09221606419058648,0.0062536189924724955,0.03628522604703903,0.06321726322174072,0.09601901918649673,350,0.5311077389984825,0.5182728099925552,0.13524319231510162,plain_s0.7_k2.0_qNone,plain,0.7,2.0,,-0.03771536435179818,0.03667693995291543
0.03899090773965597,0.012476304545998573,0.04748977720737457,0.06278948485851288,0.16639920588965176,0.09100835470262222,0.007080817271900074,0.03643859028816223,0.0628210248053074,0.10001901984214782,354,0.5371775417298937,0.5182728099925552,0.15456366539001465,plain_s0.8_kNone_qNone,plain,0.8,,,-0.037518452284319125,0.039243232951416296
0.03547927016067065,0.012476827017962933,0.04775344580411911,0.06277083605527878,0.1669947886508396,0.09170320125734138,0.007014641409545868,0.0365518033504486,0.06274485185742379,0.0939948782324791,355,0.5386949924127465,0.5182728099925552,0.15448245406150818,plain_s0.8_k0.5_qNone,plain,0.8,0.5,,-0.03764727647824001,0.037870159634494915
0.038942921788835405,0.012478113174438477,0.04748977720737457,0.06278948485851288,0.16646538175200595,0.09100835470262222,0.007080817271900074,0.03643859028816223,0.0628210248053074,0.10001901984214782,354,0.5371775417298937,0.5182728099925552,0.15456366539001465,plain_s0.8_k0.75_qNone,plain,0.8,0.75,,-0.037528312681641536,0.038998340702238066
0.03899090773965597,0.012476304545998573,0.04748977720737457,0.06278948485851288,0.16639920588965176,0.09100835470262222,0.007080817271900074,0.03643859028816223,0.0628210248053074,0.10001901984214782,354,0.5371775417298937,0.5182728099925552,0.15456366539001465,plain_s0.8_k1.0_qNone,plain,0.8,1.0,,-0.037518452284319125,0.039243232951416296
0.03899090773965597,0.012476304545998573,0.04748977720737457,0.06278948485851288,0.16639920588965176,0.09100835470262222,0.007080817271900074,0.03643859028816223,0.0628210248053074,0.10001901984214782,354,0.5371775417298937,0.5182728099925552,0.15456366539001465,plain_s0.8_k1.25_qNone,plain,0.8,1.25,,-0.037518452284319125,0.039243232951416296
0.03899090773965597,0.012476304545998573,0.04748977720737457,0.06278948485851288,0.16639920588965176,0.09100835470262222,0.007080817271900074,0.03643859028816223,0.0628210248053074,0.10001901984214782,354,0.5371775417298937,0.5182728099925552,0.15456366539001465,plain_s0.8_k1.5_qNone,plain,0.8,1.5,,-0.037518452284319125,0.039243232951416296
0.03899090773965597,0.012476304545998573,0.04748977720737457,0.06278948485851288,0.16639920588965176,0.09100835470262222,0.007080817271900074,0.03643859028816223,0.0628210248053074,0.10001901984214782,354,0.5371775417298937,0.5182728099925552,0.15456366539001465,plain_s0.8_k2.0_qNone,plain,0.8,2.0,,-0.037518452284319125,0.039243232951416296
0.04252905372648863,0.012498904950916767,0.047177866101264954,0.062459737062454224,0.16446356191579123,0.08961866159318388,0.007759119861030689,0.036444966867566146,0.06268286392092706,0.10401902049779892,357,0.5417298937784522,0.5182728099925552,0.17388410866260529,plain_s0.9_kNone_qNone,plain,0.9,,,-0.037359906260857396,0.041497517703005915
0.037189126711686726,0.012509331107139587,0.04755954444408417,0.06239522993564606,0.16671354123583423,0.09066093142526263,0.00756059227396807,0.036458169668912896,0.06268286392092706,0.09483327716588974,358,0.543247344461305,0.5182728099925552,0.17293617129325867,plain_s0.9_k0.5_qNone,plain,0.9,0.5,,-0.03758865251346345,0.038140424922647354
0.04241976337608733,0.012503024190664291,0.047177866101264954,0.062459737062454224,0.164877161055505,0.08963520555877244,0.007742575895442138,0.036444966867566146,0.06268286392092706,0.10344564467668534,357,0.5417298937784522,0.5182728099925552,0.17388410866260529,plain_s0.9_k0.75_qNone,plain,0.9,0.75,,-0.03742283853714185,0.040137827856085107
0.042495858913753404,0.012498501688241959,0.04718117415904999,0.062459737062454224,0.16446356191579123,0.08961866159318388,0.007759119861030689,0.036444966867566146,0.06268286392092706,0.10401902049779892,357,0.5417298937784522,0.5182728099925552,0.17388410866260529,plain_s0.9_k1.0_qNone,plain,0.9,1.0,,-0.03736069545463525,0.04148095923622297
0.04252905372648863,0.012498904950916767,0.047177866101264954,0.062459737062454224,0.16446356191579123,0.08961866159318388,0.007759119861030689,0.036444966867566146,0.06268286392092706,0.10401902049779892,357,0.5417298937784522,0.5182728099925552,0.17388410866260529,plain_s0.9_k1.25_qNone,plain,0.9,1.25,,-0.037359906260857396,0.041497517703005915
0.04252905372648863,0.012498904950916767,0.047177866101264954,0.062459737062454224,0.16446356191579123,0.08961866159318388,0.007759119861030689,0.036444966867566146,0.06268286392092706,0.10401902049779892,357,0.5417298937784522,0.5182728099925552,0.17388410866260529,plain_s0.9_k1.5_qNone,plain,0.9,1.5,,-0.037359906260857396,0.041497517703005915
0.04252905372648863,0.012498904950916767,0.047177866101264954,0.062459737062454224,0.16446356191579123,0.08961866159318388,0.007759119861030689,0.036444966867566146,0.06268286392092706,0.10401902049779892,357,0.5417298937784522,0.5182728099925552,0.17388410866260529,plain_s0.9_k2.0_qNone,plain,0.9,2.0,,-0.037359906260857396,0.041497517703005915
0.04477516686817884,0.012537384405732155,0.046931590884923935,0.06215594708919525,0.16358673173959798,0.08847712796757383,0.008338158656629993,0.0362396590411663,0.06273880243301391,0.10801902115345001,364,0.5523520485584219,0.5182728099925552,0.19320456683635712,plain_s1.0_kNone_qNone,plain,1.0,,,-0.03723908609243747,0.042620779714228285
0.038419963879279706,0.012530236504971981,0.04742494970560074,0.0620790533721447,0.1665481015799487,0.08988336504260071,0.008007279344858963,0.03632439710199834,0.06273880243301391,0.09553272649645805,366,0.5553869499241275,0.5182728099925552,0.19021537899971008,plain_s1.0_k0.5_qNone,plain,1.0,0.5,,-0.03757731173578265,0.037916589332936734
0.04477433662721697,0.012536192312836647,0.046934038400650024,0.06213993579149246,0.16428157829431714,0.08852675986433949,0.008305070725452892,0.03630206715315584,0.06273880243301391,0.10531212240457534,365,0.5538694992412747,0.5182728099925552,0.19320456683635712,plain_s1.0_k0.75_qNone,plain,1.0,0.75,,-0.03732633769567653,0.04069258363006312
0.0447433508484687,0.012537360191345215,0.046934038400650024,0.06215594708919525,0.16360327570518654,0.08847712796757383,0.008338158656629993,0.0362396590411663,0.06273880243301391,0.10801902115345001,364,0.5523520485584219,0.5182728099925552,0.19320456683635712,plain_s1.0_k1.0_qNone,plain,1.0,1.0,,-0.03724462729828194,0.04250451692112511
0.04477516686817884,0.012537384405732155,0.046931590884923935,0.06215594708919525,0.16358673173959798,0.08847712796757383,0.008338158656629993,0.0362396590411663,0.06273880243301391,0.10801902115345001,364,0.5523520485584219,0.5182728099925552,0.19320456683635712,plain_s1.0_k1.25_qNone,plain,1.0,1.25,,-0.03723960521441213,0.0426098877581399
0.04477516686817884,0.012537384405732155,0.046931590884923935,0.06215594708919525,0.16358673173959798,0.08847712796757383,0.008338158656629993,0.0362396590411663,0.06273880243301391,0.10801902115345001,364,0.5523520485584219,0.5182728099925552,0.19320456683635712,plain_s1.0_k1.5_qNone,plain,1.0,1.5,,-0.03723908609243747,0.042620779714228285
0.04477516686817884,0.012537384405732155,0.046931590884923935,0.06215594708919525,0.16358673173959798,0.08847712796757383,0.008338158656629993,0.0362396590411663,0.06273880243301391,0.10801902115345001,364,0.5523520485584219,0.5182728099925552,0.19320456683635712,plain_s1.0_k2.0_qNone,plain,1.0,2.0,,-0.03723908609243747,0.042620779714228285
0.04761230779446102,0.012535955756902695,0.04672057926654816,0.06201867386698723,0.16309041277194145,0.0876333857225577,0.009099181073703366,0.03620976097881797,0.06280831895768643,0.1120190218091011,365,0.5538694992412747,0.5182728099925552,0.21252503991127014,plain_s1.1_kNone_qNone,plain,1.1,,,-0.037258040638417506,0.04195057257262369
0.039580428241549725,0.012525269761681557,0.047347407788038254,0.061895400285720825,0.16653155761436017,0.08938704607494416,0.00860286210604682,0.036546625196933774,0.06280831895768643,0.09612683951854706,368,0.5584218512898331,0.5182728099925552,0.2059585601091385,plain_s1.1_k0.5_qNone,plain,1.1,0.5,,-0.037608163212805565,0.03695885811897259
0.04729778978539023,0.01253484282642603,0.04674651473760605,0.06200186908245087,0.16400033087931176,0.0876664736537348,0.008950285383406403,0.03622567653656006,0.06280831895768643,0.10593256056308746,367,0.5569044006069803,0.5182728099925552,0.21251487731933594,plain_s1.1_k0.75_qNone,plain,1.1,0.75,,-0.03733650767225977,0.040009252270581386
0.04731946006287213,0.012539789080619812,0.04673498868942261,0.06201653555035591,0.16309041277194145,0.0876333857225577,0.009099181073703366,0.03620976097881797,0.06280831895768643,0.1120190218091011,365,0.5538694992412747,0.5182728099925552,0.21252503991127014,plain_s1.1_k1.0_qNone,plain,1.1,1.0,,-0.03725492649325669,0.04194228323850013
0.04761230779446102,0.012535955756902695,0.04672057926654816,0.06201867386698723,0.16307386880635288,0.0876333857225577,0.009099181073703366,0.03620976097881797,0.06280831895768643,0.1120190218091011,365,0.5538694992412747,0.5182728099925552,0.21252503991127014,plain_s1.1_k1.25_qNone,plain,1.1,1.25,,-0.03726019896625649,0.04190528762381707
0.04761230779446102,0.012535955756902695,0.04672057926654816,0.06201867386698723,0.16309041277194145,0.0876333857225577,0.009099181073703366,0.03620976097881797,0.06280831895768643,0.1120190218091011,365,0.5538694992412747,0.5182728099925552,0.21252503991127014,plain_s1.1_k1.5_qNone,plain,1.1,1.5,,-0.037258040638417506,0.04195057257262369
0.04761230779446102,0.012535955756902695,0.04672057926654816,0.06201867386698723,0.16309041277194145,0.0876333857225577,0.009099181073703366,0.03620976097881797,0.06280831895768643,0.1120190218091011,365,0.5538694992412747,0.5182728099925552,0.21252503991127014,plain_s1.1_k2.0_qNone,plain,1.1,2.0,,-0.037258040638417506,0.04195057257262369
0.047610686847821326,0.01259390078485012,0.046604812145233154,0.06187739968299866,0.16323930846223839,0.08683927537430722,0.009893291421953842,0.036526499688625313,0.06279073618352414,0.1160190224647522,366,0.5553869499241275,0.5182728099925552,0.23184549808502197,plain_s1.2_kNone_qNone,plain,1.2,,,-0.03736372118192071,0.039345220043185525
0.039795687978505745,0.012563053518533707,0.047255612909793854,0.06164926663041115,0.16677971709818842,0.08890727107287617,0.009148812970469022,0.03657106459140777,0.06301063761115075,0.09629697725176811,368,0.5584218512898331,0.5182728099925552,0.21995264291763306,plain_s1.2_k0.5_qNone,plain,1.2,0.5,,-0.037642257282903234,0.035669021568177306
0.04843337657027269,0.01258162036538124,0.04656735807657242,0.06180886924266815,0.1641657705351973,0.08680618744313012,0.009595500041359914,0.03654373064637184,0.06301063761115075,0.10608087107539177,367,0.5569044006069803,0.5182728099925552,0.23172371089458466,plain_s1.2_k0.75_qNone,plain,1.2,0.75,,-0.03741925034693324,0.03780507388390919
0.04770649072450606,0.0125962533056736,0.04659288376569748,0.061875998973846436,0.16323930846223839,0.08682273140871867,0.009893291421953842,0.03654373064637184,0.06279073618352414,0.11527988314628601,366,0.5553869499241275,0.5182728099925552,0.23184549808502197,plain_s1.2_k1.0_qNone,plain,1.2,1.0,,-0.037349935988661195,0.03949368397014641
0.04757125040214183,0.012595387175679207,0.046604812145233154,0.06187739968299866,0.1632062205310613,0.08682273140871867,0.009893291421953842,0.036526499688625313,0.06279073618352414,0.1160190224647522,366,0.5553869499241275,0.5182728099925552,0.23184549808502197,plain_s1.2_k1.25_qNone,plain,1.2,1.25,,-0.037362027255625666,0.039380761152449484
0.047610686847821326,0.01259390078485012,0.046604812145233154,0.06187739968299866,0.16323930846223839,0.08683927537430722,0.009893291421953842,0.036526499688625313,0.06279073618352414,0.1160190224647522,366,0.5553869499241275,0.5182728099925552,0.23184549808502197,plain_s1.2_k1.5_qNone,plain,1.2,1.5,,-0.03736372118192071,0.039345220043185525
0.047610686847821326,0.01259390078485012,0.046604812145233154,0.06187739968299866,0.16323930846223839,0.08683927537430722,0.009893291421953842,0.036526499688625313,0.06279073618352414,0.1160190224647522,366,0.5553869499241275,0.5182728099925552,0.23184549808502197,plain_s1.2_k2.0_qNone,plain,1.2,2.0,,-0.03736372118192071,0.039345220043185525
0.020991071188403154,0.012446456588804722,0.04890633001923561,0.06409616768360138,0.1679874265861527,0.09560757713623956,0.004433782777731822,0.03622943051159384,0.06393701255321502,0.0880492515861988,353,0.5356600910470409,0.5182728099925552,0.09660228341817856,conf_shrink_s0.5_kNone_q0.2,conf_shrink,0.5,,0.2,-0.03828335117302951,0.029038362327905465
0.021147388758990915,0.01245012879371643,0.04888720065355301,0.06409893929958344,0.16810323434527255,0.09565720903300522,0.004433782777731822,0.036613123863935476,0.06393701255321502,0.0880492515861988,354,0.5371775417298937,0.5182728099925552,0.09660228341817856,conf_shrink_s0.5_kNone_q0.3,conf_shrink,0.5,,0.3,-0.0383007947452421,0.02865279044928637
0.020882032875436662,0.01244912389665842,0.04890921339392662,0.06410028040409088,0.1681528662420382,0.09562412110182811,0.004433782777731822,0.03654462546110154,0.06393701255321502,0.0880492515861988,353,0.5356600910470409,0.5182728099925552,0.09660228341817856,conf_shrink_s0.5_kNone_q0.4,conf_shrink,0.5,,0.4,-0.03829608252985237,0.02875165978175509
0.020712011387071017,0.012446758337318897,0.048926759511232376,0.06410380452871323,0.1683679377946894,0.09569029696418231,0.004433782777731822,0.03660413697361945,0.06393701255321502,0.0880492515861988,352,0.5341426403641881,0.5182728099925552,0.09660228341817856,conf_shrink_s0.5_kNone_q0.5,conf_shrink,0.5,,0.5,-0.03834088264970266,0.027959725350994113
0.020951555672156008,0.012443934567272663,0.0489143505692482,0.06412558257579803,0.16841756969145505,0.09580610472330217,0.004417238812143271,0.03626124151051045,0.06393701255321502,0.0880492515861988,351,0.5326251896813353,0.5182728099925552,0.09659655392169952,conf_shrink_s0.5_kNone_q0.6,conf_shrink,0.5,,0.6,-0.03839143854112632,0.027138397789892355
0.020968279097241305,0.012444348074495792,0.04891226440668106,0.06409616768360138,0.16803705848291836,0.09567375299859376,0.004433782777731822,0.03622943051159384,0.06393701255321502,0.0880492515861988,353,0.5356600910470409,0.5182728099925552,0.09660228341817856,conf_shrink_s0.5_k0.5_q0.2,conf_shrink,0.5,0.5,0.2,-0.038289252101707236,0.02899521536738825
0.021005931513235154,0.01244957186281681,0.04889897629618645,0.06409893929958344,0.1681528662420382,0.09572338489535942,0.004433782777731822,0.036613123863935476,0.06393701255321502,0.0880492515861988,354,0.5371775417298937,0.5182728099925552,0.09660228341817856,conf_shrink_s0.5_k0.5_q0.3,conf_shrink,0.5,0.5,0.3,-0.0383054366411781,0.028653568205656232
0.020856547443059648,0.01244751550257206,0.0489143505692482,0.06410028040409088,0.16820249813880386,0.09569029696418231,0.004433782777731822,0.03654462546110154,0.06393701255321502,0.0880492515861988,353,0.5356600910470409,0.5182728099925552,0.09660228341817856,conf_shrink_s0.5_k0.5_q0.4,conf_shrink,0.5,0.5,0.4,-0.03830036905345337,0.02870410553514191
0.020673563323488686,0.012444348074495792,0.04893447831273079,0.06410380452871323,0.16841756969145505,0.09575647282653652,0.004433782777731822,0.03660413697361945,0.06393701255321502,0.0880492515861988,352,0.5341426403641881,0.5182728099925552,0.09660228341817856,conf_shrink_s0.5_k0.5_q0.5,conf_shrink,0.5,0.5,0.5,-0.03834257556486731,0.027954297890958713
0.02087462495161796,0.012443304061889648,0.048921409994363785,0.06412558257579803,0.1684672015882207,0.09587228058565639,0.004417238812143271,0.03626124151051045,0.06393701255321502,0.0880492515861988,351,0.5326251896813353,0.5182728099925552,0.09659655392169952,conf_shrink_s0.5_k0.5_q0.6,conf_shrink,0.5,0.5,0.6,-0.03839427209705518,0.02710852992514423
0.020991071188403154,0.012446456588804722,0.04890633001923561,0.06409616768360138,0.1679874265861527,0.09560757713623956,0.004433782777731822,0.03622943051159384,0.06393701255321502,0.0880492515861988,353,0.5356600910470409,0.5182728099925552,0.09660228341817856,conf_shrink_s0.5_k0.75_q0.2,conf_shrink,0.5,0.75,0.2,-0.03828335117302951,0.029038362327905465
0.021147388758990915,0.01245012879371643,0.04888720065355301,0.06409893929958344,0.16810323434527255,0.09565720903300522,0.004433782777731822,0.036613123863935476,0.06393701255321502,0.0880492515861988,354,0.5371775417298937,0.5182728099925552,0.09660228341817856,conf_shrink_s0.5_k0.75_q0.3,conf_shrink,0.5,0.75,0.3,-0.0383007947452421,0.02865279044928637
0.020882032875436662,0.01244912389665842,0.04890921339392662,0.06410028040409088,0.1681528662420382,0.09562412110182811,0.004433782777731822,0.03654462546110154,0.06393701255321502,0.0880492515861988,353,0.5356600910470409,0.5182728099925552,0.09660228341817856,conf_shrink_s0.5_k0.75_q0.4,conf_shrink,0.5,0.75,0.4,-0.03829608252985237,0.02875165978175509
0.020712011387071017,0.012446758337318897,0.048926759511232376,0.06410380452871323,0.1683679377946894,0.09569029696418231,0.004433782777731822,0.03660413697361945,0.06393701255321502,0.0880492515861988,352,0.5341426403641881,0.5182728099925552,0.09660228341817856,conf_shrink_s0.5_k0.75_q0.5,conf_shrink,0.5,0.75,0.5,-0.03834088264970266,0.027959725350994113
0.020951555672156008,0.012443934567272663,0.0489143505692482,0.06412558257579803,0.16841756969145505,0.09580610472330217,0.004417238812143271,0.03626124151051045,0.06393701255321502,0.0880492515861988,351,0.5326251896813353,0.5182728099925552,0.09659655392169952,conf_shrink_s0.5_k0.75_q0.6,conf_shrink,0.5,0.75,0.6,-0.03839143854112632,0.027138397789892355
0.020991071188403154,0.012446456588804722,0.04890633001923561,0.06409616768360138,0.1679874265861527,0.09560757713623956,0.004433782777731822,0.03622943051159384,0.06393701255321502,0.0880492515861988,353,0.5356600910470409,0.5182728099925552,0.09660228341817856,conf_shrink_s0.5_k1.0_q0.2,conf_shrink,0.5,1.0,0.2,-0.03828335117302951,0.029038362327905465
0.021147388758990915,0.01245012879371643,0.04888720065355301,0.06409893929958344,0.16810323434527255,0.09565720903300522,0.004433782777731822,0.036613123863935476,0.06393701255321502,0.0880492515861988,354,0.5371775417298937,0.5182728099925552,0.09660228341817856,conf_shrink_s0.5_k1.0_q0.3,conf_shrink,0.5,1.0,0.3,-0.0383007947452421,0.02865279044928637
0.020882032875436662,0.01244912389665842,0.04890921339392662,0.06410028040409088,0.1681528662420382,0.09562412110182811,0.004433782777731822,0.03654462546110154,0.06393701255321502,0.0880492515861988,353,0.5356600910470409,0.5182728099925552,0.09660228341817856,conf_shrink_s0.5_k1.0_q0.4,conf_shrink,0.5,1.0,0.4,-0.03829608252985237,0.02875165978175509
0.020712011387071017,0.012446758337318897,0.048926759511232376,0.06410380452871323,0.1683679377946894,0.09569029696418231,0.004433782777731822,0.03660413697361945,0.06393701255321502,0.0880492515861988,352,0.5341426403641881,0.5182728099925552,0.09660228341817856,conf_shrink_s0.5_k1.0_q0.5,conf_shrink,0.5,1.0,0.5,-0.03834088264970266,0.027959725350994113
0.020951555672156008,0.012443934567272663,0.0489143505692482,0.06412558257579803,0.16841756969145505,0.09580610472330217,0.004417238812143271,0.03626124151051045,0.06393701255321502,0.0880492515861988,351,0.5326251896813353,0.5182728099925552,0.09659655392169952,conf_shrink_s0.5_k1.0_q0.6,conf_shrink,0.5,1.0,0.6,-0.03839143854112632,0.027138397789892355
0.020991071188403154,0.012446456588804722,0.04890633001923561,0.06409616768360138,0.1679874265861527,0.09560757713623956,0.004433782777731822,0.03622943051159384,0.06393701255321502,0.0880492515861988,353,0.5356600910470409,0.5182728099925552,0.09660228341817856,conf_shrink_s0.5_k1.25_q0.2,conf_shrink,0.5,1.25,0.2,-0.03828335117302951,0.029038362327905465
0.021147388758990915,0.01245012879371643,0.04888720065355301,0.06409893929958344,0.16810323434527255,0.09565720903300522,0.004433782777731822,0.036613123863935476,0.06393701255321502,0.0880492515861988,354,0.5371775417298937,0.5182728099925552,0.09660228341817856,conf_shrink_s0.5_k1.25_q0.3,conf_shrink,0.5,1.25,0.3,-0.0383007947452421,0.02865279044928637
0.020882032875436662,0.01244912389665842,0.04890921339392662,0.06410028040409088,0.1681528662420382,0.09562412110182811,0.004433782777731822,0.03654462546110154,0.06393701255321502,0.0880492515861988,353,0.5356600910470409,0.5182728099925552,0.09660228341817856,conf_shrink_s0.5_k1.25_q0.4,conf_shrink,0.5,1.25,0.4,-0.03829608252985237,0.02875165978175509
0.020712011387071017,0.012446758337318897,0.048926759511232376,0.06410380452871323,0.1683679377946894,0.09569029696418231,0.004433782777731822,0.03660413697361945,0.06393701255321502,0.0880492515861988,352,0.5341426403641881,0.5182728099925552,0.09660228341817856,conf_shrink_s0.5_k1.25_q0.5,conf_shrink,0.5,1.25,0.5,-0.03834088264970266,0.027959725350994113
0.020951555672156008,0.012443934567272663,0.0489143505692482,0.06412558257579803,0.16841756969145505,0.09580610472330217,0.004417238812143271,0.03626124151051045,0.06393701255321502,0.0880492515861988,351,0.5326251896813353,0.5182728099925552,0.09659655392169952,conf_shrink_s0.5_k1.25_q0.6,conf_shrink,0.5,1.25,0.6,-0.03839143854112632,0.027138397789892355
0.020991071188403154,0.012446456588804722,0.04890633001923561,0.06409616768360138,0.1679874265861527,0.09560757713623956,0.004433782777731822,0.03622943051159384,0.06393701255321502,0.0880492515861988,353,0.5356600910470409,0.5182728099925552,0.09660228341817856,conf_shrink_s0.5_k1.5_q0.2,conf_shrink,0.5,1.5,0.2,-0.03828335117302951,0.029038362327905465
0.021147388758990915,0.01245012879371643,0.04888720065355301,0.06409893929958344,0.16810323434527255,0.09565720903300522,0.004433782777731822,0.036613123863935476,0.06393701255321502,0.0880492515861988,354,0.5371775417298937,0.5182728099925552,0.09660228341817856,conf_shrink_s0.5_k1.5_q0.3,conf_shrink,0.5,1.5,0.3,-0.0383007947452421,0.02865279044928637
0.020882032875436662,0.01244912389665842,0.04890921339392662,0.06410028040409088,0.1681528662420382,0.09562412110182811,0.004433782777731822,0.03654462546110154,0.06393701255321502,0.0880492515861988,353,0.5356600910470409,0.5182728099925552,0.09660228341817856,conf_shrink_s0.5_k1.5_q0.4,conf_shrink,0.5,1.5,0.4,-0.03829608252985237,0.02875165978175509
0.020712011387071017,0.012446758337318897,0.048926759511232376,0.06410380452871323,0.1683679377946894,0.09569029696418231,0.004433782777731822,0.03660413697361945,0.06393701255321502,0.0880492515861988,352,0.5341426403641881,0.5182728099925552,0.09660228341817856,conf_shrink_s0.5_k1.5_q0.5,conf_shrink,0.5,1.5,0.5,-0.03834088264970266,0.027959725350994113
0.020951555672156008,0.012443934567272663,0.0489143505692482,0.06412558257579803,0.16841756969145505,0.09580610472330217,0.004417238812143271,0.03626124151051045,0.06393701255321502,0.0880492515861988,351,0.5326251896813353,0.5182728099925552,0.09659655392169952,conf_shrink_s0.5_k1.5_q0.6,conf_shrink,0.5,1.5,0.6,-0.03839143854112632,0.027138397789892355
0.020991071188403154,0.012446456588804722,0.04890633001923561,0.06409616768360138,0.1679874265861527,0.09560757713623956,0.004433782777731822,0.03622943051159384,0.06393701255321502,0.0880492515861988,353,0.5356600910470409,0.5182728099925552,0.09660228341817856,conf_shrink_s0.5_k2.0_q0.2,conf_shrink,0.5,2.0,0.2,-0.03828335117302951,0.029038362327905465
0.021147388758990915,0.01245012879371643,0.04888720065355301,0.06409893929958344,0.16810323434527255,0.09565720903300522,0.004433782777731822,0.036613123863935476,0.06393701255321502,0.0880492515861988,354,0.5371775417298937,0.5182728099925552,0.09660228341817856,conf_shrink_s0.5_k2.0_q0.3,conf_shrink,0.5,2.0,0.3,-0.0383007947452421,0.02865279044928637
0.020882032875436662,0.01244912389665842,0.04890921339392662,0.06410028040409088,0.1681528662420382,0.09562412110182811,0.004433782777731822,0.03654462546110154,0.06393701255321502,0.0880492515861988,353,0.5356600910470409,0.5182728099925552,0.09660228341817856,conf_shrink_s0.5_k2.0_q0.4,conf_shrink,0.5,2.0,0.4,-0.03829608252985237,0.02875165978175509
0.020712011387071017,0.012446758337318897,0.048926759511232376,0.06410380452871323,0.1683679377946894,0.09569029696418231,0.004433782777731822,0.03660413697361945,0.06393701255321502,0.0880492515861988,352,0.5341426403641881,0.5182728099925552,0.09660228341817856,conf_shrink_s0.5_k2.0_q0.5,conf_shrink,0.5,2.0,0.5,-0.03834088264970266,0.027959725350994113
0.020951555672156008,0.012443934567272663,0.0489143505692482,0.06412558257579803,0.16841756969145505,0.09580610472330217,0.004417238812143271,0.03626124151051045,0.06393701255321502,0.0880492515861988,351,0.5326251896813353,0.5182728099925552,0.09659655392169952,conf_shrink_s0.5_k2.0_q0.6,conf_shrink,0.5,2.0,0.6,-0.03839143854112632,0.027138397789892355
0.030192557637983786,0.012443356215953827,0.04821890592575073,0.06356775760650635,0.16722640416907933,0.09375465299032178,0.005525684506576227,0.03616303205490114,0.06376170173287392,0.09201901853084564,351,0.5326251896813353,0.5182728099925552,0.11592274904251099,conf_shrink_s0.6_kNone_q0.2,conf_shrink,0.6,,0.2,-0.037958327472005796,0.03316789512611895
0.03002148352268441,0.012448149733245373,0.04822221398353577,0.06356655061244965,0.16735875589378774,0.09377119695591034,0.005509140540987675,0.03616303205490114,0.06376170173287392,0.09201901853084564,352,0.5341426403641881,0.5182728099925552,0.11592274904251099,conf_shrink_s0.6_kNone_q0.3,conf_shrink,0.6,,0.3,-0.03796884180208591,0.032950981904791066
0.0295597262325894,0.012449225410819054,0.04825487360358238,0.06356775760650635,0.1674083877905534,0.09375465299032178,0.005492596575399123,0.03616303205490114,0.06376170173287392,0.09201901853084564,351,0.5326251896813353,0.5182728099925552,0.11592274904251099,conf_shrink_s0.6_kNone_q0.4,conf_shrink,0.6,,0.4,-0.03796639127971118,0.03301791272243604
0.029047388488668502,0.01244514063000679,0.048301663249731064,0.06357742846012115,0.16755728348085036,0.0938870047150302,0.005492596575399123,0.03651942983269691,0.06343223214149477,0.09201901853084564,348,0.5280728376327769,0.5182728099925552,0.11592274904251099,conf_shrink_s0.6_kNone_q0.5,conf_shrink,0.6,,0.5,-0.03800173544550123,0.0323438908710173
0.029078562060015134,0.012455370277166367,0.04827885329723358,0.06361842900514603,0.16770617917114733,0.09406898833650426,0.005476052609810571,0.03616303205490114,0.06343223214149477,0.09201901853084564,350,0.5311077389984825,0.5182728099925552,0.11591587215662003,conf_shrink_s0.6_kNone_q0.6,conf_shrink,0.6,,0.6,-0.03807925710337392,0.031074649712924618
0.028567588283388234,0.012441400438547134,0.04834531247615814,0.06356775760650635,0.16735875589378774,0.09403590040532715,0.005525684506576227,0.03620920330286028,0.06376170173287392,0.09174294173717498,351,0.5326251896813353,0.5182728099925552,0.11592274904251099,conf_shrink_s0.6_k0.5_q0.2,conf_shrink,0.6,0.5,0.2,-0.03799399096912883,0.03296329806410192
0.02853781821461976,0.01244514063000679,0.048340074717998505,0.06356655061244965,0.16749110761849614,0.09405244437091571,0.005509140540987675,0.036663974449038524,0.06376170173287392,0.09174294173717498,352,0.5341426403641881,0.5182728099925552,0.11592274904251099,conf_shrink_s0.6_k0.5_q0.3,conf_shrink,0.6,0.5,0.3,-0.03801084412435858,0.03262767093868679
0.028265163129277737,0.012446217238903046,0.04835847392678261,0.06356775760650635,0.1675407395152618,0.09403590040532715,0.005492596575399123,0.0366309054195881,0.06376170173287392,0.09174294173717498,351,0.5326251896813353,0.5182728099925552,0.11592274904251099,conf_shrink_s0.6_k0.5_q0.4,conf_shrink,0.6,0.5,0.4,-0.03800582845930761,0.03273290709927423
0.02775980336296302,0.012443356215953827,0.04840229079127312,0.06357742846012115,0.16768963520555877,0.09416825213003557,0.005492596575399123,0.03665300458669661,0.06343223214149477,0.09174294173717498,348,0.5280728376327769,0.5182728099925552,0.11592274904251099,conf_shrink_s0.6_k0.5_q0.5,conf_shrink,0.6,0.5,0.5,-0.03804476202488935,0.031942265562218686
0.027801488377913963,0.012454451061785221,0.048376958817243576,0.06361842900514603,0.16783853089585574,0.09435023575150964,0.005476052609810571,0.036373591795563716,0.06343223214149477,0.09174294173717498,350,0.5311077389984825,0.5182728099925552,0.11591587215662003,conf_shrink_s0.6_k0.5_q0.6,conf_shrink,0.6,0.5,0.6,-0.03813347903438985,0.030476174603611406
0.030192557637983786,0.012443356215953827,0.04821890592575073,0.06356775760650635,0.16722640416907933,0.09375465299032178,0.005525684506576227,0.03616303205490114,0.06376170173287392,0.09201901853084564,351,0.5326251896813353,0.5182728099925552,0.11592274904251099,conf_shrink_s0.6_k0.75_q0.2,conf_shrink,0.6,0.75,0.2,-0.037958327472005796,0.03316789512611895
0.03002148352268441,0.012448149733245373,0.04822221398353577,0.06356655061244965,0.16735875589378774,0.09377119695591034,0.005509140540987675,0.03616303205490114,0.06376170173287392,0.09201901853084564,352,0.5341426403641881,0.5182728099925552,0.11592274904251099,conf_shrink_s0.6_k0.75_q0.3,conf_shrink,0.6,0.75,0.3,-0.03796884180208591,0.032950981904791066
0.0295597262325894,0.012449225410819054,0.04825487360358238,0.06356775760650635,0.1674083877905534,0.09375465299032178,0.005492596575399123,0.03616303205490114,0.06376170173287392,0.09201901853084564,351,0.5326251896813353,0.5182728099925552,0.11592274904251099,conf_shrink_s0.6_k0.75_q0.4,conf_shrink,0.6,0.75,0.4,-0.03796639127971118,0.03301791272243604
0.029047388488668502,0.01244514063000679,0.048301663249731064,0.06357742846012115,0.16755728348085036,0.0938870047150302,0.005492596575399123,0.03651942983269691,0.06343223214149477,0.09201901853084564,348,0.5280728376327769,0.5182728099925552,0.11592274904251099,conf_shrink_s0.6_k0.75_q0.5,conf_shrink,0.6,0.75,0.5,-0.03800173544550123,0.0323438908710173
0.029078562060015134,0.012455370277166367,0.04827885329723358,0.06361842900514603,0.16770617917114733,0.09406898833650426,0.005476052609810571,0.03616303205490114,0.06343223214149477,0.09201901853084564,350,0.5311077389984825,0.5182728099925552,0.11591587215662003,conf_shrink_s0.6_k0.75_q0.6,conf_shrink,0.6,0.75,0.6,-0.03807925710337392,0.031074649712924618
0.030192557637983786,0.012443356215953827,0.04821890592575073,0.06356775760650635,0.16722640416907933,0.09375465299032178,0.005525684506576227,0.03616303205490114,0.06376170173287392,0.09201901853084564,351,0.5326251896813353,0.5182728099925552,0.11592274904251099,conf_shrink_s0.6_k1.0_q0.2,conf_shrink,0.6,1.0,0.2,-0.037958327472005796,0.03316789512611895
0.03002148352268441,0.012448149733245373,0.04822221398353577,0.06356655061244965,0.16735875589378774,0.09377119695591034,0.005509140540987675,0.03616303205490114,0.06376170173287392,0.09201901853084564,352,0.5341426403641881,0.5182728099925552,0.11592274904251099,conf_shrink_s0.6_k1.0_q0.3,conf_shrink,0.6,1.0,0.3,-0.03796884180208591,0.032950981904791066
0.0295597262325894,0.012449225410819054,0.04825487360358238,0.06356775760650635,0.1674083877905534,0.09375465299032178,0.005492596575399123,0.03616303205490114,0.06376170173287392,0.09201901853084564,351,0.5326251896813353,0.5182728099925552,0.11592274904251099,conf_shrink_s0.6_k1.0_q0.4,conf_shrink,0.6,1.0,0.4,-0.03796639127971118,0.03301791272243604
0.029047388488668502,0.01244514063000679,0.048301663249731064,0.06357742846012115,0.16755728348085036,0.0938870047150302,0.005492596575399123,0.03651942983269691,0.06343223214149477,0.09201901853084564,348,0.5280728376327769,0.5182728099925552,0.11592274904251099,conf_shrink_s0.6_k1.0_q0.5,conf_shrink,0.6,1.0,0.5,-0.03800173544550123,0.0323438908710173
0.029078562060015134,0.012455370277166367,0.04827885329723358,0.06361842900514603,0.16770617917114733,0.09406898833650426,0.005476052609810571,0.03616303205490114,0.06343223214149477,0.09201901853084564,350,0.5311077389984825,0.5182728099925552,0.11591587215662003,conf_shrink_s0.6_k1.0_q0.6,conf_shrink,0.6,1.0,0.6,-0.03807925710337392,0.031074649712924618
0.030192557637983786,0.012443356215953827,0.04821890592575073,0.06356775760650635,0.16722640416907933,0.09375465299032178,0.005525684506576227,0.03616303205490114,0.06376170173287392,0.09201901853084564,351,0.5326251896813353,0.5182728099925552,0.11592274904251099,conf_shrink_s0.6_k1.25_q0.2,conf_shrink,0.6,1.25,0.2,-0.037958327472005796,0.03316789512611895
0.03002148352268441,0.012448149733245373,0.04822221398353577,0.06356655061244965,0.16735875589378774,0.09377119695591034,0.005509140540987675,0.03616303205490114,0.06376170173287392,0.09201901853084564,352,0.5341426403641881,0.5182728099925552,0.11592274904251099,conf_shrink_s0.6_k1.25_q0.3,conf_shrink,0.6,1.25,0.3,-0.03796884180208591,0.032950981904791066
0.0295597262325894,0.012449225410819054,0.04825487360358238,0.06356775760650635,0.1674083877905534,0.09375465299032178,0.005492596575399123,0.03616303205490114,0.06376170173287392,0.09201901853084564,351,0.5326251896813353,0.5182728099925552,0.11592274904251099,conf_shrink_s0.6_k1.25_q0.4,conf_shrink,0.6,1.25,0.4,-0.03796639127971118,0.03301791272243604
0.029047388488668502,0.01244514063000679,0.048301663249731064,0.06357742846012115,0.16755728348085036,0.0938870047150302,0.005492596575399123,0.03651942983269691,0.06343223214149477,0.09201901853084564,348,0.5280728376327769,0.5182728099925552,0.11592274904251099,conf_shrink_s0.6_k1.25_q0.5,conf_shrink,0.6,1.25,0.5,-0.03800173544550123,0.0323438908710173
0.029078562060015134,0.012455370277166367,0.04827885329723358,0.06361842900514603,0.16770617917114733,0.09406898833650426,0.005476052609810571,0.03616303205490114,0.06343223214149477,0.09201901853084564,350,0.5311077389984825,0.5182728099925552,0.11591587215662003,conf_shrink_s0.6_k1.25_q0.6,conf_shrink,0.6,1.25,0.6,-0.03807925710337392,0.031074649712924618
0.030192557637983786,0.012443356215953827,0.04821890592575073,0.06356775760650635,0.16722640416907933,0.09375465299032178,0.005525684506576227,0.03616303205490114,0.06376170173287392,0.09201901853084564,351,0.5326251896813353,0.5182728099925552,0.11592274904251099,conf_shrink_s0.6_k1.5_q0.2,conf_shrink,0.6,1.5,0.2,-0.037958327472005796,0.03316789512611895
0.03002148352268441,0.012448149733245373,0.04822221398353577,0.06356655061244965,0.16735875589378774,0.09377119695591034,0.005509140540987675,0.03616303205490114,0.06376170173287392,0.09201901853084564,352,0.5341426403641881,0.5182728099925552,0.11592274904251099,conf_shrink_s0.6_k1.5_q0.3,conf_shrink,0.6,1.5,0.3,-0.03796884180208591,0.032950981904791066
0.0295597262325894,0.012449225410819054,0.04825487360358238,0.06356775760650635,0.1674083877905534,0.09375465299032178,0.005492596575399123,0.03616303205490114,0.06376170173287392,0.09201901853084564,351,0.5326251896813353,0.5182728099925552,0.11592274904251099,conf_shrink_s0.6_k1.5_q0.4,conf_shrink,0.6,1.5,0.4,-0.03796639127971118,0.03301791272243604
0.029047388488668502,0.01244514063000679,0.048301663249731064,0.06357742846012115,0.16755728348085036,0.0938870047150302,0.005492596575399123,0.03651942983269691,0.06343223214149477,0.09201901853084564,348,0.5280728376327769,0.5182728099925552,0.11592274904251099,conf_shrink_s0.6_k1.5_q0.5,conf_shrink,0.6,1.5,0.5,-0.03800173544550123,0.0323438908710173
0.029078562060015134,0.012455370277166367,0.04827885329723358,0.06361842900514603,0.16770617917114733,0.09406898833650426,0.005476052609810571,0.03616303205490114,0.06343223214149477,0.09201901853084564,350,0.5311077389984825,0.5182728099925552,0.11591587215662003,conf_shrink_s0.6_k1.5_q0.6,conf_shrink,0.6,1.5,0.6,-0.03807925710337392,0.031074649712924618
0.030192557637983786,0.012443356215953827,0.04821890592575073,0.06356775760650635,0.16722640416907933,0.09375465299032178,0.005525684506576227,0.03616303205490114,0.06376170173287392,0.09201901853084564,351,0.5326251896813353,0.5182728099925552,0.11592274904251099,conf_shrink_s0.6_k2.0_q0.2,conf_shrink,0.6,2.0,0.2,-0.037958327472005796,0.03316789512611895
0.03002148352268441,0.012448149733245373,0.04822221398353577,0.06356655061244965,0.16735875589378774,0.09377119695591034,0.005509140540987675,0.03616303205490114,0.06376170173287392,0.09201901853084564,352,0.5341426403641881,0.5182728099925552,0.11592274904251099,conf_shrink_s0.6_k2.0_q0.3,conf_shrink,0.6,2.0,0.3,-0.03796884180208591,0.032950981904791066
0.0295597262325894,0.012449225410819054,0.04825487360358238,0.06356775760650635,0.1674083877905534,0.09375465299032178,0.005492596575399123,0.03616303205490114,0.06376170173287392,0.09201901853084564,351,0.5326251896813353,0.5182728099925552,0.11592274904251099,conf_shrink_s0.6_k2.0_q0.4,conf_shrink,0.6,2.0,0.4,-0.03796639127971118,0.03301791272243604
0.029047388488668502,0.01244514063000679,0.048301663249731064,0.06357742846012115,0.16755728348085036,0.0938870047150302,0.005492596575399123,0.03651942983269691,0.06343223214149477,0.09201901853084564,348,0.5280728376327769,0.5182728099925552,0.11592274904251099,conf_shrink_s0.6_k2.0_q0.5,conf_shrink,0.6,2.0,0.5,-0.03800173544550123,0.0323438908710173
0.029078562060015134,0.012455370277166367,0.04827885329723358,0.06361842900514603,0.16770617917114733,0.09406898833650426,0.005476052609810571,0.03616303205490114,0.06343223214149477,0.09201901853084564,350,0.5311077389984825,0.5182728099925552,0.11591587215662003,conf_shrink_s0.6_k2.0_q0.6,conf_shrink,0.6,2.0,0.6,-0.03807925710337392,0.031074649712924618
0.03470280706890694,0.01245379913598299,0.04785802960395813,0.06312339007854462,0.16677971709818842,0.09219952022499793,0.0062536189924724955,0.03634428903460502,0.06321726322174072,0.09601901918649673,350,0.5311077389984825,0.5182728099925552,0.13524319231510162,conf_shrink_s0.7_kNone_q0.2,conf_shrink,0.7,,0.2,-0.03771243160035649,0.03667744835642994
0.03381868445720182,0.012461738660931587,0.04790879786014557,0.06312166899442673,0.16687898089171974,0.09219952022499793,0.006237075026883944,0.03634428903460502,0.06290871620178225,0.09601901918649673,350,0.5311077389984825,0.5182728099925552,0.13524319231510162,conf_shrink_s0.7_kNone_q0.3,conf_shrink,0.7,,0.3,-0.03772040759538981,0.03646900628240268
0.03315333528080866,0.012453211471438408,0.04797600954771042,0.06313071399927139,0.16697824468525105,0.09221606419058648,0.006220531061295393,0.03634428903460502,0.06290871620178225,0.09601901918649673,349,0.5295902883156297,0.5182728099925552,0.13524319231510162,conf_shrink_s0.7_kNone_q0.4,conf_shrink,0.7,,0.4,-0.037725005780930056,0.0364010586577288
0.03247553248998991,0.01244615763425827,0.0480412095785141,0.06314869970083237,0.16714368434113658,0.0924145917776491,0.006220531061295393,0.03648174554109573,0.06290418982505798,0.09601901918649673,348,0.5280728376327769,0.5182728099925552,0.13524319231510162,conf_shrink_s0.7_kNone_q0.5,conf_shrink,0.7,,0.5,-0.03775197085333081,0.035806761884584426
0.03262513894613761,0.012445867992937565,0.048030510544776917,0.06318590044975281,0.16739184382496483,0.09254694350235751,0.006203987095706841,0.03634428903460502,0.06290418982505798,0.09601901918649673,350,0.5311077389984825,0.5182728099925552,0.13523517549037933,conf_shrink_s0.7_kNone_q0.6,conf_shrink,0.7,,0.6,-0.03783174077458735,0.03443674908948191
0.03141019002075762,0.012455889023840427,0.04810205474495888,0.06311342865228653,0.16709405244437092,0.09271238315824303,0.006220531061295393,0.03634428903460502,0.06306148022413255,0.09287699162960052,350,0.5311077389984825,0.5182728099925552,0.13524319231510162,conf_shrink_s0.7_k0.5_q0.2,conf_shrink,0.7,0.5,0.2,-0.03778808298389825,0.03579624702249351
0.031059704787168796,0.012462297454476357,0.04811565577983856,0.06311023980379105,0.16719331623790223,0.09271238315824303,0.006203987095706841,0.03634428903460502,0.062867364063859,0.09287699162960052,350,0.5311077389984825,0.5182728099925552,0.13524319231510162,conf_shrink_s0.7_k0.5_q0.3,conf_shrink,0.7,0.5,0.3,-0.03779550554931773,0.03560895251452256
0.030688863824287593,0.012456515803933144,0.048155173659324646,0.06312166899442673,0.16729258003143355,0.09272892712383159,0.006187443130118289,0.03634428903460502,0.062867364063859,0.09287699162960052,349,0.5295902883156297,0.5182728099925552,0.13524319231510162,conf_shrink_s0.7_k0.5_q0.4,conf_shrink,0.7,0.5,0.4,-0.03779870885709633,0.03557330029720562
0.03029348133393195,0.012447046115994453,0.04820391908288002,0.06313157826662064,0.16745801968731905,0.0929274547108942,0.006187443130118289,0.03648174554109573,0.06290418982505798,0.09287699162960052,348,0.5280728376327769,0.5182728099925552,0.13524319231510162,conf_shrink_s0.7_k0.5_q0.5,conf_shrink,0.7,0.5,0.5,-0.03782667805789162,0.034986464598154576
0.03035012551192451,0.012446761131286621,0.04820021986961365,0.06316591054201126,0.16770617917114733,0.09305980643560262,0.006170899164529738,0.03634428903460502,0.06290418982505798,0.09287699162960052,350,0.5311077389984825,0.5182728099925552,0.13523517549037933,conf_shrink_s0.7_k0.5_q0.6,conf_shrink,0.7,0.5,0.6,-0.037919525298386283,0.03353542373034013
0.03470280706890694,0.01245379913598299,0.04785802960395813,0.06312339007854462,0.16677971709818842,0.09219952022499793,0.0062536189924724955,0.03634428903460502,0.06321726322174072,0.09601901918649673,350,0.5311077389984825,0.5182728099925552,0.13524319231510162,conf_shrink_s0.7_k0.75_q0.2,conf_shrink,0.7,0.75,0.2,-0.03771243160035649,0.03667744835642994
0.03381868445720182,0.012461738660931587,0.04790879786014557,0.06312166899442673,0.16687898089171974,0.09219952022499793,0.006237075026883944,0.03634428903460502,0.06290871620178225,0.09601901918649673,350,0.5311077389984825,0.5182728099925552,0.13524319231510162,conf_shrink_s0.7_k0.75_q0.3,conf_shrink,0.7,0.75,0.3,-0.03772040759538981,0.03646900628240268
0.03315333528080866,0.012453211471438408,0.04797600954771042,0.06313071399927139,0.16697824468525105,0.09221606419058648,0.006220531061295393,0.03634428903460502,0.06290871620178225,0.09601901918649673,349,0.5295902883156297,0.5182728099925552,0.13524319231510162,conf_shrink_s0.7_k0.75_q0.4,conf_shrink,0.7,0.75,0.4,-0.037725005780930056,0.0364010586577288
0.03247553248998991,0.01244615763425827,0.0480412095785141,0.06314869970083237,0.16714368434113658,0.0924145917776491,0.006220531061295393,0.03648174554109573,0.06290418982505798,0.09601901918649673,348,0.5280728376327769,0.5182728099925552,0.13524319231510162,conf_shrink_s0.7_k0.75_q0.5,conf_shrink,0.7,0.75,0.5,-0.03775197085333081,0.035806761884584426
0.03262513894613761,0.012445867992937565,0.048030510544776917,0.06318590044975281,0.16739184382496483,0.09254694350235751,0.006203987095706841,0.03634428903460502,0.06290418982505798,0.09601901918649673,350,0.5311077389984825,0.5182728099925552,0.13523517549037933,conf_shrink_s0.7_k0.75_q0.6,conf_shrink,0.7,0.75,0.6,-0.03783174077458735,0.03443674908948191
0.03470280706890694,0.01245379913598299,0.04785802960395813,0.06312339007854462,0.16677971709818842,0.09219952022499793,0.0062536189924724955,0.03634428903460502,0.06321726322174072,0.09601901918649673,350,0.5311077389984825,0.5182728099925552,0.13524319231510162,conf_shrink_s0.7_k1.0_q0.2,conf_shrink,0.7,1.0,0.2,-0.03771243160035649,0.03667744835642994
0.03381868445720182,0.012461738660931587,0.04790879786014557,0.06312166899442673,0.16687898089171974,0.09219952022499793,0.006237075026883944,0.03634428903460502,0.06290871620178225,0.09601901918649673,350,0.5311077389984825,0.5182728099925552,0.13524319231510162,conf_shrink_s0.7_k1.0_q0.3,conf_shrink,0.7,1.0,0.3,-0.03772040759538981,0.03646900628240268
0.03315333528080866,0.012453211471438408,0.04797600954771042,0.06313071399927139,0.16697824468525105,0.09221606419058648,0.006220531061295393,0.03634428903460502,0.06290871620178225,0.09601901918649673,349,0.5295902883156297,0.5182728099925552,0.13524319231510162,conf_shrink_s0.7_k1.0_q0.4,conf_shrink,0.7,1.0,0.4,-0.037725005780930056,0.0364010586577288
0.03247553248998991,0.01244615763425827,0.0480412095785141,0.06314869970083237,0.16714368434113658,0.0924145917776491,0.006220531061295393,0.03648174554109573,0.06290418982505798,0.09601901918649673,348,0.5280728376327769,0.5182728099925552,0.13524319231510162,conf_shrink_s0.7_k1.0_q0.5,conf_shrink,0.7,1.0,0.5,-0.03775197085333081,0.035806761884584426
0.03262513894613761,0.012445867992937565,0.048030510544776917,0.06318590044975281,0.16739184382496483,0.09254694350235751,0.006203987095706841,0.03634428903460502,0.06290418982505798,0.09601901918649673,350,0.5311077389984825,0.5182728099925552,0.13523517549037933,conf_shrink_s0.7_k1.0_q0.6,conf_shrink,0.7,1.0,0.6,-0.03783174077458735,0.03443674908948191
0.03470280706890694,0.01245379913598299,0.04785802960395813,0.06312339007854462,0.16677971709818842,0.09219952022499793,0.0062536189924724955,0.03634428903460502,0.06321726322174072,0.09601901918649673,350,0.5311077389984825,0.5182728099925552,0.13524319231510162,conf_shrink_s0.7_k1.25_q0.2,conf_shrink,0.7,1.25,0.2,-0.03771243160035649,0.03667744835642994
0.03381868445720182,0.012461738660931587,0.04790879786014557,0.06312166899442673,0.16687898089171974,0.09219952022499793,0.006237075026883944,0.03634428903460502,0.06290871620178225,0.09601901918649673,350,0.5311077389984825,0.5182728099925552,0.13524319231510162,conf_shrink_s0.7_k1.25_q0.3,conf_shrink,0.7,1.25,0.3,-0.03772040759538981,0.03646900628240268
0.03315333528080866,0.012453211471438408,0.04797600954771042,0.06313071399927139,0.16697824468525105,0.09221606419058648,0.006220531061295393,0.03634428903460502,0.06290871620178225,0.09601901918649673,349,0.5295902883156297,0.5182728099925552,0.13524319231510162,conf_shrink_s0.7_k1.25_q0.4,conf_shrink,0.7,1.25,0.4,-0.037725005780930056,0.0364010586577288
0.03247553248998991,0.01244615763425827,0.0480412095785141,0.06314869970083237,0.16714368434113658,0.0924145917776491,0.006220531061295393,0.03648174554109573,0.06290418982505798,0.09601901918649673,348,0.5280728376327769,0.5182728099925552,0.13524319231510162,conf_shrink_s0.7_k1.25_q0.5,conf_shrink,0.7,1.25,0.5,-0.03775197085333081,0.035806761884584426
0.03262513894613761,0.012445867992937565,0.048030510544776917,0.06318590044975281,0.16739184382496483,0.09254694350235751,0.006203987095706841,0.03634428903460502,0.06290418982505798,0.09601901918649673,350,0.5311077389984825,0.5182728099925552,0.13523517549037933,conf_shrink_s0.7_k1.25_q0.6,conf_shrink,0.7,1.25,0.6,-0.03783174077458735,0.03443674908948191
0.03470280706890694,0.01245379913598299,0.04785802960395813,0.06312339007854462,0.16677971709818842,0.09219952022499793,0.0062536189924724955,0.03634428903460502,0.06321726322174072,0.09601901918649673,350,0.5311077389984825,0.5182728099925552,0.13524319231510162,conf_shrink_s0.7_k1.5_q0.2,conf_shrink,0.7,1.5,0.2,-0.03771243160035649,0.03667744835642994
0.03381868445720182,0.012461738660931587,0.04790879786014557,0.06312166899442673,0.16687898089171974,0.09219952022499793,0.006237075026883944,0.03634428903460502,0.06290871620178225,0.09601901918649673,350,0.5311077389984825,0.5182728099925552,0.13524319231510162,conf_shrink_s0.7_k1.5_q0.3,conf_shrink,0.7,1.5,0.3,-0.03772040759538981,0.03646900628240268
0.03315333528080866,0.012453211471438408,0.04797600954771042,0.06313071399927139,0.16697824468525105,0.09221606419058648,0.006220531061295393,0.03634428903460502,0.06290871620178225,0.09601901918649673,349,0.5295902883156297,0.5182728099925552,0.13524319231510162,conf_shrink_s0.7_k1.5_q0.4,conf_shrink,0.7,1.5,0.4,-0.037725005780930056,0.0364010586577288
0.03247553248998991,0.01244615763425827,0.0480412095785141,0.06314869970083237,0.16714368434113658,0.0924145917776491,0.006220531061295393,0.03648174554109573,0.06290418982505798,0.09601901918649673,348,0.5280728376327769,0.5182728099925552,0.13524319231510162,conf_shrink_s0.7_k1.5_q0.5,conf_shrink,0.7,1.5,0.5,-0.03775197085333081,0.035806761884584426
0.03262513894613761,0.012445867992937565,0.048030510544776917,0.06318590044975281,0.16739184382496483,0.09254694350235751,0.006203987095706841,0.03634428903460502,0.06290418982505798,0.09601901918649673,350,0.5311077389984825,0.5182728099925552,0.13523517549037933,conf_shrink_s0.7_k1.5_q0.6,conf_shrink,0.7,1.5,0.6,-0.03783174077458735,0.03443674908948191
0.03470280706890694,0.01245379913598299,0.04785802960395813,0.06312339007854462,0.16677971709818842,0.09219952022499793,0.0062536189924724955,0.03634428903460502,0.06321726322174072,0.09601901918649673,350,0.5311077389984825,0.5182728099925552,0.13524319231510162,conf_shrink_s0.7_k2.0_q0.2,conf_shrink,0.7,2.0,0.2,-0.03771243160035649,0.03667744835642994
0.03381868445720182,0.012461738660931587,0.04790879786014557,0.06312166899442673,0.16687898089171974,0.09219952022499793,0.006237075026883944,0.03634428903460502,0.06290871620178225,0.09601901918649673,350,0.5311077389984825,0.5182728099925552,0.13524319231510162,conf_shrink_s0.7_k2.0_q0.3,conf_shrink,0.7,2.0,0.3,-0.03772040759538981,0.03646900628240268
0.03315333528080866,0.012453211471438408,0.04797600954771042,0.06313071399927139,0.16697824468525105,0.09221606419058648,0.006220531061295393,0.03634428903460502,0.06290871620178225,0.09601901918649673,349,0.5295902883156297,0.5182728099925552,0.13524319231510162,conf_shrink_s0.7_k2.0_q0.4,conf_shrink,0.7,2.0,0.4,-0.037725005780930056,0.0364010586577288
0.03247553248998991,0.01244615763425827,0.0480412095785141,0.06314869970083237,0.16714368434113658,0.0924145917776491,0.006220531061295393,0.03648174554109573,0.06290418982505798,0.09601901918649673,348,0.5280728376327769,0.5182728099925552,0.13524319231510162,conf_shrink_s0.7_k2.0_q0.5,conf_shrink,0.7,2.0,0.5,-0.03775197085333081,0.035806761884584426
0.03262513894613761,0.012445867992937565,0.048030510544776917,0.06318590044975281,0.16739184382496483,0.09254694350235751,0.006203987095706841,0.03634428903460502,0.06290418982505798,0.09601901918649673,350,0.5311077389984825,0.5182728099925552,0.13523517549037933,conf_shrink_s0.7_k2.0_q0.6,conf_shrink,0.7,2.0,0.6,-0.03783174077458735,0.03443674908948191
0.0384302628207327,0.012479384429752827,0.04752587899565697,0.06279683113098145,0.1664488377864174,0.09102489866821077,0.007080817271900074,0.03640829399228095,0.06284026876091957,0.10001901984214782,354,0.5371775417298937,0.5182728099925552,0.15456366539001465,conf_shrink_s0.8_kNone_q0.2,conf_shrink,0.8,,0.2,-0.03751381247918732,0.03903346431457644
0.03798455191398664,0.01248000655323267,0.04755823314189911,0.06280338019132614,0.1665150136487716,0.09102489866821077,0.007064273306311523,0.0365518033504486,0.0627556210756302,0.10001901984214782,353,0.5356600910470409,0.5182728099925552,0.15456366539001465,conf_shrink_s0.8_kNone_q0.3,conf_shrink,0.8,,0.3,-0.037533004105672965,0.03863079526346347
0.03756518633204142,0.012478144839406013,0.04759356752038002,0.06280853599309921,0.16661427744230292,0.09105798659938788,0.0070477293407229715,0.03678695559501648,0.06271008774638176,0.10001901984214782,353,0.5356600910470409,0.5182728099925552,0.15456366539001465,conf_shrink_s0.8_kNone_q0.4,conf_shrink,0.8,,0.4,-0.037526191735645545,0.038762727658927076
0.037101946468800384,0.012464218772947788,0.0476563423871994,0.06287211924791336,0.16684589296054264,0.09130614608321615,0.0070477293407229715,0.03655430153012277,0.0627660844475031,0.10001901984214782,351,0.5326251896813353,0.5182728099925552,0.15456366539001465,conf_shrink_s0.8_kNone_q0.5,conf_shrink,0.8,,0.5,-0.03755691517088843,0.03816085870363661
0.036885120146220474,0.012470755726099014,0.04765961319208145,0.06292729824781418,0.1670609645131938,0.09148812970469021,0.00703118537513442,0.036444295197725296,0.0627660844475031,0.10001901984214782,353,0.5356600910470409,0.5182728099925552,0.15455448627471924,conf_shrink_s0.8_kNone_q0.6,conf_shrink,0.8,,0.6,-0.03764834538675945,0.0365841041244066
0.03515236278201128,0.012479671277105808,0.047772400081157684,0.06277263909578323,0.16704442054760527,0.09171974522292993,0.007014641409545868,0.0365518033504486,0.06274964258074761,0.0939948782324791,355,0.5386949924127465,0.5182728099925552,0.15448245406150818,conf_shrink_s0.8_k0.5_q0.2,conf_shrink,0.8,0.5,0.2,-0.037658013083641716,0.03753319584553516
0.0348077683057223,0.012480514124035835,0.047796688973903656,0.06277772039175034,0.16711059640995946,0.09171974522292993,0.006998097443957316,0.036644678749144115,0.06271008774638176,0.0939948782324791,354,0.5371775417298937,0.5182728099925552,0.15448245406150818,conf_shrink_s0.8_k0.5_q0.3,conf_shrink,0.8,0.5,0.3,-0.03767649894567416,0.03709308338061723
0.03408640751587888,0.012478966265916824,0.047854162752628326,0.06278073787689209,0.16720986020349077,0.09175283315410704,0.006981553478368765,0.0368034653365612,0.06262833744287491,0.0939948782324791,354,0.5371775417298937,0.5182728099925552,0.15448245406150818,conf_shrink_s0.8_k0.5_q0.4,conf_shrink,0.8,0.5,0.4,-0.03767267467410033,0.037146805807617866
0.03395743847792143,0.012463406659662724,0.047895003110170364,0.06282687932252884,0.1674414757217305,0.09200099263793532,0.006981553478368765,0.03675074279308318,0.06271008774638176,0.0939948782324791,352,0.5341426403641881,0.5182728099925552,0.15448245406150818,conf_shrink_s0.8_k0.5_q0.5,conf_shrink,0.8,0.5,0.5,-0.03768768254171459,0.03681169381953875
0.03374698721986846,0.01247260719537735,0.04789246618747711,0.0628746971487999,0.16765654727438167,0.09218297625940938,0.0069650095127802136,0.03655430153012277,0.06271008774638176,0.0939948782324791,354,0.5371775417298937,0.5182728099925552,0.15446960926055908,conf_shrink_s0.8_k0.5_q0.6,conf_shrink,0.8,0.5,0.6,-0.03778395750702047,0.03526270615278515
0.03840029013363422,0.012480514124035835,0.04752587899565697,0.06279683113098145,0.1665150136487716,0.09102489866821077,0.007080817271900074,0.03640829399228095,0.06284026876091957,0.10001901984214782,354,0.5371775417298937,0.5182728099925552,0.15456366539001465,conf_shrink_s0.8_k0.75_q0.2,conf_shrink,0.8,0.75,0.2,-0.037523271814949764,0.0388239919658776
0.03796493252935651,0.012480746023356915,0.04755823314189911,0.06280338019132614,0.16658118951112583,0.09102489866821077,0.007064273306311523,0.0365518033504486,0.0627556210756302,0.10001901984214782,353,0.5356600910470409,0.5182728099925552,0.15456366539001465,conf_shrink_s0.8_k0.75_q0.3,conf_shrink,0.8,0.75,0.3,-0.03754791029064273,0.038307039865148496
0.03753229791775614,0.012479384429752827,0.04759356752038002,0.06280853599309921,0.16668045330465714,0.09105798659938788,0.0070477293407229715,0.03678695559501648,0.06271008774638176,0.10001901984214782,353,0.5356600910470409,0.5182728099925552,0.15456366539001465,conf_shrink_s0.8_k0.75_q0.4,conf_shrink,0.8,0.75,0.4,-0.03754687722487852,0.03831534940073622
0.03705591257262186,0.012465953826904297,0.0476563423871994,0.06287211924791336,0.16691206882289686,0.09130614608321615,0.0070477293407229715,0.03655430153012277,0.0627660844475031,0.10001901984214782,351,0.5326251896813353,0.5182728099925552,0.15456366539001465,conf_shrink_s0.8_k0.75_q0.5,conf_shrink,0.8,0.75,0.5,-0.03756356295143066,0.03799611239656919
0.03682181427289277,0.01247314177453518,0.04765961319208145,0.06292729824781418,0.16712714037554802,0.09148812970469021,0.00703118537513442,0.036444295197725296,0.0627660844475031,0.10001901984214782,353,0.5356600910470409,0.5182728099925552,0.15455448627471924,conf_shrink_s0.8_k0.75_q0.6,conf_shrink,0.8,0.75,0.6,-0.03766260855299909,0.03626917003210417
0.0384302628207327,0.012479384429752827,0.04752587899565697,0.06279683113098145,0.1664488377864174,0.09102489866821077,0.007080817271900074,0.03640829399228095,0.06284026876091957,0.10001901984214782,354,0.5371775417298937,0.5182728099925552,0.15456366539001465,conf_shrink_s0.8_k1.0_q0.2,conf_shrink,0.8,1.0,0.2,-0.03751381247918732,0.03903346431457644
0.03798455191398664,0.01248000655323267,0.04755823314189911,0.06280338019132614,0.1665150136487716,0.09102489866821077,0.007064273306311523,0.0365518033504486,0.0627556210756302,0.10001901984214782,353,0.5356600910470409,0.5182728099925552,0.15456366539001465,conf_shrink_s0.8_k1.0_q0.3,conf_shrink,0.8,1.0,0.3,-0.037533004105672965,0.03863079526346347
0.03756518633204142,0.012478144839406013,0.04759356752038002,0.06280853599309921,0.16661427744230292,0.09105798659938788,0.0070477293407229715,0.03678695559501648,0.06271008774638176,0.10001901984214782,353,0.5356600910470409,0.5182728099925552,0.15456366539001465,conf_shrink_s0.8_k1.0_q0.4,conf_shrink,0.8,1.0,0.4,-0.037526191735645545,0.038762727658927076
0.037101946468800384,0.012464218772947788,0.0476563423871994,0.06287211924791336,0.16684589296054264,0.09130614608321615,0.0070477293407229715,0.03655430153012277,0.0627660844475031,0.10001901984214782,351,0.5326251896813353,0.5182728099925552,0.15456366539001465,conf_shrink_s0.8_k1.0_q0.5,conf_shrink,0.8,1.0,0.5,-0.03755691517088843,0.03816085870363661
0.036885120146220474,0.012470755726099014,0.04765961319208145,0.06292729824781418,0.1670609645131938,0.09148812970469021,0.00703118537513442,0.036444295197725296,0.0627660844475031,0.10001901984214782,353,0.5356600910470409,0.5182728099925552,0.15455448627471924,conf_shrink_s0.8_k1.0_q0.6,conf_shrink,0.8,1.0,0.6,-0.03764834538675945,0.0365841041244066
0.0384302628207327,0.012479384429752827,0.04752587899565697,0.06279683113098145,0.1664488377864174,0.09102489866821077,0.007080817271900074,0.03640829399228095,0.06284026876091957,0.10001901984214782,354,0.5371775417298937,0.5182728099925552,0.15456366539001465,conf_shrink_s0.8_k1.25_q0.2,conf_shrink,0.8,1.25,0.2,-0.03751381247918732,0.03903346431457644
0.03798455191398664,0.01248000655323267,0.04755823314189911,0.06280338019132614,0.1665150136487716,0.09102489866821077,0.007064273306311523,0.0365518033504486,0.0627556210756302,0.10001901984214782,353,0.5356600910470409,0.5182728099925552,0.15456366539001465,conf_shrink_s0.8_k1.25_q0.3,conf_shrink,0.8,1.25,0.3,-0.037533004105672965,0.03863079526346347
0.03756518633204142,0.012478144839406013,0.04759356752038002,0.06280853599309921,0.16661427744230292,0.09105798659938788,0.0070477293407229715,0.03678695559501648,0.06271008774638176,0.10001901984214782,353,0.5356600910470409,0.5182728099925552,0.15456366539001465,conf_shrink_s0.8_k1.25_q0.4,conf_shrink,0.8,1.25,0.4,-0.037526191735645545,0.038762727658927076
0.037101946468800384,0.012464218772947788,0.0476563423871994,0.06287211924791336,0.16684589296054264,0.09130614608321615,0.0070477293407229715,0.03655430153012277,0.0627660844475031,0.10001901984214782,351,0.5326251896813353,0.5182728099925552,0.15456366539001465,conf_shrink_s0.8_k1.25_q0.5,conf_shrink,0.8,1.25,0.5,-0.03755691517088843,0.03816085870363661
0.036885120146220474,0.012470755726099014,0.04765961319208145,0.06292729824781418,0.1670609645131938,0.09148812970469021,0.00703118537513442,0.036444295197725296,0.0627660844475031,0.10001901984214782,353,0.5356600910470409,0.5182728099925552,0.15455448627471924,conf_shrink_s0.8_k1.25_q0.6,conf_shrink,0.8,1.25,0.6,-0.03764834538675945,0.0365841041244066
0.0384302628207327,0.012479384429752827,0.04752587899565697,0.06279683113098145,0.1664488377864174,0.09102489866821077,0.007080817271900074,0.03640829399228095,0.06284026876091957,0.10001901984214782,354,0.5371775417298937,0.5182728099925552,0.15456366539001465,conf_shrink_s0.8_k1.5_q0.2,conf_shrink,0.8,1.5,0.2,-0.03751381247918732,0.03903346431457644
0.03798455191398664,0.01248000655323267,0.04755823314189911,0.06280338019132614,0.1665150136487716,0.09102489866821077,0.007064273306311523,0.0365518033504486,0.0627556210756302,0.10001901984214782,353,0.5356600910470409,0.5182728099925552,0.15456366539001465,conf_shrink_s0.8_k1.5_q0.3,conf_shrink,0.8,1.5,0.3,-0.037533004105672965,0.03863079526346347
0.03756518633204142,0.012478144839406013,0.04759356752038002,0.06280853599309921,0.16661427744230292,0.09105798659938788,0.0070477293407229715,0.03678695559501648,0.06271008774638176,0.10001901984214782,353,0.5356600910470409,0.5182728099925552,0.15456366539001465,conf_shrink_s0.8_k1.5_q0.4,conf_shrink,0.8,1.5,0.4,-0.037526191735645545,0.038762727658927076
0.037101946468800384,0.012464218772947788,0.0476563423871994,0.06287211924791336,0.16684589296054264,0.09130614608321615,0.0070477293407229715,0.03655430153012277,0.0627660844475031,0.10001901984214782,351,0.5326251896813353,0.5182728099925552,0.15456366539001465,conf_shrink_s0.8_k1.5_q0.5,conf_shrink,0.8,1.5,0.5,-0.03755691517088843,0.03816085870363661
0.036885120146220474,0.012470755726099014,0.04765961319208145,0.06292729824781418,0.1670609645131938,0.09148812970469021,0.00703118537513442,0.036444295197725296,0.0627660844475031,0.10001901984214782,353,0.5356600910470409,0.5182728099925552,0.15455448627471924,conf_shrink_s0.8_k1.5_q0.6,conf_shrink,0.8,1.5,0.6,-0.03764834538675945,0.0365841041244066
0.0384302628207327,0.012479384429752827,0.04752587899565697,0.06279683113098145,0.1664488377864174,0.09102489866821077,0.007080817271900074,0.03640829399228095,0.06284026876091957,0.10001901984214782,354,0.5371775417298937,0.5182728099925552,0.15456366539001465,conf_shrink_s0.8_k2.0_q0.2,conf_shrink,0.8,2.0,0.2,-0.03751381247918732,0.03903346431457644
0.03798455191398664,0.01248000655323267,0.04755823314189911,0.06280338019132614,0.1665150136487716,0.09102489866821077,0.007064273306311523,0.0365518033504486,0.0627556210756302,0.10001901984214782,353,0.5356600910470409,0.5182728099925552,0.15456366539001465,conf_shrink_s0.8_k2.0_q0.3,conf_shrink,0.8,2.0,0.3,-0.037533004105672965,0.03863079526346347
0.03756518633204142,0.012478144839406013,0.04759356752038002,0.06280853599309921,0.16661427744230292,0.09105798659938788,0.0070477293407229715,0.03678695559501648,0.06271008774638176,0.10001901984214782,353,0.5356600910470409,0.5182728099925552,0.15456366539001465,conf_shrink_s0.8_k2.0_q0.4,conf_shrink,0.8,2.0,0.4,-0.037526191735645545,0.038762727658927076
0.037101946468800384,0.012464218772947788,0.0476563423871994,0.06287211924791336,0.16684589296054264,0.09130614608321615,0.0070477293407229715,0.03655430153012277,0.0627660844475031,0.10001901984214782,351,0.5326251896813353,0.5182728099925552,0.15456366539001465,conf_shrink_s0.8_k2.0_q0.5,conf_shrink,0.8,2.0,0.5,-0.03755691517088843,0.03816085870363661
0.036885120146220474,0.012470755726099014,0.04765961319208145,0.06292729824781418,0.1670609645131938,0.09148812970469021,0.00703118537513442,0.036444295197725296,0.0627660844475031,0.10001901984214782,353,0.5356600910470409,0.5182728099925552,0.15455448627471924,conf_shrink_s0.8_k2.0_q0.6,conf_shrink,0.8,2.0,0.6,-0.03764834538675945,0.0365841041244066
0.04158034034472968,0.012504704296588898,0.04723777994513512,0.06246627867221832,0.1645628257093225,0.08961866159318388,0.007759119861030689,0.036453296430408996,0.06268741130828859,0.10401902049779892,360,0.5462822458270106,0.5182728099925552,0.17388410866260529,conf_shrink_s0.9_kNone_q0.2,conf_shrink,0.9,,0.2,-0.0373476600995394,0.0415405501885594
0.041235493831005665,0.012508939951658249,0.04725530371069908,0.06246211752295494,0.1646455455372653,0.08963520555877244,0.007742575895442138,0.036458169668912896,0.06266214489936829,0.10401902049779892,359,0.5447647951441578,0.5182728099925552,0.17388410866260529,conf_shrink_s0.9_kNone_q0.3,conf_shrink,0.9,,0.3,-0.0373698489442073,0.04119059685815041
0.04106072810857331,0.012497775256633759,0.04729080945253372,0.06246627867221832,0.16476135329638514,0.08963520555877244,0.007726031929853586,0.036687257140874854,0.06260246127843856,0.10401902049779892,357,0.5417298937784522,0.5182728099925552,0.17388410866260529,conf_shrink_s0.9_kNone_q0.4,conf_shrink,0.9,,0.4,-0.037362025270066185,0.04130404154700451
0.040851492560499914,0.012474295683205128,0.04735353961586952,0.06251049041748047,0.16497642484903632,0.08994954090495491,0.007726031929853586,0.03664240017533302,0.06266214489936829,0.10401902049779892,355,0.5386949924127465,0.5182728099925552,0.17388410866260529,conf_shrink_s0.9_kNone_q0.5,conf_shrink,0.9,,0.5,-0.03737257948951574,0.041087229332997355
0.04080780607180212,0.01248134020715952,0.04734274372458458,0.06258803606033325,0.1652907601952188,0.09014806849201754,0.007709487964265034,0.036562446504831314,0.06266214489936829,0.10401902049779892,356,0.5402124430955993,0.5182728099925552,0.17387379705905914,conf_shrink_s0.9_kNone_q0.6,conf_shrink,0.9,,0.6,-0.03745135680118957,0.03980340608469757
0.03681809795620716,0.012512190267443657,0.04758179560303688,0.0624120831489563,0.16681280502936555,0.09066093142526263,0.00756059227396807,0.036458169668912896,0.06268741130828859,0.09483327716588974,361,0.5477996965098634,0.5182728099925552,0.17293617129325867,conf_shrink_s0.9_k0.5_q0.2,conf_shrink,0.9,0.5,0.2,-0.03758908465565477,0.037827053076906036
0.03617383096994764,0.012513168156147003,0.047628406435251236,0.06241338700056076,0.1668955248573083,0.09067747539085119,0.007544048308379518,0.036580270156264305,0.06266214489936829,0.09483327716588974,360,0.5462822458270106,0.5182728099925552,0.17293617129325867,conf_shrink_s0.9_k0.5_q0.3,conf_shrink,0.9,0.5,0.3,-0.03761139213728164,0.03735900872088782
0.03578262439395308,0.012506573460996151,0.047671083360910416,0.062414027750492096,0.16701133261642817,0.09067747539085119,0.007527504342790967,0.03672013059258461,0.06260246127843856,0.09483327716588974,358,0.543247344461305,0.5182728099925552,0.17293617129325867,conf_shrink_s0.9_k0.5_q0.4,conf_shrink,0.9,0.5,0.4,-0.03759668732537768,0.03761354716919807
0.036042524408330556,0.012480853125452995,0.047702934592962265,0.062464818358421326,0.16722640416907933,0.09099181073703366,0.007527504342790967,0.03664465807378293,0.06266214489936829,0.09483327716588974,356,0.5402124430955993,0.5182728099925552,0.17293617129325867,conf_shrink_s0.9_k0.5_q0.5,conf_shrink,0.9,0.5,0.5,-0.03760843185918845,0.037313959455829715
0.03578292090858215,0.012493147514760494,0.04769791290163994,0.062498029321432114,0.1675407395152618,0.09119033832409629,0.007510960377202416,0.03664240017533302,0.06266214489936829,0.09483327716588974,357,0.5417298937784522,0.5182728099925552,0.17287027835845947,conf_shrink_s0.9_k0.5_q0.6,conf_shrink,0.9,0.5,0.6,-0.03770363905470433,0.03568812878635419
0.04148355302785833,0.012508352287113667,0.04723777994513512,0.06246627867221832,0.16497642484903632,0.08963520555877244,0.007742575895442138,0.036453296430408996,0.06268741130828859,0.10344564467668534,360,0.5462822458270106,0.5182728099925552,0.17388410866260529,conf_shrink_s0.9_k0.75_q0.2,conf_shrink,0.9,0.75,0.2,-0.037409105925477276,0.04018418348249164
0.041183282546719435,0.012510907836258411,0.04725530371069908,0.06246211752295494,0.16505914467697907,0.08965174952436099,0.007726031929853586,0.036458169668912896,0.06266214489936829,0.10344564467668534,359,0.5447647951441578,0.5182728099925552,0.17388410866260529,conf_shrink_s0.9_k0.75_q0.3,conf_shrink,0.9,0.75,0.3,-0.037437596472676145,0.03968706248573772
0.0409648550451418,0.012501388788223267,0.04729080945253372,0.06246627867221832,0.16517495243609892,0.08965174952436099,0.007709487964265034,0.036687257140874854,0.06260246127843856,0.10344564467668534,357,0.5417298937784522,0.5182728099925552,0.17388410866260529,conf_shrink_s0.9_k0.75_q0.4,conf_shrink,0.9,0.75,0.4,-0.03742597241753195,0.03989744053341282
0.04078492502625142,0.012476804666221142,0.04735353961586952,0.06251049041748047,0.1653900239887501,0.08996608487054347,0.007709487964265034,0.03664240017533302,0.06266214489936829,0.10344564467668534,355,0.5386949924127465,0.5182728099925552,0.17388410866260529,conf_shrink_s0.9_k0.75_q0.5,conf_shrink,0.9,0.75,0.5,-0.03743999596892401,0.03962448508361771
0.040637087774057834,0.012487774714827538,0.04734274372458458,0.06258803606033325,0.16570435933493258,0.09016461245760608,0.0076929439986764825,0.036562446504831314,0.06266214489936829,0.10344564467668534,356,0.5402124430955993,0.5182728099925552,0.17387379705905914,conf_shrink_s0.9_k0.75_q0.6,conf_shrink,0.9,0.75,0.6,-0.037530134107679934,0.03806635962124616
0.0416379729048193,0.01250213198363781,0.047238580882549286,0.06246627867221832,0.1645628257093225,0.08961866159318388,0.007759119861030689,0.036453296430408996,0.06268741130828859,0.10401902049779892,360,0.5462822458270106,0.5182728099925552,0.17388410866260529,conf_shrink_s0.9_k1.0_q0.2,conf_shrink,0.9,1.0,0.2,-0.037350848968745076,0.041473642939289346
0.04127458928486172,0.012506573460996151,0.04725709185004234,0.06246211752295494,0.1646455455372653,0.08963520555877244,0.007742575895442138,0.036458169668912896,0.06266214489936829,0.10401902049779892,359,0.5447647951441578,0.5182728099925552,0.17388410866260529,conf_shrink_s0.9_k1.0_q0.3,conf_shrink,0.9,1.0,0.3,-0.03737135512005093,0.041158995034395796
0.0411432085945872,0.012494666501879692,0.04729080945253372,0.06246627867221832,0.16476135329638514,0.08963520555877244,0.007726031929853586,0.036687257140874854,0.06260246127843856,0.10401902049779892,357,0.5417298937784522,0.5182728099925552,0.17388410866260529,conf_shrink_s0.9_k1.0_q0.4,conf_shrink,0.9,1.0,0.4,-0.037363316736419204,0.04127694464975573
0.040864316818211455,0.012473812326788902,0.04735353961586952,0.06251049041748047,0.16497642484903632,0.08994954090495491,0.007726031929853586,0.03664240017533302,0.06266214489936829,0.10401902049779892,355,0.5386949924127465,0.5182728099925552,0.17388410866260529,conf_shrink_s0.9_k1.0_q0.5,conf_shrink,0.9,1.0,0.5,-0.037372687325672456,0.04108496676901241
0.04082072916772339,0.012480853125452995,0.04734274372458458,0.06258803606033325,0.1652907601952188,0.09014806849201754,0.007709487964265034,0.036562446504831314,0.06266214489936829,0.10401902049779892,356,0.5402124430955993,0.5182728099925552,0.17387379705905914,conf_shrink_s0.9_k1.0_q0.6,conf_shrink,0.9,1.0,0.6,-0.037454698759224865,0.03973328680262733
0.04158034034472968,0.012504704296588898,0.04723777994513512,0.06246627867221832,0.1645628257093225,0.08961866159318388,0.007759119861030689,0.036453296430408996,0.06268741130828859,0.10401902049779892,360,0.5462822458270106,0.5182728099925552,0.17388410866260529,conf_shrink_s0.9_k1.25_q0.2,conf_shrink,0.9,1.25,0.2,-0.0373476600995394,0.0415405501885594
0.041235493831005665,0.012508939951658249,0.04725530371069908,0.06246211752295494,0.1646455455372653,0.08963520555877244,0.007742575895442138,0.036458169668912896,0.06266214489936829,0.10401902049779892,359,0.5447647951441578,0.5182728099925552,0.17388410866260529,conf_shrink_s0.9_k1.25_q0.3,conf_shrink,0.9,1.25,0.3,-0.0373698489442073,0.04119059685815041
0.04106072810857331,0.012497775256633759,0.04729080945253372,0.06246627867221832,0.16476135329638514,0.08963520555877244,0.007726031929853586,0.036687257140874854,0.06260246127843856,0.10401902049779892,357,0.5417298937784522,0.5182728099925552,0.17388410866260529,conf_shrink_s0.9_k1.25_q0.4,conf_shrink,0.9,1.25,0.4,-0.037362025270066185,0.04130404154700451
0.040851492560499914,0.012474295683205128,0.04735353961586952,0.06251049041748047,0.16497642484903632,0.08994954090495491,0.007726031929853586,0.03664240017533302,0.06266214489936829,0.10401902049779892,355,0.5386949924127465,0.5182728099925552,0.17388410866260529,conf_shrink_s0.9_k1.25_q0.5,conf_shrink,0.9,1.25,0.5,-0.03737257948951574,0.041087229332997355
0.04080780607180212,0.01248134020715952,0.04734274372458458,0.06258803606033325,0.1652907601952188,0.09014806849201754,0.007709487964265034,0.036562446504831314,0.06266214489936829,0.10401902049779892,356,0.5402124430955993,0.5182728099925552,0.17387379705905914,conf_shrink_s0.9_k1.25_q0.6,conf_shrink,0.9,1.25,0.6,-0.03745135680118957,0.03980340608469757
0.04158034034472968,0.012504704296588898,0.04723777994513512,0.06246627867221832,0.1645628257093225,0.08961866159318388,0.007759119861030689,0.036453296430408996,0.06268741130828859,0.10401902049779892,360,0.5462822458270106,0.5182728099925552,0.17388410866260529,conf_shrink_s0.9_k1.5_q0.2,conf_shrink,0.9,1.5,0.2,-0.0373476600995394,0.0415405501885594
0.041235493831005665,0.012508939951658249,0.04725530371069908,0.06246211752295494,0.1646455455372653,0.08963520555877244,0.007742575895442138,0.036458169668912896,0.06266214489936829,0.10401902049779892,359,0.5447647951441578,0.5182728099925552,0.17388410866260529,conf_shrink_s0.9_k1.5_q0.3,conf_shrink,0.9,1.5,0.3,-0.0373698489442073,0.04119059685815041
0.04106072810857331,0.012497775256633759,0.04729080945253372,0.06246627867221832,0.16476135329638514,0.08963520555877244,0.007726031929853586,0.036687257140874854,0.06260246127843856,0.10401902049779892,357,0.5417298937784522,0.5182728099925552,0.17388410866260529,conf_shrink_s0.9_k1.5_q0.4,conf_shrink,0.9,1.5,0.4,-0.037362025270066185,0.04130404154700451
0.040851492560499914,0.012474295683205128,0.04735353961586952,0.06251049041748047,0.16497642484903632,0.08994954090495491,0.007726031929853586,0.03664240017533302,0.06266214489936829,0.10401902049779892,355,0.5386949924127465,0.5182728099925552,0.17388410866260529,conf_shrink_s0.9_k1.5_q0.5,conf_shrink,0.9,1.5,0.5,-0.03737257948951574,0.041087229332997355
0.04080780607180212,0.01248134020715952,0.04734274372458458,0.06258803606033325,0.1652907601952188,0.09014806849201754,0.007709487964265034,0.036562446504831314,0.06266214489936829,0.10401902049779892,356,0.5402124430955993,0.5182728099925552,0.17387379705905914,conf_shrink_s0.9_k1.5_q0.6,conf_shrink,0.9,1.5,0.6,-0.03745135680118957,0.03980340608469757
0.04158034034472968,0.012504704296588898,0.04723777994513512,0.06246627867221832,0.1645628257093225,0.08961866159318388,0.007759119861030689,0.036453296430408996,0.06268741130828859,0.10401902049779892,360,0.5462822458270106,0.5182728099925552,0.17388410866260529,conf_shrink_s0.9_k2.0_q0.2,conf_shrink,0.9,2.0,0.2,-0.0373476600995394,0.0415405501885594
0.041235493831005665,0.012508939951658249,0.04725530371069908,0.06246211752295494,0.1646455455372653,0.08963520555877244,0.007742575895442138,0.036458169668912896,0.06266214489936829,0.10401902049779892,359,0.5447647951441578,0.5182728099925552,0.17388410866260529,conf_shrink_s0.9_k2.0_q0.3,conf_shrink,0.9,2.0,0.3,-0.0373698489442073,0.04119059685815041
0.04106072810857331,0.012497775256633759,0.04729080945253372,0.06246627867221832,0.16476135329638514,0.08963520555877244,0.007726031929853586,0.036687257140874854,0.06260246127843856,0.10401902049779892,357,0.5417298937784522,0.5182728099925552,0.17388410866260529,conf_shrink_s0.9_k2.0_q0.4,conf_shrink,0.9,2.0,0.4,-0.037362025270066185,0.04130404154700451
0.040851492560499914,0.012474295683205128,0.04735353961586952,0.06251049041748047,0.16497642484903632,0.08994954090495491,0.007726031929853586,0.03664240017533302,0.06266214489936829,0.10401902049779892,355,0.5386949924127465,0.5182728099925552,0.17388410866260529,conf_shrink_s0.9_k2.0_q0.5,conf_shrink,0.9,2.0,0.5,-0.03737257948951574,0.041087229332997355
0.04080780607180212,0.01248134020715952,0.04734274372458458,0.06258803606033325,0.1652907601952188,0.09014806849201754,0.007709487964265034,0.036562446504831314,0.06266214489936829,0.10401902049779892,356,0.5402124430955993,0.5182728099925552,0.17387379705905914,conf_shrink_s0.9_k2.0_q0.6,conf_shrink,0.9,2.0,0.6,-0.03745135680118957,0.03980340608469757
0.0444364087881739,0.012540364637970924,0.04695116728544235,0.0622020959854126,0.1636529076019522,0.08847712796757383,0.008338158656629993,0.0362396590411663,0.0627962863445282,0.10801902115345001,364,0.5523520485584219,0.5182728099925552,0.19320456683635712,conf_shrink_s1.0_kNone_q0.2,conf_shrink,1.0,,0.2,-0.03723471499324545,0.04271421148592969
0.04416567610601052,0.012541265226900578,0.04696977138519287,0.06221655011177063,0.1637521713954835,0.08847712796757383,0.008321614691041443,0.03630206715315584,0.06279760658740997,0.10801902115345001,365,0.5538694992412747,0.5182728099925552,0.19320456683635712,conf_shrink_s1.0_kNone_q0.3,conf_shrink,1.0,,0.3,-0.03727126869592782,0.04224103259110623
0.044175940454090235,0.01253766193985939,0.046976204961538315,0.062234845012426376,0.16388452312019192,0.08851021589875092,0.008305070725452892,0.036308058351278295,0.06273880243301391,0.10801902115345001,363,0.5508345978755691,0.5182728099925552,0.19320456683635712,conf_shrink_s1.0_kNone_q0.4,conf_shrink,1.0,,0.4,-0.03726214645638033,0.04239418999157163
0.043926393742181324,0.01251961663365364,0.047031108289957047,0.06230637803673744,0.1641326826040202,0.08887418314169906,0.008305070725452892,0.036361149698495875,0.06261061996221542,0.10801902115345001,358,0.543247344461305,0.5182728099925552,0.19320456683635712,conf_shrink_s1.0_kNone_q0.5,conf_shrink,1.0,,0.5,-0.037274803684352924,0.04212516372655384
0.043700133312483125,0.012525277212262154,0.04703684151172638,0.0623614639043808,0.1643312101910828,0.08898999090081892,0.008288526759864339,0.036361149698495875,0.06259547993540764,0.10801902115345001,358,0.543247344461305,0.5182728099925552,0.19319310784339905,conf_shrink_s1.0_kNone_q0.6,conf_shrink,1.0,,0.6,-0.03737861142763155,0.04030635520385906
0.0377513975191599,0.012535052374005318,0.04746571555733681,0.062085364013910294,0.16661427744230292,0.08988336504260071,0.008007279344858963,0.03632439710199834,0.06273880243301391,0.09553272649645805,366,0.5553869499241275,0.5182728099925552,0.19021537899971008,conf_shrink_s1.0_k0.5_q0.2,conf_shrink,1.0,0.5,0.2,-0.037571178221423036,0.0378854184737506
0.03740863649166093,0.012537004426121712,0.04748765006661415,0.062096476554870605,0.16671354123583423,0.08988336504260071,0.00799073537927041,0.03637675791978836,0.06273880243301391,0.09553272649645805,367,0.5569044006069803,0.5182728099925552,0.19021537899971008,conf_shrink_s1.0_k0.5_q0.3,conf_shrink,1.0,0.5,0.3,-0.037587147119433534,0.037550367090063874
0.03715279872770316,0.012526866979897022,0.047527212649583817,0.062117088586091995,0.16684589296054264,0.08991645297377782,0.00797419141368186,0.03667038455605506,0.06261061996221542,0.09553272649645805,365,0.5538694992412747,0.5182728099925552,0.19021537899971008,conf_shrink_s1.0_k0.5_q0.4,conf_shrink,1.0,0.5,0.4,-0.0375708048863699,0.037795548893561404
0.03683876008394993,0.01251234207302332,0.04757993295788765,0.062158167362213135,0.16709405244437092,0.09028042021672594,0.00797419141368186,0.03646748214960098,0.06261061996221542,0.09553272649645805,360,0.5462822458270106,0.5182728099925552,0.19021537899971008,conf_shrink_s1.0_k0.5_q0.5,conf_shrink,1.0,0.5,0.5,-0.03758501801637397,0.037378119305975344
0.036910180574295626,0.012516730464994907,0.047565773129463196,0.06224764510989189,0.16729258003143355,0.09039622797584582,0.007957647448093307,0.03667038455605506,0.06259547993540764,0.09553272649645805,360,0.5462822458270106,0.5182728099925552,0.19016484916210175,conf_shrink_s1.0_k0.5_q0.6,conf_shrink,1.0,0.5,0.6,-0.03768122503401805,0.03579556017271235
0.04440688581492924,0.012538855895400047,0.04695640876889229,0.06218895688652992,0.16434775415667136,0.08852675986433949,0.008305070725452892,0.03630206715315584,0.0627962863445282,0.10531212240457534,365,0.5538694992412747,0.5182728099925552,0.19320456683635712,conf_shrink_s1.0_k0.75_q0.2,conf_shrink,1.0,0.75,0.2,-0.037329589268008764,0.040664203939840826
0.04417623202680898,0.012539531104266644,0.04697244614362717,0.0622020959854126,0.16444701795020267,0.08852675986433949,0.008288526759864339,0.036308058351278295,0.06279760658740997,0.10531212240457534,366,0.5553869499241275,0.5182728099925552,0.19320456683635712,conf_shrink_s1.0_k0.75_q0.3,conf_shrink,1.0,0.75,0.3,-0.03736733558951641,0.040216768444168216
0.04417359798851961,0.012536192312836647,0.04697932302951813,0.06221867352724075,0.16457936967491107,0.08855984779551658,0.008271982794275788,0.03637675791978836,0.06273880243301391,0.10531212240457534,364,0.5523520485584219,0.5182728099925552,0.19320456683635712,conf_shrink_s1.0_k0.75_q0.4,conf_shrink,1.0,0.75,0.4,-0.037353527422731035,0.04041659796064534
0.04402721859991965,0.012515021488070488,0.04703269898891449,0.06229395419359207,0.16482752915873936,0.08892381503846472,0.008271982794275788,0.03636869266629219,0.06261061996221542,0.10531212240457534,359,0.5447647951441578,0.5182728099925552,0.19320456683635712,conf_shrink_s1.0_k0.75_q0.5,conf_shrink,1.0,0.75,0.5,-0.03736988610351633,0.040073368350887706
0.04368034590289627,0.012524066492915154,0.04704075679183006,0.062357839196920395,0.16502605674580198,0.08903962279758458,0.008255438828687236,0.03637675791978836,0.06259547993540764,0.10531212240457534,359,0.5447647951441578,0.5182728099925552,0.19319310784339905,conf_shrink_s1.0_k0.75_q0.6,conf_shrink,1.0,0.75,0.6,-0.03746618983946172,0.03842709043277981
0.04438714288253709,0.012539600022137165,0.04695640876889229,0.0622020959854126,0.16366945156754073,0.08847712796757383,0.008338158656629993,0.0362396590411663,0.0627962863445282,0.10801902115345001,364,0.5523520485584219,0.5182728099925552,0.19320456683635712,conf_shrink_s1.0_k1.0_q0.2,conf_shrink,1.0,1.0,0.2,-0.037241244697193136,0.04257720852296398
0.04413521416977384,0.012541077099740505,0.04697244614362717,0.06221655011177063,0.16376871536107204,0.08847712796757383,0.008321614691041443,0.03630206715315584,0.06279760658740997,0.10801902115345001,365,0.5538694992412747,0.5182728099925552,0.19320456683635712,conf_shrink_s1.0_k1.0_q0.3,conf_shrink,1.0,1.0,0.3,-0.03727837994486349,0.04209182794379307
0.04414196976140827,0.012537384405732155,0.04697932302951813,0.062234845012426376,0.16390106708578045,0.08851021589875092,0.008305070725452892,0.036308058351278295,0.06273880243301391,0.10801902115345001,363,0.5508345978755691,0.5182728099925552,0.19320456683635712,conf_shrink_s1.0_k1.0_q0.4,conf_shrink,1.0,1.0,0.4,-0.03726740667842955,0.04228382265909003
0.04392692252660313,0.012518801726400852,0.04703269898891449,0.06230637803673744,0.16414922656960873,0.08887418314169906,0.008305070725452892,0.036361149698495875,0.06261061996221542,0.10801902115345001,358,0.543247344461305,0.5182728099925552,0.19320456683635712,conf_shrink_s1.0_k1.0_q0.5,conf_shrink,1.0,1.0,0.5,-0.0372799647356509,0.04201687714487945
0.04364871767578493,0.012525258585810661,0.04704075679183006,0.0623614639043808,0.16434775415667136,0.08898999090081892,0.008288526759864339,0.036361149698495875,0.06259547993540764,0.10801902115345001,358,0.543247344461305,0.5182728099925552,0.19319310784339905,conf_shrink_s1.0_k1.0_q0.6,conf_shrink,1.0,1.0,0.6,-0.037384960602299004,0.04017314001542205
0.0444364087881739,0.012540364637970924,0.04695116728544235,0.0622020959854126,0.1636529076019522,0.08847712796757383,0.008338158656629993,0.0362396590411663,0.0627962863445282,0.10801902115345001,364,0.5523520485584219,0.5182728099925552,0.19320456683635712,conf_shrink_s1.0_k1.25_q0.2,conf_shrink,1.0,1.25,0.2,-0.037235143449403825,0.04270522183438219
0.04416567610601052,0.012541265226900578,0.04696977138519287,0.06221655011177063,0.1637521713954835,0.08847712796757383,0.008321614691041443,0.03630206715315584,0.06279760658740997,0.10801902115345001,365,0.5538694992412747,0.5182728099925552,0.19320456683635712,conf_shrink_s1.0_k1.25_q0.3,conf_shrink,1.0,1.25,0.3,-0.037271417131113774,0.04223791819871625
0.044175940454090235,0.01253766193985939,0.046976204961538315,0.062234845012426376,0.16388452312019192,0.08851021589875092,0.008305070725452892,0.036308058351278295,0.06273880243301391,0.10801902115345001,363,0.5508345978755691,0.5182728099925552,0.19320456683635712,conf_shrink_s1.0_k1.25_q0.4,conf_shrink,1.0,1.25,0.4,-0.03726218336458873,0.042393415602112405
0.043926393742181324,0.01251961663365364,0.047031108289957047,0.06230637803673744,0.1641326826040202,0.08887418314169906,0.008305070725452892,0.036361149698495875,0.06261061996221542,0.10801902115345001,358,0.543247344461305,0.5182728099925552,0.19320456683635712,conf_shrink_s1.0_k1.25_q0.5,conf_shrink,1.0,1.25,0.5,-0.03727570392369692,0.042106275357572165
0.043700133312483125,0.012525277212262154,0.04703684151172638,0.0623614639043808,0.1643312101910828,0.08898999090081892,0.008288526759864339,0.036361149698495875,0.06259547993540764,0.10801902115345001,358,0.543247344461305,0.5182728099925552,0.19319310784339905,conf_shrink_s1.0_k1.25_q0.6,conf_shrink,1.0,1.25,0.6,-0.03737893236857415,0.040299621382475115
0.0444364087881739,0.012540364637970924,0.04695116728544235,0.0622020959854126,0.1636529076019522,0.08847712796757383,0.008338158656629993,0.0362396590411663,0.0627962863445282,0.10801902115345001,364,0.5523520485584219,0.5182728099925552,0.19320456683635712,conf_shrink_s1.0_k1.5_q0.2,conf_shrink,1.0,1.5,0.2,-0.03723471499324545,0.04271421148592969
0.04416567610601052,0.012541265226900578,0.04696977138519287,0.06221655011177063,0.1637521713954835,0.08847712796757383,0.008321614691041443,0.03630206715315584,0.06279760658740997,0.10801902115345001,365,0.5538694992412747,0.5182728099925552,0.19320456683635712,conf_shrink_s1.0_k1.5_q0.3,conf_shrink,1.0,1.5,0.3,-0.03727126869592782,0.04224103259110623
0.044175940454090235,0.01253766193985939,0.046976204961538315,0.062234845012426376,0.16388452312019192,0.08851021589875092,0.008305070725452892,0.036308058351278295,0.06273880243301391,0.10801902115345001,363,0.5508345978755691,0.5182728099925552,0.19320456683635712,conf_shrink_s1.0_k1.5_q0.4,conf_shrink,1.0,1.5,0.4,-0.03726214645638033,0.04239418999157163
0.043926393742181324,0.01251961663365364,0.047031108289957047,0.06230637803673744,0.1641326826040202,0.08887418314169906,0.008305070725452892,0.036361149698495875,0.06261061996221542,0.10801902115345001,358,0.543247344461305,0.5182728099925552,0.19320456683635712,conf_shrink_s1.0_k1.5_q0.5,conf_shrink,1.0,1.5,0.5,-0.037274803684352924,0.04212516372655384
0.043700133312483125,0.012525277212262154,0.04703684151172638,0.0623614639043808,0.1643312101910828,0.08898999090081892,0.008288526759864339,0.036361149698495875,0.06259547993540764,0.10801902115345001,358,0.543247344461305,0.5182728099925552,0.19319310784339905,conf_shrink_s1.0_k1.5_q0.6,conf_shrink,1.0,1.5,0.6,-0.03737861142763155,0.04030635520385906
0.0444364087881739,0.012540364637970924,0.04695116728544235,0.0622020959854126,0.1636529076019522,0.08847712796757383,0.008338158656629993,0.0362396590411663,0.0627962863445282,0.10801902115345001,364,0.5523520485584219,0.5182728099925552,0.19320456683635712,conf_shrink_s1.0_k2.0_q0.2,conf_shrink,1.0,2.0,0.2,-0.03723471499324545,0.04271421148592969
0.04416567610601052,0.012541265226900578,0.04696977138519287,0.06221655011177063,0.1637521713954835,0.08847712796757383,0.008321614691041443,0.03630206715315584,0.06279760658740997,0.10801902115345001,365,0.5538694992412747,0.5182728099925552,0.19320456683635712,conf_shrink_s1.0_k2.0_q0.3,conf_shrink,1.0,2.0,0.3,-0.03727126869592782,0.04224103259110623
0.044175940454090235,0.01253766193985939,0.046976204961538315,0.062234845012426376,0.16388452312019192,0.08851021589875092,0.008305070725452892,0.036308058351278295,0.06273880243301391,0.10801902115345001,363,0.5508345978755691,0.5182728099925552,0.19320456683635712,conf_shrink_s1.0_k2.0_q0.4,conf_shrink,1.0,2.0,0.4,-0.03726214645638033,0.04239418999157163
0.043926393742181324,0.01251961663365364,0.047031108289957047,0.06230637803673744,0.1641326826040202,0.08887418314169906,0.008305070725452892,0.036361149698495875,0.06261061996221542,0.10801902115345001,358,0.543247344461305,0.5182728099925552,0.19320456683635712,conf_shrink_s1.0_k2.0_q0.5,conf_shrink,1.0,2.0,0.5,-0.037274803684352924,0.04212516372655384
0.043700133312483125,0.012525277212262154,0.04703684151172638,0.0623614639043808,0.1643312101910828,0.08898999090081892,0.008288526759864339,0.036361149698495875,0.06259547993540764,0.10801902115345001,358,0.543247344461305,0.5182728099925552,0.19319310784339905,conf_shrink_s1.0_k2.0_q0.6,conf_shrink,1.0,2.0,0.6,-0.03737861142763155,0.04030635520385906
0.04713999952547765,0.012541607022285461,0.046744879335165024,0.062033798545598984,0.1631400446687071,0.08768301761932336,0.009099181073703366,0.0362222969532013,0.06287129431962968,0.1120190218091011,365,0.5538694992412747,0.5182728099925552,0.21252503991127014,conf_shrink_s1.1_kNone_q0.2,conf_shrink,1.1,,0.2,-0.03725241383917205,0.04210142027235442
0.047029182124735947,0.01254059374332428,0.04675526171922684,0.06203801929950714,0.1631400446687071,0.0876995615849119,0.009082637108114815,0.03622567653656006,0.06287368014454842,0.1120190218091011,364,0.5523520485584219,0.5182728099925552,0.21252503991127014,conf_shrink_s1.1_kNone_q0.3,conf_shrink,1.1,,0.3,-0.03729273629412818,0.041578966639554626
0.04707947100584331,0.012534908950328827,0.04676283895969391,0.06206898391246796,0.16335511622135826,0.08774919348167756,0.009066093142526264,0.03647962585091593,0.0626604138314724,0.1120190218091011,362,0.5493171471927162,0.5182728099925552,0.21252503991127014,conf_shrink_s1.1_kNone_q0.4,conf_shrink,1.1,,0.4,-0.037276224740469585,0.04179944541930525
0.046324436037947114,0.01252773031592369,0.04683411121368408,0.062132686376571655,0.16355364380842088,0.08816279262139134,0.009049549176937711,0.0362222969532013,0.0625478447973728,0.1120190218091011,357,0.5417298937784522,0.5182728099925552,0.21252503991127014,conf_shrink_s1.1_kNone_q0.5,conf_shrink,1.1,,0.5,-0.03729037467021053,0.04147182144060502
0.04633091982450532,0.01253419741988182,0.046820688992738724,0.06221019849181175,0.16383489122342626,0.08837786417404252,0.00903300521134916,0.03633904680609702,0.06251190409064292,0.1120190218091011,360,0.5462822458270106,0.5182728099925552,0.21251241862773895,conf_shrink_s1.1_kNone_q0.6,conf_shrink,1.1,,0.6,-0.03740014617327544,0.03959346236850203
0.03873132400754942,0.012532643042504787,0.047396667301654816,0.0618877150118351,0.16658118951112583,0.08943667797170982,0.00860286210604682,0.036629026755690595,0.06280831895768643,0.09612683951854706,368,0.5584218512898331,0.5182728099925552,0.2059585601091385,conf_shrink_s1.1_k0.5_q0.2,conf_shrink,1.1,0.5,0.2,-0.037600098449534464,0.036915839101061776
0.0384085431241461,0.012529194355010986,0.04742789641022682,0.0618877150118351,0.16658118951112583,0.08945322193729838,0.008586318140458267,0.036643251776695265,0.06280831895768643,0.09612683951854706,367,0.5569044006069803,0.5182728099925552,0.2059585601091385,conf_shrink_s1.1_k0.5_q0.3,conf_shrink,1.1,0.5,0.3,-0.03762172682012679,0.036462043511091946
0.037717723341107234,0.012525269761681557,0.04748782142996788,0.0619329959154129,0.16679626106377698,0.08950285383406402,0.008569774174869716,0.03680706024169921,0.06253126993775368,0.09612683951854706,365,0.5538694992412747,0.5182728099925552,0.2059585601091385,conf_shrink_s1.1_k0.5_q0.4,conf_shrink,1.1,0.5,0.4,-0.037610455554963756,0.036696030336538676
0.03734785099268123,0.012519093230366707,0.04752805456519127,0.061989232897758484,0.1669947886508396,0.08991645297377782,0.008553230209281166,0.03665580898523333,0.06253160133957864,0.09612683951854706,360,0.5462822458270106,0.5182728099925552,0.2059585601091385,conf_shrink_s1.1_k0.5_q0.5,conf_shrink,1.1,0.5,0.5,-0.03761696494882655,0.03646036342265657
0.03738725284498734,0.012523201294243336,0.04751686751842499,0.06204129010438919,0.16727603606584499,0.09013152452642899,0.008536686243692613,0.036817898973822615,0.06226104244589807,0.09612683951854706,363,0.5508345978755691,0.5182728099925552,0.20588284730911255,conf_shrink_s1.1_k0.5_q0.6,conf_shrink,1.1,0.5,0.6,-0.0377002045260297,0.03507760013676364
0.04712582612620331,0.01253923773765564,0.046750687062740326,0.062012821435928345,0.16404996277607742,0.08771610555050045,0.008950285383406403,0.03622567653656006,0.06287129431962968,0.10593256056308746,367,0.5569044006069803,0.5182728099925552,0.21251487731933594,conf_shrink_s1.1_k0.75_q0.2,conf_shrink,1.1,0.75,0.2,-0.03733341847840207,0.03997978506820565
0.04711634754189098,0.012535955756902695,0.04675796627998352,0.06201407313346863,0.16404996277607742,0.087732649516089,0.008933741417817852,0.036487484723329536,0.06287368014454842,0.10593256056308746,366,0.5553869499241275,0.5182728099925552,0.21251487731933594,conf_shrink_s1.1_k0.75_q0.3,conf_shrink,1.1,0.75,0.3,-0.03737546410343913,0.0394868525083526
0.04705246840694688,0.012531135231256485,0.04677242040634155,0.062033798545598984,0.1642650343287286,0.08778228141285466,0.008917197452229299,0.036487484723329536,0.0626604138314724,0.10593256056308746,364,0.5523520485584219,0.5182728099925552,0.21251487731933594,conf_shrink_s1.1_k0.75_q0.4,conf_shrink,1.1,0.75,0.4,-0.03736777818685152,0.03954281056405251
0.04636412452106131,0.012524324469268322,0.046837933361530304,0.06209496781229973,0.16446356191579123,0.08819588055256845,0.008900653486640748,0.03622567653656006,0.0625478447973728,0.10593256056308746,359,0.5447647951441578,0.5182728099925552,0.21251487731933594,conf_shrink_s1.1_k0.75_q0.5,conf_shrink,1.1,0.75,0.5,-0.03738035339583719,0.03925799685480014
0.04627079159961989,0.012529752217233181,0.04683411121368408,0.06216786429286003,0.1647448093307966,0.08841095210521963,0.008884109521052196,0.0364412173628807,0.06251190409064292,0.10593256056308746,362,0.5493171471927162,0.5182728099925552,0.21249569952487946,conf_shrink_s1.1_k0.75_q0.6,conf_shrink,1.1,0.75,0.6,-0.03747262371569562,0.0378022557796599
