nhaTahn/data_stock_market/data/processed/assets/data_info_vn/history/training_runs/reports/multimarket_context_adapter_probe_20260525/fold_metrics.csv
n,rel_score,absE_robust,base_robust,absE_q90,DA,pred_actual_q90_ratio,market,model,fold_id,test_start,test_end,alpha_rel_score,alpha_absE_robust
1908,0.0028002107731605053,0.04583279417129233,0.045961496047675604,0.06212327538523822,0.4879454926624738,0.03526230050399388,VN,ridge_portable,0,2020-04-01,2020-05-04,-0.005508663595102936,0.0360739030293189
1922,0.009355719304383281,0.03252942063845696,0.03283663094043732,0.040938200510572675,0.5530697190426639,0.05173223255627657,VN,ridge_portable,1,2020-05-05,2020-06-02,-0.0013105425844310847,0.028746541906730278
1916,-0.0025758070668067123,0.036945411295164376,0.03685049153864384,0.047536295489408076,0.4498956158663883,0.03610926462333058,VN,ridge_portable,2,2020-06-03,2020-07-01,-0.0038063408133579557,0.027535673521924764
1905,-0.023262510773648826,0.03464466559817084,0.03385706525295973,0.04795534459408373,0.3585301837270341,0.030871726468386266,VN,ridge_portable,3,2020-07-02,2020-07-30,-0.002739650546267347,0.02193157052388415
1910,0.001355835584089582,0.02460721103270771,0.024640619661659004,0.030761336255818606,0.49214659685863876,0.04216456014953985,VN,ridge_portable,4,2020-07-31,2020-08-28,-0.0041376160970436615,0.021120413095923142
1925,-0.005794408686625063,0.021609209898451817,0.021484718658030033,0.02726924736343791,0.4903896103896104,0.05405584117680116,VN,ridge_portable,5,2020-08-31,2020-09-29,0.0036852568180187895,0.020317300385795538
1927,-0.012785673116466612,0.02494897369178944,0.024634011276066303,0.03140232290606947,0.43227815256875973,0.04609936467298256,VN,ridge_portable,6,2020-09-30,2020-10-28,-0.0024143239118188387,0.02289474334684201
1906,0.002063692788461635,0.025086968671530485,0.025138847529888153,0.03246561111882329,0.5068205666316894,0.04625833285373161,VN,ridge_portable,7,2020-10-29,2020-11-26,-0.005114921424758334,0.023795577937562484
1914,0.009784152299131543,0.031359573840745725,0.03166943239048124,0.040022809989750385,0.512539184952978,0.04741142830960855,VN,ridge_portable,8,2020-11-27,2020-12-25,-0.0006232317787184805,0.028880996943917124
1920,-0.0035391370115620546,0.042875572657794694,0.0427243652753532,0.05826525575830602,0.5078125,0.04200321438535466,VN,ridge_portable,9,2020-12-28,2021-01-26,0.008151914455560183,0.03166338713781443
1921,0.005071209860605275,0.05030589702073485,0.050562309101223946,0.06644322909414768,0.45809474232170744,0.027658769772238283,VN,ridge_portable,10,2021-01-27,2021-03-03,0.0001291555334236305,0.02880547079257667
1930,0.009315451179251255,0.025280487825511972,0.025518201384693386,0.03136495672515597,0.4626943005181347,0.05041497989773983,VN,ridge_portable,11,2021-03-04,2021-04-01,0.010510258215081336,0.021660966779745654
1929,-0.007090474669644298,0.031512874219333756,0.03129100613296032,0.03892600847175345,0.3960601347848626,0.03755144289142345,VN,ridge_portable,12,2021-04-02,2021-05-05,-0.004694593736086272,0.025654945621499795
1926,0.0009563125821037133,0.03388280628132634,0.0339152398519218,0.04146470263367519,0.5254413291796469,0.043443873339900255,VN,ridge_portable,13,2021-05-06,2021-06-03,0.01641259711019627,0.0317314944404643
1928,0.00586128462763591,0.03156109420524444,0.03174717342481017,0.03995287296129389,0.47977178423236516,0.0465804800671195,VN,ridge_portable,14,2021-06-04,2021-07-02,0.0013611761668966826,0.029073365175281647
1929,-0.002924239320212685,0.042584345670184126,0.04246018193662167,0.05453760687960313,0.3799896319336444,0.02848616024205007,VN,ridge_portable,15,2021-07-05,2021-08-02,-0.003268068246185196,0.0322821373178158
1939,0.001138781678203915,0.03318162975483574,0.03321945946663618,0.042818643094506115,0.4981949458483754,0.04553672003924663,VN,ridge_portable,16,2021-08-03,2021-08-31,0.003066032340584668,0.029405348125146703
1945,-0.006205874177071857,0.029882106863078663,0.029697806015610697,0.03642278157058172,0.42622107969151674,0.04085563276928793,VN,ridge_portable,17,2021-09-01,2021-10-01,0.0029464425080240053,0.02672766308533028
1946,0.004271265500029875,0.02587458584457636,0.025985577143728733,0.03308770130388439,0.499486125385406,0.04768131844539898,VN,ridge_portable,18,2021-10-04,2021-11-01,-0.0049386640952344685,0.025223307398846373
1949,-0.0018379472658727192,0.04138969006889966,0.04131375756114722,0.05339821444940754,0.495638789122627,0.04374109352732514,VN,ridge_portable,19,2021-11-02,2021-11-30,-0.005688357999162452,0.039795511326519775
1951,-0.012733337710816306,0.03625507885590196,0.035799235105514526,0.04612940549850464,0.4982060481804203,0.03868296548066061,VN,ridge_portable,20,2021-12-01,2021-12-29,0.004217691828242165,0.03168065450154245
1931,0.006516737227392433,0.04962739231996238,0.04995292238891125,0.06651875772513449,0.48265147591921287,0.02548146813876408,VN,ridge_portable,21,2021-12-30,2022-01-28,0.0006630538369066796,0.0387030626880005
1945,-0.005575637776599418,0.03144123324891554,0.03126690033823252,0.039090322586707804,0.44781491002570695,0.040320529262940615,VN,ridge_portable,22,2022-02-07,2022-03-07,-0.008012564708251624,0.028138482407666747
1951,0.006777045972760964,0.02945157006615773,0.02965252660214901,0.03720913827419281,0.49974372116863147,0.03965390805265351,VN,ridge_portable,23,2022-03-08,2022-04-05,-0.0010213517761934465,0.027855835331138223
1950,0.005868300902635459,0.0555221977410838,0.05584994200617075,0.06794872612226754,0.46923076923076923,0.025203415498672145,VN,ridge_portable,24,2022-04-06,2022-05-09,0.003087378733699464,0.038637525856029246
1947,0.0034799483944579768,0.05173995746299625,0.051920638605952266,0.06781729581998662,0.49768875192604006,0.02494464629162325,VN,ridge_portable,25,2022-05-10,2022-06-07,0.01224291111265996,0.03568524781730958
1951,0.0034860881260627696,0.05501585501770023,0.05520831607282162,0.06824851504643448,0.4766786263454639,0.027509014791046824,VN,ridge_portable,26,2022-06-08,2022-07-06,-0.0024744565491230386,0.04135749174747616
1949,0.0020513236436036086,0.03246137375826948,0.03252809941768647,0.041180428548250346,0.48024628014366344,0.04189091311463464,VN,ridge_portable,27,2022-07-07,2022-08-04,-0.0005974123908152329,0.028136810520663857
1950,-0.006318817468887961,0.02614563758543228,0.025981465447694082,0.032347074878634904,0.438974358974359,0.049440734589718364,VN,ridge_portable,28,2022-08-05,2022-09-06,0.006459276491285415,0.023615104224882097
1952,0.002753295629536523,0.047590640545240606,0.047722033411264436,0.06342313938657754,0.45081967213114754,0.023314806055287147,VN,ridge_portable,29,2022-09-07,2022-10-05,-0.0027930532516522444,0.03169381505213096
1949,0.011696419760176435,0.054453863040544094,0.05509831607341766,0.06793780433945358,0.49923037455105185,0.024581596555991306,VN,ridge_portable,30,2022-10-06,2022-11-03,0.008441691044928423,0.03979497588006779
734,0.0020038827959241168,0.07780577618686949,0.07796200290322304,0.06958351481007412,0.4891008174386921,0.034994942660556964,VN,ridge_portable,31,2022-11-04,2022-11-15,-0.0062654020368795305,0.04924184602277819
1908,0.0064600040743831855,0.04566458459594287,0.045961496047675604,0.061317745386622845,0.49947589098532497,0.06365576388303494,VN,ridge_context_adapter,0,2020-04-01,2020-05-04,-0.002611340807203044,0.035969957886845795
1922,0.006149561629362421,0.03263470005476847,0.03283663094043732,0.040875607379712166,0.5187304890738814,0.09218374867934742,VN,ridge_context_adapter,1,2020-05-05,2020-06-02,-0.0023663934309976487,0.02877685424173251
1916,0.002166206227569911,0.036770665774383815,0.03685049153864384,0.04757791173324222,0.46659707724425886,0.07349212297129973,VN,ridge_context_adapter,2,2020-06-03,2020-07-01,-0.009330426821509308,0.027687206165865064
1905,-0.027540899360387838,0.03478951927972958,0.03385706525295973,0.04765226158779116,0.4146981627296588,0.07256435749206168,VN,ridge_context_adapter,3,2020-07-02,2020-07-30,-0.0006338743300413618,0.021885513723827903
1910,0.005639058601371816,0.024501669763412795,0.024640619661659004,0.030515151238068947,0.4654450261780105,0.09929980142809536,VN,ridge_context_adapter,4,2020-07-31,2020-08-28,0.00714162823811848,0.02088317240704783
1925,-0.01040251507962564,0.021708213767851703,0.021484718658030033,0.027047338051488623,0.4535064935064935,0.10813986774951082,VN,ridge_context_adapter,5,2020-08-31,2020-09-29,-0.0011190130636837825,0.020415271227830094
1927,-0.008736160628111111,0.024849217955488716,0.024634011276066303,0.03108632701914758,0.45407368967306694,0.0853370107566462,VN,ridge_context_adapter,6,2020-09-30,2020-10-28,0.0054110414419275,0.02271601512329654
1906,-0.0033655107137200435,0.025223452590580564,0.025138847529888153,0.03208251761680003,0.49055613850996854,0.09920585241362354,VN,ridge_context_adapter,7,2020-10-29,2020-11-26,-0.002549116459534595,0.02373483382689301
1914,0.0017974825790815219,0.03161250713746995,0.03166943239048124,0.04007153203710914,0.49895506792058514,0.09867882312861964,VN,ridge_context_adapter,8,2020-11-27,2020-12-25,0.007337699552613319,0.02865122051443905
1920,0.006878956689279736,0.042430466217047075,0.0427243652753532,0.057705233749584306,0.5130208333333334,0.06984537253314474,VN,ridge_context_adapter,9,2020-12-28,2021-01-26,-0.0014857528720206847,0.031971056423208216
1921,0.01722636456010851,0.04969130433164537,0.050562309101223946,0.06535195140168071,0.4409161894846434,0.06942920136080107,VN,ridge_context_adapter,10,2021-01-27,2021-03-03,0.002511093588292934,0.028736849082633853
1930,0.007913713850626891,0.02531625764095225,0.025518201384693386,0.03195346711436288,0.4989637305699482,0.0864083713574928,VN,ridge_context_adapter,11,2021-03-04,2021-04-01,0.02527283265770841,0.021337798563763506
1929,-0.022683966344947626,0.03200081026297994,0.03129100613296032,0.03902969114715234,0.3737687921202696,0.07320996854654442,VN,ridge_context_adapter,12,2021-04-02,2021-05-05,0.003797060239254968,0.025438110652612526
1926,-0.00024427822482309125,0.03392352460650727,0.0339152398519218,0.04085273313103244,0.5088265835929388,0.08703761116040305,VN,ridge_context_adapter,13,2021-05-06,2021-06-03,0.013305849555648397,0.031831721164053306
1928,0.003852860079244458,0.03162485600769287,0.03174717342481017,0.03976390908646863,0.4636929460580913,0.07733273672960822,VN,ridge_context_adapter,14,2021-06-04,2021-07-02,-0.006218855145197377,0.029294042574474582
1929,-0.013221759784063147,0.0430215802625753,0.04246018193662167,0.05486386141274125,0.42457231726283046,0.05873902119520423,VN,ridge_context_adapter,15,2021-07-05,2021-08-02,0.002834347015913341,0.032085780019406235
1939,0.00977372011641553,0.03289478176739067,0.03321945946663618,0.042643981007859114,0.48323878287777206,0.07314172466146827,VN,ridge_context_adapter,16,2021-08-03,2021-08-31,0.0014131136446072778,0.029454102256568155
1945,-0.0065311060698483026,0.029891765536740427,0.029697806015610697,0.03639959224965424,0.4287917737789203,0.07238423454953427,VN,ridge_context_adapter,17,2021-09-01,2021-10-01,0.001093155208764296,0.02677734350436367
1946,0.0227953923117723,0.025393225718289614,0.025985577143728733,0.03252241399604827,0.527235354573484,0.0936929824977179,VN,ridge_context_adapter,18,2021-10-04,2021-11-01,0.004392298002220518,0.024989106314023957
1949,-0.015870204908895458,0.041969415359199055,0.04131375756114722,0.05405006483197213,0.4715238583889174,0.07029108487429928,VN,ridge_context_adapter,19,2021-11-02,2021-11-30,-0.0015313880049694362,0.03963101827539504
1951,-0.004430498621574186,0.035957843567302916,0.035799235105514526,0.04552775116462726,0.47206560738083037,0.06033178964537835,VN,ridge_context_adapter,20,2021-12-01,2021-12-29,0.00858430563821988,0.031541731383185834
1931,0.013687043573763602,0.04926921456353739,0.04995292238891125,0.06532384047750384,0.45261522527187986,0.045763103321429376,VN,ridge_context_adapter,21,2021-12-30,2022-01-28,-0.0006849421613781548,0.038755268877139315
1945,-0.00983645539443323,0.03157445580873173,0.03126690033823252,0.039137471042340624,0.4370179948586118,0.0715495759638628,VN,ridge_context_adapter,22,2022-02-07,2022-03-07,-0.010390887892286482,0.028204872854985307
1951,0.009924280975018296,0.02935824659653008,0.02965252660214901,0.037088433746248484,0.4843669912865197,0.07712494667150045,VN,ridge_context_adapter,23,2022-03-08,2022-04-05,-0.005970237771715903,0.027993550029350445
1950,0.013609607257510592,0.055089846230112025,0.05584994200617075,0.0669699110556394,0.5297435897435897,0.05612500645553356,VN,ridge_context_adapter,24,2022-04-06,2022-05-09,-0.007917659757107565,0.03906405015732162
1947,0.01496669055106592,0.05114355847472325,0.051920638605952266,0.06650407568085939,0.5064201335387776,0.0645211450364431,VN,ridge_context_adapter,25,2022-05-10,2022-06-07,0.014771074757075286,0.03559391144808615
1951,0.014555635931881805,0.054404723923653364,0.05520831607282162,0.066988255828619,0.5140953357252691,0.06342263196840218,VN,ridge_context_adapter,26,2022-06-08,2022-07-06,-0.002955494981495166,0.04137733718380332
1949,-0.01134536656896823,0.03289714262937196,0.03252809941768647,0.041647450870368634,0.4448435094920472,0.08664095154838836,VN,ridge_context_adapter,27,2022-07-07,2022-08-04,0.0010523361280131427,0.02809041957370937
1950,-0.017529816115549268,0.026436915759404656,0.025981465447694082,0.032581337363808416,0.4676923076923077,0.07991789813743878,VN,ridge_context_adapter,28,2022-08-05,2022-09-06,0.005015518423464593,0.023649420379661036
1952,0.00399419452745553,0.04753142232657411,0.047722033411264436,0.0627136927447282,0.4733606557377049,0.05813465153714125,VN,ridge_context_adapter,29,2022-09-07,2022-10-05,-0.0053215278219864715,0.03177372885402292
1949,0.015742163559122946,0.05423094936995767,0.05509831607341766,0.06691879807040095,0.5094920472036942,0.06791794962158951,VN,ridge_context_adapter,30,2022-10-06,2022-11-03,-0.004414275922046684,0.04031093433732167
734,-0.007621440650869671,0.07855618568137289,0.07796200290322304,0.0686498013790697,0.5967302452316077,0.09008290409048389,VN,ridge_context_adapter,31,2022-11-04,2022-11-15,-0.010421036154405039,0.04944520300487057
1908,0.0,0.045961496047675604,0.045961496047675604,0.06237320527434348,0.10167714884696016,0.0,VN,zero,0,2020-04-01,2020-05-04,0.0,0.03587627271190286
1922,0.0,0.03283663094043732,0.03283663094043732,0.0416666679084301,0.09521331945889698,0.0,VN,zero,1,2020-05-05,2020-06-02,0.0,0.028708917647600175
1916,0.0,0.03685049153864384,0.03685049153864384,0.04805994778871536,0.09133611691022965,0.0,VN,zero,2,2020-06-03,2020-07-01,0.0,0.02743126079440117
1905,0.0,0.03385706525295973,0.03385706525295973,0.04701206088066101,0.10971128608923884,0.0,VN,zero,3,2020-07-02,2020-07-30,0.0,0.021871649846434596
1910,0.0,0.024640619661659004,0.024640619661659004,0.030705350264906887,0.11047120418848168,0.0,VN,zero,4,2020-07-31,2020-08-28,0.0,0.021033385023474696
1925,0.0,0.021484718658030033,0.021484718658030033,0.027344515547156337,0.11324675324675325,0.0,VN,zero,5,2020-08-31,2020-09-29,0.0,0.020392451807856562
1927,0.0,0.024634011276066303,0.024634011276066303,0.03125000409781933,0.11105345096004152,0.0,VN,zero,6,2020-09-30,2020-10-28,0.0,0.022839601151645187
1906,0.0,0.025138847529888153,0.025138847529888153,0.032590994611382484,0.10703043022035677,0.0,VN,zero,7,2020-10-29,2020-11-26,0.0,0.023674484807997942
1914,0.0,0.03166943239048124,0.03166943239048124,0.04070146866142751,0.08098223615464994,0.0,VN,zero,8,2020-11-27,2020-12-25,0.0,0.02886300859972835
1920,0.0,0.0427243652753532,0.0427243652753532,0.058246866613626484,0.07447916666666667,0.0,VN,zero,9,2020-12-28,2021-01-26,0.0,0.03192362580448389
1921,0.0,0.050562309101223946,0.050562309101223946,0.06756764650344849,0.06454971369078605,0.0,VN,zero,10,2021-01-27,2021-03-03,0.0,0.028809191659092903
1930,0.0,0.025518201384693386,0.025518201384693386,0.03208800703287125,0.08031088082901554,0.0,VN,zero,11,2021-03-04,2021-04-01,0.0,0.02189104733988643
1929,0.0,0.03129100613296032,0.03129100613296032,0.038966163992881775,0.08761016070502851,0.0,VN,zero,12,2021-04-02,2021-05-05,0.0,0.025535068847239016
1926,0.0,0.0339152398519218,0.0339152398519218,0.04160251282155514,0.0612668743509865,0.0,VN,zero,13,2021-05-06,2021-06-03,0.0,0.03226098092272878
1928,0.0,0.03174717342481017,0.03174717342481017,0.04031158126890659,0.0700207468879668,0.0,VN,zero,14,2021-06-04,2021-07-02,0.0,0.029112993087619544
1929,0.0,0.04246018193662167,0.04246018193662167,0.05415119081735612,0.05443234836702955,0.0,VN,zero,15,2021-07-05,2021-08-02,0.0,0.03217698074877262
1939,0.0,0.03321945946663618,0.03321945946663618,0.04341262206435204,0.06549767921609077,0.0,VN,zero,16,2021-08-03,2021-08-31,0.0,0.029495783150196075
1945,0.0,0.029697806015610697,0.029697806015610697,0.036229670792818074,0.07043701799485862,0.0,VN,zero,17,2021-09-01,2021-10-01,0.0,0.02680664733052254
1946,0.0,0.025985577143728733,0.025985577143728733,0.03340298309922218,0.08941418293936279,0.0,VN,zero,18,2021-10-04,2021-11-01,0.0,0.02509935013949871
1949,0.0,0.04131375756114722,0.04131375756114722,0.05353931784629822,0.049769112365315546,0.0,VN,zero,19,2021-11-02,2021-11-30,0.0,0.03957042060792446
1951,0.0,0.035799235105514526,0.035799235105514526,0.045454591512680054,0.05996924654023578,0.0,VN,zero,20,2021-12-01,2021-12-29,0.0,0.03181483969092369
1931,0.0,0.04995292238891125,0.04995292238891125,0.06738550215959549,0.04816157431382703,0.0,VN,zero,21,2021-12-30,2022-01-28,0.0,0.03872874192893505
1945,0.0,0.03126690033823252,0.03126690033823252,0.038818258047103885,0.06323907455012853,0.0,VN,zero,22,2022-02-07,2022-03-07,0.0,0.02791481316089631
1951,0.0,0.02965252660214901,0.02965252660214901,0.03719806671142578,0.05586878523833931,0.0,VN,zero,23,2022-03-08,2022-04-05,0.0,0.027827413752675056
1950,0.0,0.05584994200617075,0.05584994200617075,0.06887322217226029,0.05076923076923077,0.0,VN,zero,24,2022-04-06,2022-05-09,0.0,0.038757183961570275
1947,0.0,0.051920638605952266,0.051920638605952266,0.06878302842378617,0.06111967128916281,0.0,VN,zero,25,2022-05-10,2022-06-07,0.0,0.03612755425274372
1951,0.0,0.05520831607282162,0.05520831607282162,0.0687500387430191,0.04561763198359815,0.0,VN,zero,26,2022-06-08,2022-07-06,0.0,0.0412554070353508
1949,0.0,0.03252809941768647,0.03252809941768647,0.04134930074214936,0.07850179579271421,0.0,VN,zero,27,2022-07-07,2022-08-04,0.0,0.028120011277496818
1950,0.0,0.025981465447694082,0.025981465447694082,0.03228429630398754,0.06923076923076923,0.0,VN,zero,28,2022-08-05,2022-09-06,0.0,0.023768632393330342
1952,0.0,0.047722033411264436,0.047722033411264436,0.06371311321854595,0.061987704918032786,0.0,VN,zero,29,2022-09-07,2022-10-05,0.0,0.031605539098382
1949,0.0,0.05509831607341766,0.05509831607341766,0.06877655982971191,0.06977937403796819,0.0,VN,zero,30,2022-10-06,2022-11-03,0.0,0.040133772790431975
734,0.0,0.07796200290322304,0.07796200290322304,0.06956348791718484,0.0326975476839237,0.0,VN,zero,31,2022-11-04,2022-11-15,0.0,0.04893524702638388
1869,0.006425231769452533,0.05072406271938235,0.05105208419263363,0.057329981354996576,0.5639379347244515,0.07932039294271549,US,ridge_portable,0,2020-04-01,2020-04-30,0.0007316513868536045,0.03345174222486094
1869,0.009635615381793805,0.0334866986842826,0.0338125029578805,0.03963020709343255,0.5254146602461209,0.0860282431593617,US,ridge_portable,1,2020-05-01,2020-06-01,-0.005069977429040584,0.027861832862254233
1869,0.0008003903240335619,0.037481616274453705,0.03751164022833109,0.04592312097083779,0.4917067950775816,0.07406372228945945,US,ridge_portable,2,2020-06-02,2020-06-30,-0.00017083430964714985,0.02450952833751217
1869,0.0023417206295102133,0.02506177098257467,0.025120596401393414,0.02963536826428026,0.5815944355270198,0.08779050606029672,US,ridge_portable,3,2020-07-01,2020-07-30,0.00669938928396141,0.021779224055353555
1868,0.003600510284360481,0.020715372724225745,0.02079022815451026,0.02487255987944081,0.5583511777301927,0.08356600819980119,US,ridge_portable,4,2020-07-31,2020-08-28,-0.008919110625101867,0.019886678498005492
1869,0.004577318067342517,0.028682891116477552,0.028814785555005076,0.03304888019338251,0.5660781166399144,0.0899227534948419,US,ridge_portable,5,2020-08-31,2020-09-29,-0.021628267727926476,0.0204910111380741
1869,0.0076284414775082965,0.026504525542259218,0.026708268001675608,0.03108495539054275,0.5420010700909578,0.07343486337070786,US,ridge_portable,6,2020-09-30,2020-10-28,-4.147766376805251e-06,0.018810575432144108
1867,-0.027904179215360703,0.03198315175250173,0.031114915572106844,0.03871490051969886,0.5099089448312801,0.0883637867156179,US,ridge_portable,7,2020-10-29,2020-11-27,-0.013566608986793405,0.027162184775806966
1869,-0.00844329546007061,0.018822175660170616,0.018664585053920747,0.02238829289563001,0.5147137506688069,0.1060723971046325,US,ridge_portable,8,2020-11-30,2020-12-29,0.013248290490284198,0.016748491604812444
1869,0.007409053807084565,0.026557641662657262,0.026755877397954465,0.031000327505171302,0.5436062065275549,0.08547703140725732,US,ridge_portable,9,2020-12-30,2021-01-29,-0.018726647042441646,0.021827167575247587
1869,0.0020727437917905656,0.024456696142442527,0.024507493898272517,0.02943280716426671,0.5050829320492242,0.07432533086334542,US,ridge_portable,10,2021-02-01,2021-03-02,-0.018853758313847724,0.020924452948383986
1869,-0.0024682959075643662,0.02455800710013136,0.024497539922595023,0.028469443134963513,0.5147137506688069,0.08308336023894974,US,ridge_portable,11,2021-03-03,2021-03-31,-0.004706676999872261,0.02183149867341854
1869,0.007630996917643018,0.01843815518077463,0.018579938635230067,0.021313609322533015,0.5500267522739433,0.08133009818971669,US,ridge_portable,12,2021-04-01,2021-04-30,0.002333413923724992,0.01574400420067832
1869,-0.0054195926243412185,0.019266266701743008,0.019162414222955705,0.02298993729054928,0.4751203852327448,0.08439806859822921,US,ridge_portable,13,2021-05-03,2021-06-01,-0.0027289749070968927,0.014990733860759066
1869,0.00519964339255774,0.017149837053148077,0.017239476181566717,0.02028355597285554,0.5093632958801498,0.08891051415145906,US,ridge_portable,14,2021-06-02,2021-06-30,-0.009219870071698777,0.014752955787116662
1869,-0.014769416199922558,0.019500928744673733,0.019217103347182275,0.024057099688798194,0.50187265917603,0.08563444978357135,US,ridge_portable,15,2021-07-01,2021-07-30,0.00292094492662176,0.015896300534950572
1869,-0.0032497617199884754,0.017187114187981932,0.017131441086530686,0.019978652172721923,0.5243445692883895,0.08706316378501956,US,ridge_portable,16,2021-08-02,2021-08-30,-0.007645659533091376,0.014841676427749917
1869,-0.008471237676203502,0.01934590422315523,0.01918339710682631,0.02304980668704957,0.4665596575708935,0.08513640475765905,US,ridge_portable,17,2021-08-31,2021-09-29,0.0017212211315794645,0.01510097176069394
1869,0.002915618118924823,0.01890864289016463,0.018963934481143956,0.02202004046412185,0.5339753879079722,0.08847239173958314,US,ridge_portable,18,2021-09-30,2021-10-28,-0.012692503748148454,0.015888808947056535
1869,-0.004086402515779408,0.02192350007244386,0.021834276430308823,0.027582999703008683,0.5066880684858213,0.08072084755174781,US,ridge_portable,19,2021-10-29,2021-11-29,-0.004116955026356006,0.0183541743317619
1869,0.0025119229572250212,0.02296676211990416,0.023024598136544228,0.02701799557544291,0.5478865703584804,0.0810928113231144,US,ridge_portable,20,2021-11-30,2021-12-29,-0.01016870481841714,0.017954839995945805
1868,-0.016410599813304616,0.025227286218432707,0.024819975532591337,0.030644834460690613,0.4464668094218415,0.09066462745439276,US,ridge_portable,21,2021-12-30,2022-01-28,-0.01657195375359377,0.0225748834956903
1868,-0.016503574892922757,0.02922463100985624,0.028750150743871928,0.034921001200564204,0.4673447537473233,0.08686494812210656,US,ridge_portable,22,2022-01-31,2022-03-01,0.015570222186000904,0.021423800056800245
1869,-0.0024599043196413817,0.02960644483100623,0.029533794522285464,0.035539821628481155,0.4943820224719101,0.08389268984899169,US,ridge_portable,23,2022-03-02,2022-03-30,-0.0046297090423088605,0.023542034043930474
1868,-0.017786595928698246,0.029423693480202927,0.028909492027014493,0.034866287768818435,0.5096359743040685,0.08934547765521644,US,ridge_portable,24,2022-03-31,2022-04-29,-0.006270834811300308,0.02202138738357462
1868,0.007907866467690261,0.03359201210696483,0.03385977065190673,0.039040588613715954,0.5513918629550322,0.08532366245615484,US,ridge_portable,25,2022-05-02,2022-05-31,0.0019334366436627448,0.023021504563803315
1869,-0.00772768347813102,0.0339851064956747,0.03372449427843094,0.039918906148523094,0.4938469769930444,0.08114302240501958,US,ridge_portable,26,2022-06-01,2022-06-30,-0.007274437480811136,0.02208066752064042
1869,0.004329040871907441,0.026309128385037187,0.026423516869544982,0.031844044337049134,0.5200642054574639,0.08204899622697641,US,ridge_portable,27,2022-07-01,2022-08-01,-0.009487657732674348,0.020888208970427515
1869,-0.011472034342903337,0.023469279491109774,0.023203092813491824,0.02788830944336951,0.48903156768325307,0.08430320021047255,US,ridge_portable,28,2022-08-02,2022-08-30,-0.02602429698093922,0.015900780470110475
1868,-0.022630466047653286,0.02883058734587394,0.028192576207220554,0.031615890981629494,0.43950749464668093,0.0946794987397321,US,ridge_portable,29,2022-08-31,2022-09-29,-0.0054497825098120956,0.017939516478509176
1868,-0.007732845400745925,0.03324555755534675,0.032990447524935004,0.037363847135566175,0.4989293361884368,0.07623082112828186,US,ridge_portable,30,2022-09-30,2022-10-28,-0.00911465657823518,0.01971358582668472
1068,-0.01657299397899137,0.033421886846190324,0.0328770162537694,0.041413120215293024,0.5112359550561798,0.0805025659085909,US,ridge_portable,31,2022-10-31,2022-11-15,-0.01262377759886757,0.02459198339784053
1869,0.020851704236138913,0.04998756123241037,0.05105208419263363,0.05649389452300966,0.6383092562867844,0.1863683628928906,US,ridge_context_adapter,0,2020-04-01,2020-04-30,0.01384755846332475,0.03301267103524879
1869,0.0023129058427987514,0.033734297822229566,0.0338125029578805,0.040140572423115375,0.4938469769930444,0.1460802219931805,US,ridge_context_adapter,1,2020-05-01,2020-06-01,-0.002448595924702701,0.02778916479437612
1869,-0.004911463424147389,0.03769587727729232,0.03751164022833109,0.04653583099134267,0.4478330658105939,0.1475265140501325,US,ridge_context_adapter,2,2020-06-02,2020-06-30,0.009859798345500104,0.02426372425397858
1869,0.012330593081201213,0.024810844549210745,0.025120596401393414,0.028925038373563448,0.536115569823435,0.10276488827804896,US,ridge_context_adapter,3,2020-07-01,2020-07-30,-0.0008054622456281635,0.021943776297848674
1868,-0.004000387906826219,0.02087339713179972,0.02079022815451026,0.02527367255534045,0.49625267665952894,0.07271189381925758,US,ridge_context_adapter,4,2020-07-31,2020-08-28,-0.010481052280129743,0.01991746573476121
1869,0.02391652493963692,0.028125636017648507,0.028814785555005076,0.03258802817435936,0.6008560727661851,0.11311011567798747,US,ridge_context_adapter,5,2020-08-31,2020-09-29,-0.014831604772891138,0.02035468905232847
1869,-0.00983413967991198,0.026970920839812607,0.026708268001675608,0.031575499661266805,0.48635634028892455,0.09310035197319104,US,ridge_context_adapter,6,2020-09-30,2020-10-28,0.009076923170612816,0.018639755970798432
1867,-0.03675538006442025,0.03225855611963198,0.031114915572106844,0.039449250232428325,0.4611676486341725,0.11336270272099451,US,ridge_context_adapter,7,2020-10-29,2020-11-27,-0.013585071975172669,0.027162679558387037
1869,-0.004285463643492138,0.01874457145459019,0.018664585053920747,0.022335696208756424,0.5179240235420011,0.08206372413043952,US,ridge_context_adapter,8,2020-11-30,2020-12-29,-0.0028583488375348853,0.01702187538612634
1869,0.009990245155396482,0.02648857962340117,0.026755877397954465,0.031202378310263162,0.5382557517388978,0.11569557982613711,US,ridge_context_adapter,9,2020-12-30,2021-01-29,-0.0022864105102691212,0.02147492018993944
1869,0.004313655335250299,0.02440177701646462,0.024507493898272517,0.029497227747924626,0.5200642054574639,0.09111883564150525,US,ridge_context_adapter,10,2021-02-01,2021-03-02,-0.00823829322377767,0.020706440502544866
1869,-0.03375218282115,0.025324385368730874,0.024497539922595023,0.02881260830909014,0.45318352059925093,0.0927086966051699,US,ridge_context_adapter,11,2021-03-03,2021-03-31,-0.008435655490783622,0.021912526490632446
1869,-0.0073322277241389955,0.0187161709764041,0.018579938635230067,0.02166532992850989,0.5500267522739433,0.06989835898794798,US,ridge_context_adapter,12,2021-04-01,2021-04-30,0.0017130022173993398,0.01575379481073469
1869,-0.0054606961499852336,0.019267054344527423,0.019162414222955705,0.022809432144276796,0.4794007490636704,0.08156015711261175,US,ridge_context_adapter,13,2021-05-03,2021-06-01,-0.008470115356289387,0.015076563542243094
1869,-0.005836191191229467,0.017340089060598987,0.017239476181566717,0.020374566689133646,0.5254146602461209,0.08744313006757962,US,ridge_context_adapter,14,2021-06-02,2021-06-30,-0.005630455048171834,0.014700485079083591
1869,-0.030036356048390278,0.019794315105536954,0.019217103347182275,0.024425640248227864,0.43552701979668274,0.0924882320897007,US,ridge_context_adapter,15,2021-07-01,2021-07-30,-0.00032128023588473553,0.015947990905260667
1869,0.008907704104163416,0.016978839278453964,0.017131441086530686,0.01964429611107335,0.5243445692883895,0.0906895471697744,US,ridge_context_adapter,16,2021-08-02,2021-08-30,-0.0016044288786283278,0.014752694760682063
1869,0.008717409749243954,0.019016167573863645,0.01918339710682631,0.02258011096855626,0.49919743178170145,0.07707204552990288,US,ridge_context_adapter,17,2021-08-31,2021-09-29,0.0073962466336545685,0.015015125600621104
1869,-0.002945309837613097,0.01901978914393112,0.018963934481143956,0.02200382836163044,0.5377207062600321,0.08057711423562282,US,ridge_context_adapter,18,2021-09-30,2021-10-28,0.0005849229542782552,0.015680490533122794
1869,0.01048107799270137,0.021605429676128555,0.021834276430308823,0.027017388551030315,0.4954521134296415,0.07204689803165619,US,ridge_context_adapter,19,2021-10-29,2021-11-29,-0.0016266607142063627,0.018308654439169916
1869,0.008339991580130657,0.022832573181949558,0.023024598136544228,0.027033497625961904,0.5409309791332263,0.11798702370317136,US,ridge_context_adapter,20,2021-11-30,2021-12-29,-0.014825480179378348,0.018037609988823533
1868,-0.00839196551613064,0.02502826391137205,0.024819975532591337,0.030540263792499897,0.45289079229122053,0.0924159930929673,US,ridge_context_adapter,21,2021-12-30,2022-01-28,-0.0027938990041600498,0.022268915994209236
1868,-0.024181226038471282,0.02944536463764962,0.028750150743871928,0.03528409574064426,0.4271948608137045,0.10711062007084136,US,ridge_context_adapter,22,2022-01-31,2022-03-01,0.0038317877004536705,0.02167925949033815
1869,-0.025044882214719344,0.030273464927449825,0.029533794522285464,0.03619783455505968,0.5157838416265382,0.12577172420379082,US,ridge_context_adapter,23,2022-03-02,2022-03-30,-3.458746013840219e-05,0.023434354062192145
1868,-0.007591676393563729,0.0291289635351859,0.028909492027014493,0.034736994770355516,0.4866167023554604,0.14158069053318198,US,ridge_context_adapter,24,2022-03-31,2022-04-29,-0.0035356878517782686,0.02196153100230731
1868,0.007798275836285007,0.03359572282060981,0.03385977065190673,0.038644561218097805,0.6076017130620985,0.16212543600112012,US,ridge_context_adapter,25,2022-05-02,2022-05-31,0.001999589904530308,0.023019978665979577
1869,-0.007826540209022737,0.033988440388930036,0.03372449427843094,0.04015677674324253,0.5291599785981809,0.1629375459655563,US,ridge_context_adapter,26,2022-06-01,2022-06-30,-0.007442872762410957,0.02208435982465744
1869,0.00535954722416232,0.026281898783054206,0.026423516869544982,0.03203674301039428,0.5510968432316747,0.11964664788351428,US,ridge_context_adapter,27,2022-07-01,2022-08-01,0.007919408190997124,0.020528023852966728
1869,-0.02832899557420654,0.023860413127113136,0.023203092813491824,0.027949589793570342,0.47886570358480474,0.09897023023625881,US,ridge_context_adapter,28,2022-08-02,2022-08-30,-0.025344104344593665,0.015890239205327818
1868,-0.036503299821315505,0.02922169826924801,0.028192576207220554,0.03191875580232591,0.41916488222698073,0.11710397726838556,US,ridge_context_adapter,29,2022-08-31,2022-09-29,0.010980172980927905,0.017646368613350207
1868,-0.006851971652026334,0.03321649713616352,0.032990447524935004,0.03732817897107452,0.5091006423982869,0.15546392266161846,US,ridge_context_adapter,30,2022-09-30,2022-10-28,-0.004166530092656773,0.019616921572014688
1068,-0.06726775214619218,0.03508857923443429,0.0328770162537694,0.04284326535416767,0.45786516853932585,0.09209535244413197,US,ridge_context_adapter,31,2022-10-31,2022-11-15,-0.006618401370684479,0.024446140375221158
1869,0.0,0.05105208419263363,0.05105208419263363,0.05685185641050339,0.0,0.0,US,zero,0,2020-04-01,2020-04-30,0.0,0.03347623515874147
1869,0.0,0.0338125029578805,0.0338125029578805,0.03985135927796364,0.0005350454788657035,0.0,US,zero,1,2020-05-01,2020-06-01,0.0,0.027721286565065385
1869,0.0,0.03751164022833109,0.03751164022833109,0.04616174474358559,0.004280363830925628,0.0,US,zero,2,2020-06-02,2020-06-30,0.0,0.02450534198433161
1869,0.0,0.025120596401393414,0.025120596401393414,0.029558055102825165,0.002675227394328518,0.0,US,zero,3,2020-07-01,2020-07-30,0.0,0.021926115639507773
1868,0.0,0.02079022815451026,0.02079022815451026,0.0251676719635725,0.0053533190578158455,0.0,US,zero,4,2020-07-31,2020-08-28,0.0,0.019710875023156403
1869,0.0,0.028814785555005076,0.028814785555005076,0.03295586705207825,0.0032102728731942215,0.0,US,zero,5,2020-08-31,2020-09-29,0.0,0.020057208463549615
1869,0.0,0.026708268001675608,0.026708268001675608,0.03104271069169045,0.005350454788657036,0.0,US,zero,6,2020-09-30,2020-10-28,0.0,0.018810497410595418
1867,0.0,0.031114915572106844,0.031114915572106844,0.03725308775901796,0.004284949116229245,0.0,US,zero,7,2020-10-29,2020-11-27,0.0,0.02679861839860678
1869,0.0,0.018664585053920747,0.018664585053920747,0.0222638837993145,0.004280363830925628,0.0,US,zero,8,2020-11-30,2020-12-29,0.0,0.016973359603434802
1869,0.0,0.026755877397954465,0.026755877397954465,0.03107015155255795,0.001070090957731407,0.0,US,zero,9,2020-12-30,2021-01-29,0.0,0.021425931714475155
1869,0.0,0.024507493898272517,0.024507493898272517,0.029559946060180666,0.003745318352059925,0.0,US,zero,10,2021-02-01,2021-03-02,0.0,0.020537248626351357
1869,0.0,0.024497539922595023,0.024497539922595023,0.02833537235856056,0.002675227394328518,0.0,US,zero,11,2021-03-03,2021-03-31,0.0,0.02172922622412443
1869,0.0,0.018579938635230067,0.018579938635230067,0.021779371798038485,0.002675227394328518,0.0,US,zero,12,2021-04-01,2021-04-30,0.0,0.01578082740306854
1869,0.0,0.019162414222955705,0.019162414222955705,0.022631918266415595,0.0032102728731942215,0.0,US,zero,13,2021-05-03,2021-06-01,0.0,0.014949935860931874
1869,0.0,0.017239476181566717,0.017239476181566717,0.020387833192944533,0.0032102728731942215,0.0,US,zero,14,2021-06-02,2021-06-30,0.0,0.014618178084492686
1869,0.0,0.019217103347182275,0.019217103347182275,0.02354092448949814,0.0032102728731942215,0.0,US,zero,15,2021-07-01,2021-07-30,0.0,0.015942868776619434
1869,0.0,0.017131441086530686,0.017131441086530686,0.01980290710926056,0.002675227394328518,0.0,US,zero,16,2021-08-02,2021-08-30,0.0,0.014729063026607037
1869,0.0,0.01918339710682631,0.01918339710682631,0.02303443625569344,0.003745318352059925,0.0,US,zero,17,2021-08-31,2021-09-29,0.0,0.015127008687704804
1869,0.0,0.018963934481143956,0.018963934481143956,0.021769534051418314,0.005885500267522739,0.0,US,zero,18,2021-09-30,2021-10-28,0.0,0.015689667779952288
1869,0.0,0.021834276430308823,0.021834276430308823,0.02765764445066453,0.0032102728731942215,0.0,US,zero,19,2021-10-29,2021-11-29,0.0,0.018278920836746693
1869,0.0,0.023024598136544228,0.023024598136544228,0.02703185193240643,0.0016051364365971107,0.0,US,zero,20,2021-11-30,2021-12-29,0.0,0.01777410041540861
1868,0.0,0.024819975532591337,0.024819975532591337,0.030259763449430453,0.0032119914346895075,0.0,US,zero,21,2021-12-30,2022-01-28,0.0,0.02220687223598361
1868,0.0,0.028750150743871928,0.028750150743871928,0.03427011296153069,0.0016059957173447537,0.0,US,zero,22,2022-01-31,2022-03-01,0.0,0.021762649342417714
1869,0.0,0.029533794522285464,0.029533794522285464,0.0350384496152401,0.0032102728731942215,0.0,US,zero,23,2022-03-02,2022-03-30,0.0,0.02343354355543852
1868,0.0,0.028909492027014493,0.028909492027014493,0.0344369787722826,0.0026766595289079227,0.0,US,zero,24,2022-03-31,2022-04-29,0.0,0.021884155459702015
1868,0.0,0.03385977065190673,0.03385977065190673,0.03952727913856506,0.0021413276231263384,0.0,US,zero,25,2022-05-02,2022-05-31,0.0,0.023066101409494874
1869,0.0,0.03372449427843094,0.03372449427843094,0.03957034647464752,0.002675227394328518,0.0,US,zero,26,2022-06-01,2022-06-30,0.0,0.02192120309919119
1869,0.0,0.026423516869544982,0.026423516869544982,0.0319964200258255,0.002675227394328518,0.0,US,zero,27,2022-07-01,2022-08-01,0.0,0.02069189138710499
1869,0.0,0.023203092813491824,0.023203092813491824,0.027775707095861437,0.004280363830925628,0.0,US,zero,28,2022-08-02,2022-08-30,0.0,0.01549746971577406
1868,0.0,0.028192576207220554,0.028192576207220554,0.031590840220451354,0.004282655246252677,0.0,US,zero,29,2022-08-31,2022-09-29,0.0,0.017842279933393
1868,0.0,0.032990447524935004,0.032990447524935004,0.03705646060407162,0.0016059957173447537,0.0,US,zero,30,2022-09-30,2022-10-28,0.0,0.019535526214167473
1068,0.0,0.0328770162537694,0.0328770162537694,0.040917078778147715,0.0018726591760299626,0.0,US,zero,31,2022-10-31,2022-11-15,0.0,0.02428540978580714
546,0.008924174561710796,0.03607566641585436,0.0364005109295249,0.039600681280717254,0.5091575091575091,0.05561875403474063,JP,ridge_portable,0,2020-04-01,2020-04-30,0.0056729473228090965,0.026677575224312022
545,0.005991193467992706,0.03165594863239676,0.031846748664975166,0.03520827721804381,0.581651376146789,0.040015678003385,JP,ridge_portable,1,2020-05-01,2020-06-03,-0.009640278886229092,0.025370810605818406
546,0.0021806971889571924,0.02910341067763511,0.029167015105485916,0.035323079267982394,0.5018315018315018,0.04086150654207807,JP,ridge_portable,2,2020-06-04,2020-07-02,0.013054554216597292,0.021070699353003874
545,-0.005702116652156031,0.026834195252740757,0.026682051084935668,0.030152130709029737,0.41284403669724773,0.0457058441757618,JP,ridge_portable,3,2020-07-03,2020-08-04,-0.011161111522681288,0.02092855795635842
546,0.01264415166029964,0.023266331059858203,0.023564281407743692,0.028101122938096523,0.6025641025641025,0.04475675650796858,JP,ridge_portable,4,2020-08-05,2020-09-03,-0.0078586161422467,0.01992253262142185
546,0.00021487931912000935,0.02266606572084129,0.02267093723639846,0.0257853711664211,0.5366300366300366,0.03890088291718464,JP,ridge_portable,5,2020-09-04,2020-10-07,-0.011868324766422855,0.0184886032511713
546,-0.004247043026953001,0.025459414093347732,0.025351744145154953,0.030589798334403895,0.48534798534798534,0.038369803713172425,JP,ridge_portable,6,2020-10-08,2020-11-06,-0.010116982011999509,0.0198997606348712
546,0.009009100859882047,0.02939341166347731,0.029660627245903015,0.03484564070822671,0.575091575091575,0.03365320108229464,JP,ridge_portable,7,2020-11-09,2020-12-08,0.008033831671609093,0.023894117017334793
545,0.003199330496140962,0.02353326841257513,0.023608800768852235,0.02751057907007635,0.5247706422018349,0.03988339927969489,JP,ridge_portable,8,2020-12-09,2021-01-08,-0.019671914158260417,0.020946710370481014
546,-0.012128804813702265,0.025897448082105257,0.025587107054889202,0.029800738266203552,0.4908424908424908,0.038443119882659096,JP,ridge_portable,9,2021-01-12,2021-02-09,-0.0029132005790970528,0.023011489713098854
545,-0.012573551524853954,0.0303212353726849,0.0299447238445282,0.03621060578152538,0.5211009174311927,0.042317323004443075,JP,ridge_portable,10,2021-02-10,2021-03-12,-0.013563480170118103,0.025709786074003205
546,0.004237403943033957,0.025660957617219537,0.025770156178623438,0.03018265397986397,0.5238095238095238,0.039414618780351136,JP,ridge_portable,11,2021-03-15,2021-04-12,-0.0011553834756037329,0.020471168576477794
546,-0.0012736965909514453,0.027466875966638327,0.027431936003267765,0.03201498504495248,0.47619047619047616,0.04368259091616901,JP,ridge_portable,12,2021-04-13,2021-05-17,-0.017762051310456384,0.021086931039462797
546,0.0008833619915531443,0.01936159026081441,0.01937870867550373,0.023282444788492285,0.532967032967033,0.03819604832143594,JP,ridge_portable,13,2021-05-18,2021-06-15,0.000978579502141863,0.017657071402936708
546,-0.02655000057855772,0.022556216237717308,0.021972837392240763,0.026040214026579633,0.5018315018315018,0.04042241957226568,JP,ridge_portable,14,2021-06-16,2021-07-14,-0.009276012199284311,0.015093412595888367
546,-0.006891932387396604,0.022059078590245917,0.021908089518547058,0.0259204299072735,0.5402930402930403,0.04571822030411884,JP,ridge_portable,15,2021-07-15,2021-08-17,0.0024493126040886493,0.016816866571389255
546,0.004585339914996545,0.021540533998631872,0.02163975965231657,0.023868997814133763,0.5421245421245421,0.03603601475683613,JP,ridge_portable,16,2021-08-18,2021-09-15,-0.007152924847483089,0.017299285824265098
546,0.010469422015656704,0.026818779413588345,0.02710252720862627,0.03092488247784786,0.5476190476190477,0.04577641810672416,JP,ridge_portable,17,2021-09-16,2021-10-18,0.006571686312930702,0.020216549648466753
546,-0.0003380725770274484,0.021761800555395894,0.02175444597378373,0.025843384268227965,0.47802197802197804,0.04298483774001999,JP,ridge_portable,18,2021-10-19,2021-11-17,0.009074669506761834,0.01750677674135659
546,0.005672946386074074,0.02721771309734322,0.027372998651117086,0.03018979507032782,0.48534798534798534,0.051152233993544224,JP,ridge_portable,19,2021-11-18,2021-12-17,-0.007150505713956035,0.019082269267528318
546,-0.0019335421366739602,0.023414574352500495,0.02336938865482807,0.02725498551444616,0.4816849816849817,0.04363859594177348,JP,ridge_portable,20,2021-12-20,2022-01-20,0.01221150825204742,0.018504921346902847
546,0.005225168867643237,0.029739169876847882,0.029895378276705742,0.035230610563303344,0.4725274725274725,0.04910870891526769,JP,ridge_portable,21,2022-01-21,2022-02-21,-0.011743371650049239,0.023230886879900936
546,0.0013206086744311785,0.036191308056004345,0.03623916581273079,0.04238221229752526,0.5421245421245421,0.04185496714318906,JP,ridge_portable,22,2022-02-22,2022-03-24,0.005489276753122163,0.025449941778788343
546,-0.006692200475926224,0.024852413887856528,0.02468720218166709,0.028828240581788123,0.5,0.04049039187246277,JP,ridge_portable,23,2022-03-25,2022-04-22,-0.008802192183606339,0.019889096525730565
544,0.006884991986305211,0.02907121282769367,0.02927275551483035,0.03480471081566065,0.4889705882352941,0.0462688787829597,JP,ridge_portable,24,2022-04-25,2022-05-27,-0.014386837972068633,0.02345704463950824
546,-0.0009529512715689137,0.025072982854908332,0.025049112271517515,0.029684326786082238,0.5421245421245421,0.04569742908060536,JP,ridge_portable,25,2022-05-30,2022-06-27,0.005126726523561165,0.01965481416482362
546,0.00903159597229286,0.023303416193812154,0.023515801411122084,0.02720371072064154,0.5622710622710623,0.045694365221367904,JP,ridge_portable,26,2022-06-28,2022-07-27,0.002767376749945649,0.0176944731574622
546,0.0037576950692513877,0.023893524346931372,0.02398364758118987,0.029293332612724043,0.4835164835164835,0.032532369196268625,JP,ridge_portable,27,2022-07-28,2022-08-26,-0.005982834395423131,0.0183223697822541
546,-0.0037502765124028947,0.02303337343619205,0.0229473146609962,0.02682310587260872,0.46703296703296704,0.04069686828401324,JP,ridge_portable,28,2022-08-29,2022-09-28,0.007711874460882173,0.015114169575099368
546,0.00833588463850754,0.025212182867107913,0.025424115359783173,0.03036336784134619,0.5622710622710623,0.04494481408778392,JP,ridge_portable,29,2022-09-29,2022-10-28,-0.016088821233414263,0.017921098216902465
286,0.010649096681572434,0.02549091525725089,0.02576529234647751,0.030465431278571486,0.4755244755244755,0.03856903060468087,JP,ridge_portable,30,2022-10-31,2022-11-15,0.0061883353310179245,0.023580081200634595
546,0.006921077177260204,0.03614858018408995,0.0364005109295249,0.039902426971821114,0.532967032967033,0.07074329012747417,JP,ridge_context_adapter,0,2020-04-01,2020-04-30,0.01160480696922439,0.026518424740061164
545,0.004821768991108644,0.03169319099979476,0.031846748664975166,0.035032586357556295,0.5853211009174312,0.05332018186332222,JP,ridge_context_adapter,1,2020-05-01,2020-06-03,-0.011924222042893451,0.025428202818147838
546,-0.006186651729601866,0.029347461269935593,0.029167015105485916,0.03479819672065787,0.4652014652014652,0.05135704609758123,JP,ridge_context_adapter,2,2020-06-04,2020-07-02,0.009492988096559518,0.021146736675291322
545,-0.008868151621984621,0.026918671559542418,0.026682051084935668,0.030115248169749975,0.43486238532110094,0.05247822659812767,JP,ridge_context_adapter,3,2020-07-03,2020-08-04,-0.003984755027817588,0.0207800249569118
546,0.018265050186142773,0.023133878625230864,0.023564281407743692,0.02780116201029159,0.5860805860805861,0.050473630006722045,JP,ridge_context_adapter,4,2020-08-05,2020-09-03,-0.02165173518706842,0.020195183824398555
546,-0.006852659054292332,0.022826293439720757,0.02267093723639846,0.02600824789260514,0.5402930402930403,0.03932953151054332,JP,ridge_context_adapter,5,2020-09-04,2020-10-07,-0.007186469823773134,0.0184030575765064
546,0.005259340362051224,0.025218410693923943,0.025351744145154953,0.030278465012088418,0.5018315018315018,0.04114515876073289,JP,ridge_context_adapter,6,2020-10-08,2020-11-06,-0.0037189111735405067,0.01977371575048892
546,0.011436363693132168,0.029321417525352444,0.029660627245903015,0.0343935751443496,0.5842490842490843,0.04676136965339038,JP,ridge_context_adapter,7,2020-11-09,2020-12-08,-0.000304441754170659,0.024094966287520947
545,0.0017973417007295378,0.02356636768672616,0.023608800768852235,0.027472190384287398,0.5155963302752293,0.04187581015439767,JP,ridge_context_adapter,8,2020-12-09,2021-01-08,-0.01141327075534404,0.02077705637784675
546,-0.011775988743990773,0.025888420539558865,0.025587107054889202,0.030208569864043966,0.5164835164835165,0.044748301714103295,JP,ridge_context_adapter,9,2021-01-12,2021-02-09,-0.0019010592054451436,0.022988266486208886
545,-0.016270259205277693,0.030431932263309137,0.0299447238445282,0.036423002753872426,0.5284403669724771,0.04731824753131915,JP,ridge_context_adapter,10,2021-02-10,2021-03-12,-0.01702775587620997,0.025797659985255454
546,-0.001950032913217381,0.025820408831350505,0.025770156178623438,0.029973025288200006,0.5439560439560439,0.04483293746803837,JP,ridge_context_adapter,11,2021-03-15,2021-04-12,-0.002803177869864504,0.020504861924564466
546,-0.006969492460265458,0.027623122674413025,0.027431936003267765,0.03212574665667489,0.489010989010989,0.04182596430577901,JP,ridge_context_adapter,12,2021-04-13,2021-05-17,-0.015037319045653419,0.021030477528256597
546,-0.0028811787284099832,0.019434542198723648,0.01937870867550373,0.02328771555039566,0.5146520146520146,0.039050570570484694,JP,ridge_context_adapter,13,2021-05-18,2021-06-15,-0.0011997691231906416,0.017695572336378973
546,-0.01728814396406797,0.02235270696837688,0.021972837392240763,0.02585873474890832,0.5384615384615384,0.04400981702292288,JP,ridge_context_adapter,14,2021-06-16,2021-07-14,-0.005887589558929207,0.015042739776617964
546,0.0033446870576788745,0.021834813815075904,0.021908089518547058,0.0259147739270702,0.5457875457875457,0.04469694809184038,JP,ridge_context_adapter,15,2021-07-15,2021-08-17,0.0038444069341119214,0.01679334785148967
546,0.008786084039884678,0.021449630905408412,0.02163975965231657,0.02376277488656342,0.5128205128205128,0.038219182813379354,JP,ridge_context_adapter,16,2021-08-18,2021-09-15,-0.015071000934905321,0.017435290057619568
546,0.004598601404200431,0.026977893488947302,0.02710252720862627,0.030804403824731708,0.5293040293040293,0.04897507152577222,JP,ridge_context_adapter,17,2021-09-16,2021-10-18,0.006553552092008363,0.020216918685036944
546,-0.0020057628603757927,0.021798080233565997,0.02175444597378373,0.02568988139682915,0.5073260073260073,0.0440542357685921,JP,ridge_context_adapter,18,2021-10-19,2021-11-17,0.00429063394640794,0.01759129677520832
546,-0.0007380098825908732,0.027393200194637757,0.027372998651117086,0.03041382993978914,0.4706959706959707,0.047266853644755115,JP,ridge_context_adapter,19,2021-11-18,2021-12-17,0.00048222138101572387,0.018937653589091497
546,-0.005549348361016726,0.023499073533457704,0.02336938865482807,0.027147183747729287,0.5036630036630036,0.04585588700686058,JP,ridge_context_adapter,20,2021-12-20,2022-01-20,0.005668550302901809,0.018627495079272194
546,0.006871158518224285,0.02968996239360422,0.029895378276705742,0.0352213877486065,0.4358974358974359,0.049046841769127686,JP,ridge_context_adapter,21,2022-01-21,2022-02-21,-0.013814693459377025,0.023278447006305214
546,-0.002228693581472152,0.036319931808975525,0.03623916581273079,0.04243507995852269,0.5164835164835165,0.044994429928597854,JP,ridge_context_adapter,22,2022-02-22,2022-03-24,0.0063359632928375875,0.02542827471916098
546,-0.009443424210827445,0.024920333904447034,0.02468720218166709,0.028913953341543674,0.47802197802197804,0.04438954271707283,JP,ridge_context_adapter,23,2022-03-25,2022-04-22,0.004454322196158711,0.019627736968686804
544,0.0010291860767662753,0.0292426284024259,0.02927275551483035,0.03501837724470532,0.5110294117647058,0.045508986047217946,JP,ridge_context_adapter,24,2022-04-25,2022-05-27,-0.008203941902690692,0.02331406913581304
546,-0.002378577118816727,0.02510869351681322,0.025049112271517515,0.029452826478518546,0.489010989010989,0.051045040694302705,JP,ridge_context_adapter,25,2022-05-30,2022-06-27,0.0033370886899082297,0.019690170425747056
546,0.009265450863477742,0.023297916908632033,0.023515801411122084,0.027326586801791564,0.5494505494505495,0.04395073926843797,JP,ridge_context_adapter,26,2022-06-28,2022-07-27,0.004437001627648929,0.017664848041022196
546,0.000570758480071154,0.023969958710949868,0.02398364758118987,0.02949146437458694,0.5,0.03682683237020751,JP,ridge_context_adapter,27,2022-07-28,2022-08-26,-0.0077133679148173595,0.01835388868494192
546,-0.0014631132784335144,0.022980889181781095,0.0229473146609962,0.02671010715130251,0.5,0.039756426169287776,JP,ridge_context_adapter,28,2022-08-29,2022-09-28,0.007998898109229713,0.015109797735931352
546,0.003918666349303823,0.02532448673446197,0.025424115359783173,0.030582101899199188,0.5567765567765568,0.04586144093441013,JP,ridge_context_adapter,29,2022-09-29,2022-10-28,-0.022517008974601627,0.018034474313026294
286,0.006727326320883464,0.025591960817109793,0.02576529234647751,0.030493696394842118,0.5314685314685315,0.04676717834339048,JP,ridge_context_adapter,30,2022-10-31,2022-11-15,0.018040809725929807,0.02329885859217029
546,0.0,0.0364005109295249,0.0364005109295249,0.04039164446294308,0.009157509157509158,0.0,JP,zero,0,2020-04-01,2020-04-30,0.0,0.026829779148101807
545,0.0,0.031846748664975166,0.031846748664975166,0.035606537014245994,0.007339449541284404,0.0,JP,zero,1,2020-05-01,2020-06-03,0.0,0.025128564238548277
546,0.0,0.029167015105485916,0.029167015105485916,0.035456886515021324,0.003663003663003663,0.0,JP,zero,2,2020-06-04,2020-07-02,0.0,0.021349406335502863
545,0.0,0.026682051084935668,0.026682051084935668,0.029913410916924482,0.001834862385321101,0.0,JP,zero,3,2020-07-03,2020-08-04,0.0,0.020697550289332872
546,0.0,0.023564281407743692,0.023564281407743692,0.02863222546875477,0.009157509157509158,0.0,JP,zero,4,2020-08-05,2020-09-03,0.0,0.019767189864069223
546,0.0,0.02267093723639846,0.02267093723639846,0.02550322748720646,0.009157509157509158,0.0,JP,zero,5,2020-09-04,2020-10-07,0.0,0.018271748209372163
546,0.0,0.025351744145154953,0.025351744145154953,0.03058197908103466,0.014652014652014652,0.0,JP,zero,6,2020-10-08,2020-11-06,0.0,0.019700451521202922
546,0.0,0.029660627245903015,0.029660627245903015,0.03517754375934601,0.003663003663003663,0.0,JP,zero,7,2020-11-09,2020-12-08,0.0,0.0240876330062747
545,0.0,0.023608800768852235,0.023608800768852235,0.027222198992967607,0.009174311926605505,0.0,JP,zero,8,2020-12-09,2021-01-08,0.0,0.020542598143219952
546,0.0,0.025587107054889202,0.025587107054889202,0.029710659757256508,0.01098901098901099,0.0,JP,zero,9,2021-01-12,2021-02-09,0.0,0.0229446473531425
545,0.0,0.0299447238445282,0.0299447238445282,0.03637139573693276,0.003669724770642202,0.0,JP,zero,10,2021-02-10,2021-03-12,0.0,0.025365738384425643
546,0.0,0.025770156178623438,0.025770156178623438,0.030255149118602276,0.003663003663003663,0.0,JP,zero,11,2021-03-15,2021-04-12,0.0,0.02044754382222891
546,0.0,0.027431936003267765,0.027431936003267765,0.03187778405845165,0.003663003663003663,0.0,JP,zero,12,2021-04-13,2021-05-17,0.0,0.02071892051026225
546,0.0,0.01937870867550373,0.01937870867550373,0.023121939972043037,0.01098901098901099,0.0,JP,zero,13,2021-05-18,2021-06-15,0.0,0.017674367176368833
546,0.0,0.021972837392240763,0.021972837392240763,0.025452264584600925,0.01098901098901099,0.0,JP,zero,14,2021-06-16,2021-07-14,0.0,0.01495469268411398
546,0.0,0.021908089518547058,0.021908089518547058,0.02586392965167761,0.01098901098901099,0.0,JP,zero,15,2021-07-15,2021-08-17,0.0,0.01685815746895969
546,0.0,0.02163975965231657,0.02163975965231657,0.02368237543851137,0.01098901098901099,0.0,JP,zero,16,2021-08-18,2021-09-15,0.0,0.017176424153149128
546,0.0,0.02710252720862627,0.02710252720862627,0.03059008438140154,0.007326007326007326,0.0,JP,zero,17,2021-09-16,2021-10-18,0.0,0.020350285340100527
546,0.0,0.02175444597378373,0.02175444597378373,0.02577176969498396,0.005494505494505495,0.0,JP,zero,18,2021-10-19,2021-11-17,0.0,0.017667099833488464
546,0.0,0.027372998651117086,0.027372998651117086,0.03007544856518507,0.005494505494505495,0.0,JP,zero,19,2021-11-18,2021-12-17,0.0,0.018946790136396885
546,0.0,0.02336938865482807,0.02336938865482807,0.027393491938710213,0.005494505494505495,0.0,JP,zero,20,2021-12-20,2022-01-20,0.0,0.01873368793167174
546,0.0,0.029895378276705742,0.029895378276705742,0.03548507206141949,0.009157509157509158,0.0,JP,zero,21,2022-01-21,2022-02-21,0.0,0.022961244452744722
546,0.0,0.03623916581273079,0.03623916581273079,0.04216103442013264,0.0,0.0,JP,zero,22,2022-02-22,2022-03-24,0.0,0.02559041464701295
546,0.0,0.02468720218166709,0.02468720218166709,0.028634299524128437,0.003663003663003663,0.0,JP,zero,23,2022-03-25,2022-04-22,0.0,0.019715556409209967
544,0.0,0.02927275551483035,0.02927275551483035,0.03504526875913143,0.009191176470588236,0.0,JP,zero,24,2022-04-25,2022-05-27,0.0,0.023124358244240285
546,0.0,0.025049112271517515,0.025049112271517515,0.029537471942603588,0.009157509157509158,0.0,JP,zero,25,2022-05-30,2022-06-27,0.0,0.01975609827786684
546,0.0,0.023515801411122084,0.023515801411122084,0.027265056036412716,0.005494505494505495,0.0,JP,zero,26,2022-06-28,2022-07-27,0.0,0.01774357631802559
546,0.0,0.02398364758118987,0.02398364758118987,0.02905675582587719,0.005494505494505495,0.0,JP,zero,27,2022-07-28,2022-08-26,0.0,0.01821340201422572
546,0.0,0.0229473146609962,0.0229473146609962,0.026825325563549995,0.01098901098901099,0.0,JP,zero,28,2022-08-29,2022-09-28,0.0,0.01523163402453065
546,0.0,0.025424115359783173,0.025424115359783173,0.03065230045467615,0.009157509157509158,0.0,JP,zero,29,2022-09-29,2022-10-28,0.0,0.017637334298342466
286,0.0,0.02576529234647751,0.02576529234647751,0.030787584371864796,0.0034965034965034965,0.0,JP,zero,30,2022-10-31,2022-11-15,0.0,0.023726911284029484
